%
O0100
(SONCHU POSTPROCESSOR A.I.C TAICHUNG)
G40G49G90G80
G17G00G54X0.Y0.
/G05.1 Q1
(TOOL: 25R5)
M03S3600
G43Z0.H1
M8
G00X1.02Y34.828
Z42.503
G01X.02F3200. 
X-.5
Y34.979Z42.097
Y35.137Z41.757
Y35.343Z41.444
G02X-.5Y41.334I0.J-30.422
G01Y42.239Z28.356
Y43.144Z26.188
X.02
Y17.153Z41.933
X-.5
Y17.591Z41.832
Y18.217Z41.644
G02X-.5Y27.785I0.J-6.815
G01Y28.795Z33.561
Y30.296Z31.009
Y30.915Z29.767
Y43.144Z.248
G00X5.
Y8.03Z-42.45
X1.02
G01X.02F3200.
X-.5
Y7.663Z-42.066
Y7.413Z-41.837
Y7.134Z-41.644
Y6.068Z-41.01
Y5.092Z-40.348
Y4.088Z-39.577
Y3.558Z-40.469
Y2.747Z-41.644
X.02
Y43.95Z-24.775
X-.5
Y43.462Z-25.332
Y43.144Z-25.732
G02X-.5Y35.835I0.J-16.283
G01Y30.42Z-33.872
Y28.615Z-34.617
G02X-.5Y3.621I0.J-6.443
G01Y-1.708Z-10.563
Z-21.354
G02X-.5Y-6.161I0.J-23.351
G01Y-7.249Z-38.19
Y-8.763Z-39.656
Y-9.609Z-40.388
Y-10.531Z-41.021
Y-11.558Z-41.644
G00X5.
Y-43.854Z25.399
X1.02
G01X.02F3200.
X-.5
Y-43.555Z26.036
Y-43.144Z26.75
G02X-.5Y-31.775I0.J15.872
G01Y-30.731Z34.526
Y-29.668Z34.651
Y-27.814Z34.77
Y-26.601Z34.773
Y-24.406Z34.647
Y-22.214Z34.778
Y-20.984Z34.775
Y-19.546Z34.684
G02X-.5Y-9.956I0.J-2.113
X-.5Y1.713I0.J16.837
G01Y3.764Z40.767
Y4.492Z41.075
Y5.997Z41.644
G00X5.
Y12.591Z-41.88
X1.02
G01X.02F3200.
X-.5
Y12.636Z-39.562
Y12.86Z-27.972
Y12.905Z-25.654
Y12.994Z-21.018
Y12.959Z-20.323
Y12.828Z-19.64
Y12.603Z-18.981
Y12.463Z-18.648
Y12.067Z-17.707
Y-1.773Z15.706
Y-2.396Z17.614
Y-2.768Z19.587
Z21.366
Y-2.461Z23.118
Y-1.974Z24.62
Y-1.262Z26.03
Y-.408Z27.193
Y.618Z28.208
Y1.628Z28.948
Y2.935Z29.634
Y5.503Z30.53
Y8.03Z31.722
Y9.734Z32.367
Y11.701Z32.67
Y13.604Z32.555
Y15.442Z32.047
Y16.847Z31.377
Y18.153Z30.53
Y19.27Z29.553
Y20.175Z28.492
Y21.676Z25.939
Y35.129Z-6.53
Y36.579Z-10.117
Y37.036Z-12.004
Y37.159Z-13.942
Y36.864Z-16.119
Y36.123Z-18.187
Y35.034Z-19.908
Y33.601Z-21.354
Y32.021Z-22.394
Y30.266Z-23.102
Y26.627Z-24.609
Y24.8Z-25.373
Y22.854Z-25.741
Y20.919Z-25.701
Y19.033Z-25.266
Y17.13Z-24.378
Y15.442Z-23.129
Y13.885Z-21.354
Y12.859Z-19.589
Y12.603Z-18.981
G03X-.5Y9.86I0.J-1.848
G01Y-12.704Z-29.334
Y-12.971Z-29.496
Y-13.209Z-29.697
Y-13.414Z-29.933
Y-14.206Z-31.006
Y-15.72Z-32.472
Y-17.521Z-33.566
Y-19.521Z-34.232
Y-21.618Z-34.438
Y-23.471Z-34.388
Y-25.324Z-34.389
Y-27.179Z-34.434
Y-29.03Z-34.317
Y-31.185Z-33.696
Y-33.175Z-32.552
Y-34.929Z-30.84
Y-36.234Z-28.766
Y-36.442Z-28.309
Y-36.981Z-26.626
Y-37.252Z-24.879
Y-37.292Z-21.354
Z13.857
Y-37.141Z15.706
Y-36.885Z17.12
Y-36.442Z18.487
Y-35.767Z19.835
Y-34.897Z21.095
Y-33.925Z22.183
Y-32.804Z23.118
Y-31.005Z24.108
Y-29.03Z24.672
Y-27.176Z24.79
Y-25.323Z24.66
Y-24.395Z24.63
Y-23.469Z24.675
Y-21.618Z24.796
Y-20.18Z24.704
Y-18.774Z24.388
Y-17.44Z23.857
Y-16.196Z23.118
Y-15.109Z22.215
Y-14.206Z21.225
Y-13.36Z20.051
Y-12.68Z18.774
Y-12.153Z17.271
Y-11.856Z15.706
Y-11.708Z13.857
Z6.474
Z5.906
Y-11.692Z5.696
Y-11.645Z5.491
Y-11.568Z5.296
Y-11.463Z5.114
Y-11.331Z4.95
Y-11.177Z4.808
Y-5.285Z.148
Y-5.13Z.005
Y-4.999Z-.159
Y-4.893Z-.341
Y-4.816Z-.537
Y-4.769Z-.743
Y-4.754Z-.953
Y-4.759Z-4.319
Y-3.055Z-3.715
Y-1.317Z-3.622
Y-2.6Z-.526
Y-2.672Z-.379
Y-2.76Z-.24
Y-2.864Z-.114
Y-9.278Z6.854
Y-9.455Z7.016
Y-9.656Z7.145
Y-9.877Z7.238
Y-10.11Z7.292
Y-10.35Z7.305
Y-10.587Z7.278
Y-10.817Z7.21
Y-11.032Z7.104
Y-11.226Z6.963
Y-11.392Z6.792
Y-11.527Z6.594
Y-11.627Z6.376
Y-11.688Z6.144
Y-11.708Z5.906
Z5.338
Z-21.354
Y-11.773Z-25.126
Y-12.13Z-27.076
Y-12.766Z-28.766
Y-13.414Z-29.933
X-.214Y-13.683Z-30.672
X.073Y-13.834Z-31.444
X.359Y-13.862Z-32.231
X.646Y-13.767Z-33.012
X.932Y-13.551Z-33.769
Y8.03Z-43.02
X-.48
X-1.
Y7.598Z-42.846
Y6.841Z-42.465
Y4.605Z-41.089
Y4.333Z-40.894
Y3.302Z-42.465
X-.48
Y44.52Z-25.345
X-1.
Y44.29Z-25.771
Y43.965Z-26.292
G02X-1.Y32.257I0.J-18.89
G01Y30.446Z-35.038
G02X-1.Y2.732I0.J-8.157
G01Y-.917Z-14.557
Z-21.354
Y-.977Z-25.264
G02X-1.Y-10.954I0.J-21.454
G00X5.Z-42.465
Y-44.424Z25.969
X.52
G01X-.48F3200.
X-1.
Y-44.332Z26.436
Y-44.249Z26.749
Y-44.126Z27.049
Y-43.965Z27.331
Y-43.892Z27.441
G02X-1.Y-34.23I0.J16.958
G01Y-33.266Z35.073
G02X-1.Y-27.188I0.J6.58
G01Y-21.624Z35.952
Y-20.807Z35.919
Y-18.924Z35.766
Y-16.997Z35.417
Y-15.18Z34.899
Y-13.398Z34.202
Y-11.6Z33.291
Y-10.261Z32.433
Y-9.903Z32.993
Y-8.748Z34.485
Y-7.452Z35.868
Y-5.996Z37.152
Y-4.467Z38.262
Y-2.98Z39.141
Y-1.578Z39.827
Y1.246Z40.946
Y4.031Z42.161
Y4.834Z42.465
X-.48
Y35.398Z43.074
X-1.
Y35.46Z42.906
Y35.645Z42.515
Y35.894Z42.161
G02X-1.Y42.127I0.J-31.946
G01Y43.046Z28.541
Y43.965Z26.334
X-.48
Y17.723Z43.074
X-1.
Y18.567Z42.675
Y19.085Z42.465
G02X-1.Y28.825I0.J-7.738
G01Y29.726Z33.687
Y30.3Z32.741
Y31.057Z31.321
Y31.425Z30.556
Y32.093Z28.997
Y43.965Z.335
X-.48
Y43.38Z36.232
X-1.
Y41.363Z34.788
Y27.243Z24.679
Y26.605Z24.135
Y26.067Z23.493
Y25.643Z22.771
Y25.346Z21.987
Y25.184Z21.165
Y25.162Z20.328
Y25.28Z19.498
Y25.534Z18.7
Y25.666Z18.382
Y36.911Z-8.767
Y37.678Z-11.063
Y37.93Z-12.493
Y38.009Z-13.942
Y37.931Z-15.294
Y37.678Z-16.625
Y37.26Z-17.918
Y36.697Z-19.154
Y36.044Z-20.216
Y35.111Z-21.354
Y34.053Z-22.319
Y32.868Z-23.123
Y30.266Z-24.3
Y26.644Z-25.788
Y24.796Z-26.462
Y22.854Z-26.774
Y20.894Z-26.702
Y18.985Z-26.25
Y17.196Z-25.469
Y15.442Z-24.284
Y13.916Z-22.75
Y12.911Z-21.354
Y11.971Z-19.54
Y-2.629Z15.706
Y-3.251Z17.615
Y-3.611Z19.591
Y-3.672Z21.358
Y-3.494Z23.118
Y-2.928Z25.042
Y-2.025Z26.832
Y-.838Z28.368
Y.618Z29.652
Y2.106Z30.53
Y5.089Z31.712
Y8.03Z32.996
Y9.819Z33.573
Y11.685Z33.792
Y13.594Z33.66
Y15.442Z33.167
Y16.532Z32.709
Y17.634Z32.09
Y18.619Z31.366
Y19.513Z30.53
Y20.577Z29.346
Y21.477Z28.033
Y22.235Z26.614
Y22.854Z25.17
Y25.534Z18.7
X-.714Y25.945Z18.029
X-.427Y26.457Z17.43
X-.141Y27.055Z16.919
X.146Y27.726Z16.508
X.432Y28.453Z16.207
Y25.666Z18.382
X-1.
Y26.603Z16.12
Y36.911Z-8.767
Y37.678Z-11.063
Y37.93Z-12.493
Y38.009Z-13.942
Y37.931Z-15.294
Y37.678Z-16.625
Y37.26Z-17.918
Y36.697Z-19.154
Y36.044Z-20.216
Y35.111Z-21.354
Y34.053Z-22.319
Y32.868Z-23.123
Y30.266Z-24.3
Y26.644Z-25.788
Y24.796Z-26.462
Y22.854Z-26.774
Y20.894Z-26.702
Y18.985Z-26.25
Y17.196Z-25.469
Y15.442Z-24.284
Y13.916Z-22.75
Y12.911Z-21.354
Y11.971Z-19.54
Y-2.629Z15.706
Y-3.251Z17.615
Y-3.611Z19.591
Y-3.672Z21.358
Y-3.494Z23.118
Y-2.928Z25.042
Y-2.319Z26.25
Y-3.953Z25.9
Y-5.506Z25.282
Y-6.935Z24.415
Y-8.199Z23.322
Y-9.264Z22.033
Y-10.1Z20.585
Y-10.682Z19.019
Y-10.996Z17.377
Y-11.032Z15.706
Y-10.917Z13.855
Z2.497
Z1.929
Y-10.902Z1.72
Y-10.855Z1.515
Y-10.777Z1.319
Y-10.672Z1.137
Y-10.54Z.973
Y-10.385Z.831
Y-4.498Z-3.821
Y-4.343Z-3.964
Y-4.212Z-4.128
Y-4.106Z-4.311
Y-4.029Z-4.507
Y-3.982Z-4.712
Y-3.966Z-4.922
Y-3.971Z-8.314
Y-2.272Z-7.711
Y-.522Z-7.616
Y-1.815Z-4.496
Y-1.886Z-4.348
Y-1.975Z-4.21
Y-2.078Z-4.083
Y-8.487Z2.878
Y-8.664Z3.039
Y-8.866Z3.169
Y-9.086Z3.261
Y-9.32Z3.315
Y-9.559Z3.329
Y-9.797Z3.301
Y-10.026Z3.234
Y-10.241Z3.128
Y-10.435Z2.987
Y-10.602Z2.815
Y-10.737Z2.617
Y-10.836Z2.4
Y-10.897Z2.168
Y-10.917Z1.929
Z1.362
Z-21.354
Y-10.975Z-25.11
Y-11.258Z-26.972
Y-11.833Z-28.766
Y-12.835Z-30.697
Y-14.206Z-32.384
Y-15.836Z-33.756
Y-17.649Z-34.732
Y-19.595Z-35.311
Y-21.618Z-35.486
Y-25.325Z-35.499
Y-27.179Z-35.481
Y-29.03Z-35.375
Y-31.251Z-34.772
Y-33.22Z-33.718
Y-35.013Z-32.154
Y-35.78Z-31.243
Y-36.442Z-30.252
Y-37.167Z-28.766
Y-37.728Z-27.031
Y-38.025Z-25.11
Y-38.083Z-21.354
Z13.855
Y-37.963Z15.706
Y-37.777Z16.977
Y-37.44Z18.216
Y-36.442Z20.577
Y-35.551Z21.926
Y-34.459Z23.118
Y-33.234Z24.129
Y-31.866Z24.936
Y-30.482Z25.495
Y-29.03Z25.839
Y-27.178Z25.946
Y-25.324Z25.901
Y-21.618Z25.952
Y-19.734Z25.798
Y-17.917Z25.281
Y-16.119Z24.371
Y-14.541Z23.118
Y-14.206Z22.789
Y-13.01Z21.32
Y-12.107Z19.654
Y-11.407Z17.724
Y-11.032Z15.706
X-.714Y-10.769Z14.964
X-.427Y-10.394Z14.273
X-.141Y-9.914Z13.649
X.146Y-9.343Z13.107
X.432Y-8.695Z12.661
G00X5.
Y35.398Z43.644
X.02
G01X-.98F3200.
X-1.5
Y36.071Z42.897
Y36.269Z42.662
G02X-1.5Y42.74I0.J-33.763
G01Y43.638Z28.608
Y44.536Z26.447
X-.98
Y18.863Z43.644
X-1.5
Y19.351Z43.288
Y19.56Z43.151
Y19.782Z43.036
G02X-1.5Y29.829I0.J-9.07
G01Y30.632Z33.308
Y31.71Z31.254
Y32.092Z30.437
Y44.536Z.413
G00X5.
Y7.46Z-43.59
X.02
G01X-.98F3200.
X-1.5
Y6.71Z-43.217
Y6.378Z-43.036
Y5.551Z-42.543
Y5.246Z-42.325
Y4.509Z-41.862
Y3.694Z-43.036
X-.98
Y45.09Z-25.345
X-1.5
Y44.896Z-26.006
Y44.747Z-26.393
Y44.536Z-26.749
G02X-1.5Y33.903I0.J-17.828
G01Y32.193Z-35.138
G02X-1.5Y2.452I0.J-9.725
G01Y2.187Z-23.51
Y-.36Z-17.362
Z-21.354
G02X-1.5Y-5.203I0.J-25.324
G01Y-6.018Z-39.282
Y-6.98Z-40.288
Y-7.937Z-41.166
Y-9.187Z-42.172
Y-10.458Z-43.036
G00X5.
Y-44.995Z26.539
X.02
G01X-.98F3200.
X-1.5
Y-44.846Z27.062
Y-44.717Z27.415
Y-44.536Z27.745
G02X-1.5Y-34.915I0.J17.258
G01Y-33.197Z36.013
G02X-1.5Y-25.257I0.J6.356
X-1.5Y-11.247I0.J2.556
G01Y-10.51Z33.598
Y-9.196Z35.283
Y-7.76Z36.776
Y-6.095Z38.181
Y-5.241Z38.826
Y-4.309Z39.382
Y-2.227Z40.476
Y-1.123Z40.973
Y.558Z41.612
Y3.853Z43.036
G00X5.
Y7.867Z-31.75
X.02
G01X-.98F3200.
X-1.5
Y9.178Z-30.67
Y10.286Z-29.383
Y11.162Z-27.928
Y11.779Z-26.345
Y12.119Z-24.681
Y12.174Z-22.984
Y11.94Z-21.301
Y11.426Z-19.683
Y11.211Z-19.165
Y-.163Z8.294
Y-3.228Z15.706
Y-3.822Z17.498
Y-4.185Z19.35
Y-4.338Z21.234
Y-4.182Z23.118
Y-3.637Z25.354
Y-3.196Z26.418
Y-2.641Z27.428
Y-1.31Z29.134
Y.343Z30.53
Y.618Z30.711
Y2.425Z31.624
Y4.318Z32.343
Y6.183Z33.124
Y8.03Z33.947
Y9.845Z34.475
Y11.725Z34.666
Y13.613Z34.515
Y15.442Z34.024
Y16.901Z33.355
Y18.138Z32.583
Y19.334Z31.628
Y20.402Z30.53
Y21.777Z28.662
Y22.854Z26.608
Y24.308Z23.118
Y36.589Z-6.53
Y37.678Z-9.176
Y38.364Z-11.517
Y38.55Z-12.724
Y38.626Z-13.942
Y38.408Z-16.403
Y38.11Z-17.603
Y37.678Z-18.763
Y36.982Z-20.115
Y36.101Z-21.354
Y34.873Z-22.613
Y33.454Z-23.652
Y31.786Z-24.482
Y26.655Z-26.608
Y24.796Z-27.24
Y22.854Z-27.524
Y20.88Z-27.443
Y18.955Z-26.997
Y16.974Z-26.128
Y15.442Z-25.089
Y14.446Z-24.219
Y13.553Z-23.243
Y12.248Z-21.354
Y11.426Z-19.683
G03X-1.5Y8.626I0.J-1.798
G01Y-11.814Z-30.71
Y-12.039Z-30.863
Y-12.241Z-31.044
Y-12.417Z-31.251
G02X-1.5Y-21.618I0.J-9.152
G01Y-28.702Z-36.178
Y-29.03Z-36.137
Y-30.135Z-35.921
Y-31.21Z-35.588
Y-33.182Z-34.619
Y-34.114Z-33.96
Y-34.972Z-33.207
Y-35.753Z-32.373
Y-36.442Z-31.464
Y-37.207Z-30.153
Y-37.824Z-28.766
Y-38.337Z-26.96
Y-38.591Z-25.1
Y-38.64Z-21.354
Z13.855
Y-38.545Z15.706
Y-38.295Z17.332
Y-37.874Z18.922
Y-37.259Z20.45
Y-36.442Z21.879
Y-35.528Z23.118
Y-34.18Z24.452
Y-32.613Z25.52
Y-30.876Z26.286
Y-29.03Z26.727
Y-27.178Z26.825
Y-25.324Z26.77
Y-23.471Z26.772
Y-21.618Z26.831
Y-19.586Z26.665
Y-17.626Z26.105
Y-15.808Z25.173
Y-14.206Z23.904
Y-13.472Z23.118
Y-12.319Z21.509
Y-11.423Z19.744
Y-10.804Z17.757
Y-10.453Z15.706
Y-10.36Z12.001
Z-.437
Z-1.002
Y-10.343Z-1.215
Y-10.295Z-1.423
Y-10.215Z-1.621
Y-10.107Z-1.805
Y-9.971Z-1.97
Y-9.812Z-2.113
Y-3.955Z-6.61
Y-3.795Z-6.753
Y-3.66Z-6.918
Y-3.551Z-7.102
Y-3.471Z-7.301
Y-3.423Z-7.509
Y-3.407Z-7.722
Y-3.412Z-11.119
Y-1.699Z-10.513
Y.037Z-10.421
Y-1.257Z-7.296
Y-1.331Z-7.145
Y-1.422Z-7.003
Y-1.53Z-6.874
Y-7.939Z-.044
Y-8.116Z.115
Y-8.318Z.242
Y-8.539Z.333
Y-8.771Z.385
Y-9.01Z.397
Y-9.246Z.368
Y-9.475Z.3
Y-9.688Z.193
Y-9.881Z.052
Y-10.046Z-.119
Y-10.18Z-.317
Y-10.279Z-.534
Y-10.339Z-.765
Y-10.36Z-1.002
Z-1.568
Z-21.354
Y-10.409Z-25.1
Y-10.663Z-26.96
Y-11.176Z-28.766
Y-11.724Z-30.019
Y-12.417Z-31.251
X-1.214Y-12.691Z-31.989
X-.927Y-12.846Z-32.76
X-.641Y-12.879Z-33.547
X-.354Y-12.788Z-34.328
X-.068Y-12.576Z-35.086
Y7.46Z-44.161
X-1.48
X-2.
Y7.006Z-43.979
Y6.511Z-43.748
Y6.044Z-43.465
Y4.679Z-42.532
Y4.021Z-43.465
X-1.48
Y45.661Z-25.916
X-2.
Y45.443Z-26.366
Y45.223Z-26.774
Y44.965Z-27.16
G02X-2.Y34.493I0.J-17.6
G01Y32.496Z-35.681
G02X-2.Y1.839I0.J-9.951
G01Y1.665Z-23.352
Y.027Z-19.395
Y.022Z-23.747
G02X-2.Y-9.953I0.J-22.779
G01Y-10.055Z-43.465
G00X5.
Y-45.565Z27.109
X-.48
G01X-1.48F3200.
X-2.
Y-45.034Z28.006
Y-44.965Z28.119
G02X-2.Y-35.292I0.J18.166
G01Y-33.418Z36.69
G02X-2.Y-21.622I0.J8.944
X-2.Y-10.686I0.J-.016
X-2.Y-1.38I0.J17.042
G01Y2.991Z43.465
Y1.99Z41.33
Y.99Z39.194
Y-.011Z37.059
Y-1.011Z34.924
Y-2.012Z32.788
Y-3.012Z30.653
Y-4.013Z28.518
Y-5.013Z26.383
Y-6.014Z24.247
Y-7.015Z22.112
Y-8.015Z19.977
Y-9.016Z17.841
Y-10.016Z15.706
Y-10.005Z15.177
Y-9.938Z12.
Z-21.354
Y-9.979Z-25.094
Y-10.21Z-26.954
Y-10.687Z-28.766
Y-11.259Z-30.218
Y-12.082Z-31.689
Y-13.057Z-32.987
Y-14.206Z-34.134
Y-15.83Z-35.313
Y-17.641Z-36.178
Y-19.598Z-36.707
Y-21.618Z-36.865
Y-25.325Z-36.889
Y-29.03Z-36.764
Y-30.211Z-36.536
Y-31.359Z-36.178
Y-32.806Z-35.521
Y-34.156Z-34.652
Y-35.376Z-33.589
Y-36.442Z-32.372
Y-37.529Z-30.647
Y-38.313Z-28.766
Y-38.79Z-26.954
Y-39.021Z-25.094
Y-39.062Z-21.354
Z12.
Y-38.984Z15.706
Y-38.676Z17.728
Y-38.121Z19.697
Y-37.395Z21.37
Y-36.442Z22.925
Y-36.297Z23.118
Y-34.771Z24.755
Y-32.97Z26.084
Y-31.069Z26.97
Y-29.03Z27.462
Y-27.178Z27.557
Y-25.324Z27.524
Y-21.618Z27.56
Y-19.638Z27.412
Y-17.721Z26.896
Y-15.86Z25.984
Y-14.206Z24.735
Y-12.703Z23.118
Y-11.693Z21.541
Y-10.929Z19.831
Y-10.337Z17.799
Y-10.016Z15.706
X-1.714Y-9.776Z14.956
X-1.427Y-9.422Z14.253
X-1.141Y-8.963Z13.615
X-.854Y-8.409Z13.056
X-.568Y-7.775Z12.59
G00X5.
Y35.968Z44.214
X-.48
G01X-1.48F3200.
X-2.
Y36.39Z43.379
Y36.605Z43.028
G02X-2.Y42.482I0.J-30.692
G01Y43.31Z30.356
Y44.965Z26.393
X-1.48
Y18.863Z44.784
X-2.
Y19.349Z44.18
Y19.619Z43.894
Y19.93Z43.653
Y20.275Z43.465
G02X-2.Y29.254I0.J-9.51
G01Y30.238Z34.801
Y30.761Z33.959
Y31.6Z32.447
Y32.053Z31.52
Y34.003Z26.945
Y44.965Z.481
X-1.48
Y44.52Z36.232
X-2.
Y42.493Z34.799
Y32.354Z27.634
Y30.326Z26.201
Y28.299Z24.768
Y27.655Z24.226
Y27.111Z23.584
Y26.682Z22.859
Y26.381Z22.073
Y26.216Z21.248
Y26.192Z20.407
Y26.31Z19.573
Y26.565Z18.771
Y37.678Z-8.059
Y38.234Z-9.475
Y38.682Z-10.93
Y38.974Z-12.424
Y39.099Z-13.942
Y39.054Z-15.523
Y38.802Z-17.083
Y38.335Z-18.622
Y37.678Z-20.054
Y36.85Z-21.354
Y35.919Z-22.454
Y34.854Z-23.424
Y33.792Z-24.172
Y32.648Z-24.787
Y30.266Z-25.811
Y26.657Z-27.28
Y24.794Z-27.877
Y22.854Z-28.131
Y20.916Z-28.043
Y19.023Z-27.615
Y17.15Z-26.836
Y15.442Z-25.743
Y14.268Z-24.724
Y13.226Z-23.571
Y12.44Z-22.496
Y11.755Z-21.354
Y10.904Z-19.527
Y7.643Z-11.653
Y7.426Z-11.128
Y7.333Z-10.944
Y7.214Z-10.776
Y7.073Z-10.627
Y6.91Z-10.5
Y6.731Z-10.399
Y6.539Z-10.325
Y-.831Z-8.085
Y-1.023Z-8.011
Y-1.202Z-7.909
Y-1.364Z-7.783
Y-1.506Z-7.633
Y-1.625Z-7.465
Y-1.717Z-7.281
Y-2.977Z-4.238
Y-2.984Z-11.044
Y-2.966Z-11.275
Y-2.909Z-11.5
Y-2.816Z-11.712
Y-2.689Z-11.906
Y-2.532Z-12.076
Y-2.349Z-12.218
Y-2.145Z-12.328
Y-1.925Z-12.403
Y-1.696Z-12.441
Y6.02Z-13.06
Y6.258Z-13.058
Y6.493Z-13.017
Y6.717Z-12.936
Y6.924Z-12.819
Y7.108Z-12.668
Y7.264Z-12.488
Y7.387Z-12.284
Y7.474Z-12.062
Y7.522Z-11.829
Y7.53Z-11.591
Y7.498Z-11.355
Y7.426Z-11.128
Y7.208Z-10.603
Y-.619Z8.294
Y-3.679Z15.706
Y-4.276Z17.499
Y-4.672Z19.346
Y-4.831Z21.229
Y-4.756Z23.118
Y-4.304Z25.247
Y-3.463Z27.254
Y-2.317Z29.021
Y-.848Z30.53
Y.618Z31.563
Y2.445Z32.416
Y4.32Z33.154
Y8.03Z34.728
Y9.808Z35.205
Y11.642Z35.366
Y13.573Z35.188
Y15.442Z34.673
Y17.113Z33.923
Y18.417Z33.089
Y19.804Z31.891
Y21.032Z30.53
Y22.016Z29.109
Y22.854Z27.597
Y24.765Z23.118
Y26.565Z18.771
X-1.714Y26.976Z18.1
X-1.427Y27.487Z17.502
X-1.141Y28.086Z16.991
X-.854Y28.757Z16.579
X-.568Y29.484Z16.278
Y35.968Z44.214
X-1.98
X-2.5
Y36.424Z43.753
Y36.806Z43.321
G02X-2.5Y42.837I0.J-31.547
G01Y43.657Z30.412
Y45.295Z26.481
X-1.98
Y19.433Z44.784
X-2.5
Y20.347Z44.083
Y20.577Z43.926
Y20.824Z43.795
G02X-2.5Y30.027I0.J-10.671
G01Y30.693Z34.683
Y31.359Z33.606
Y31.968Z32.462
Y33.141Z29.865
Y33.266Z29.576
Y45.295Z.526
G00X5.
Y6.89Z-44.161
X-.98
G01X-1.98F3200.
X-2.5
Y6.48Z-44.062
Y6.137Z-43.953
Y5.812Z-43.795
Y5.12Z-43.394
Y4.772Z-43.156
Y4.692Z-43.291
Y4.339Z-43.795
X-1.98
Y46.231Z-26.486
X-2.5
Y45.638Z-27.114
Y45.295Z-27.518
G02X-2.5Y34.507I0.J-18.029
G01Y32.5Z-36.236
G02X-2.5Y2.203I0.J-9.915
G01Y.603Z-21.635
Y.358Z-21.046
G02X-2.5Y-3.104I0.J-27.723
G01Y-3.899Z-38.172
Y-4.979Z-39.588
Y-5.957Z-40.69
Y-7.233Z-41.932
Y-8.271Z-42.812
Y-9.315Z-43.582
Y-9.642Z-43.795
G00X5.
Y-46.135Z27.109
X-.98
G01X-1.98F3200.
X-2.5
Y-45.312Z28.404
Y-45.295Z28.431
G02X-2.5Y-35.305I0.J17.702
G01Y-33.439Z37.298
G02X-2.5Y-21.621I0.J8.952
X-2.5Y-10.83I0.J-.03
X-2.5Y-3.252I0.J16.794
G01Y2.298Z43.795
G00X5.
Y10.881Z-44.161
X-.98
G01X-1.98F3200.
X-2.5
Y10.981Z-41.872
Y11.484Z-30.427
Y11.585Z-28.139
Y11.786Z-23.561
Y11.762Z-22.808
Y11.625Z-22.066
Y11.379Z-21.354
Y11.179Z-20.893
Y9.779Z-17.661
Y-.972Z8.294
Y-4.026Z15.706
Y-4.626Z17.5
Y-5.051Z19.343
Y-5.252Z21.225
Y-5.208Z23.118
Y-4.81Z25.283
Y-4.047Z27.347
Y-3.031Z29.043
Y-1.729Z30.53
Y-.612Z31.465
Y.618Z32.244
Y2.509Z33.073
Y4.335Z33.774
Y8.03Z35.356
Y9.861Z35.811
Y11.742Z35.949
Y13.621Z35.765
Y15.442Z35.263
Y17.084Z34.508
Y18.596Z33.518
Y20.165Z32.136
Y21.504Z30.53
Y22.854Z28.347
Y24.027Z25.75
Y37.678Z-7.208
Y38.353Z-8.848
Y38.914Z-10.487
Y39.299Z-12.198
Y39.492Z-13.942
Y39.434Z-15.856
Y39.086Z-17.738
Y38.509Z-19.43
Y37.678Z-21.014
Y37.455Z-21.354
Y36.474Z-22.598
Y35.328Z-23.692
Y34.064Z-24.606
Y32.684Z-25.334
Y30.266Z-26.361
Y26.662Z-27.831
Y24.793Z-28.401
Y22.854Z-28.637
Y20.875Z-28.537
Y18.943Z-28.093
Y17.12Z-27.319
Y15.442Z-26.267
Y14.122Z-25.133
Y12.964Z-23.833
Y12.113Z-22.63
Y11.379Z-21.354
G03X-2.5Y8.68I0.J-1.738
G01Y-11.224Z-31.567
Y-11.456Z-31.717
Y-11.666Z-31.898
Y-11.848Z-32.105
Y-12.929Z-33.522
Y-14.206Z-34.764
Y-15.25Z-35.533
Y-16.375Z-36.178
Y-17.623Z-36.71
Y-18.924Z-37.093
Y-20.263Z-37.315
Y-21.618Z-37.373
Y-25.325Z-37.394
Y-27.179Z-37.373
Y-29.03Z-37.281
Y-30.873Z-36.878
Y-32.625Z-36.178
Y-33.684Z-35.576
Y-34.703Z-34.838
Y-35.62Z-34.006
Y-36.442Z-33.081
Y-37.163Z-32.089
Y-37.789Z-31.034
Y-38.303Z-29.921
Y-38.715Z-28.766
Y-39.143Z-26.946
Y-39.354Z-25.088
Y-39.388Z-21.354
Z12.
Y-39.322Z15.706
Y-39.045Z17.795
Y-38.503Z19.831
Y-37.814Z21.536
Y-36.878Z23.118
Y-36.442Z23.727
Y-34.937Z25.356
Y-34.072Z26.052
Y-33.142Z26.657
Y-31.155Z27.563
Y-29.03Z28.061
Y-27.178Z28.149
Y-25.324Z28.101
Y-21.618Z28.152
Y-19.614Z28.007
Y-17.67Z27.501
Y-15.846Z26.65
Y-14.206Z25.481
Y-12.974Z24.248
Y-12.121Z23.118
Y-11.062Z21.28
Y-10.409Z19.574
Y-9.931Z17.661
Y-9.678Z15.706
Y-9.612Z12.
Z-3.829
Z-4.394
Y-9.597Z-4.601
Y-9.551Z-4.803
Y-9.477Z-4.996
Y-9.374Z-5.175
Y-9.246Z-5.338
Y-9.096Z-5.48
Y-3.171Z-10.3
Y-3.021Z-10.443
Y-2.893Z-10.605
Y-2.79Z-10.786
Y-2.715Z-10.979
Y-2.67Z-11.181
Y-2.655Z-11.388
Y-2.658Z-14.78
Y-1.049Z-14.21
Y.304Z-14.067
Y.811Z-14.113
Y-.5Z-10.959
Y-.61Z-10.747
Y-.754Z-10.557
Y-7.174Z-3.456
Y-7.35Z-3.292
Y-7.551Z-3.16
Y-7.772Z-3.065
Y-8.006Z-3.01
Y-8.245Z-2.995
Y-8.484Z-3.021
Y-8.715Z-3.088
Y-8.931Z-3.193
Y-9.126Z-3.334
Y-9.294Z-3.506
Y-9.43Z-3.704
Y-9.53Z-3.922
Y-9.592Z-4.155
Y-9.612Z-4.394
Z-4.96
Z-21.354
Y-9.646Z-25.088
Y-9.857Z-26.946
Y-10.285Z-28.766
Y-10.903Z-30.402
Y-11.848Z-32.105
X-2.214Y-12.118Z-32.845
X-1.927Y-12.268Z-33.617
X-1.641Y-12.296Z-34.404
X-1.354Y-12.2Z-35.185
X-1.068Y-11.983Z-35.942
Y6.89Z-44.731
X-2.48
X-3.
Y6.488Z-44.576
Y5.967Z-44.341
Y5.476Z-44.048
Y4.98Z-43.711
Y4.845
Y4.608Z-44.048
X-2.48
Y46.231Z-26.486
X-3.
Y45.86Z-27.337
Y45.72Z-27.611
Y45.548Z-27.866
G02X-3.Y34.507I0.J-18.274
G01Y32.38Z-36.74
G02X-3.Y1.875I0.J-9.762
G01Y.612Z-22.239
G02X-3.Y-8.515I0.J-24.358
G01Y-9.31Z-44.048
G00X5.
Y-46.135Z27.679
X-1.48
G01X-2.48F3200.
X-3.
Y-45.84Z28.333
Y-45.548Z28.885
G02X-3.Y-36.461I0.J18.854
G01Y-35.546Z37.126
G02X-3.Y-27.189I0.J8.42
X-3.Y-15.31I0.J2.884
G01Y-13.653Z37.191
Y-11.876Z36.395
Y-10.974Z35.891
Y-10.795Z36.126
Y-10.071Z36.983
Y-9.134Z37.951
Y-7.71Z39.238
Y-6.328Z40.283
Y-4.703Z41.305
Y-3.211Z42.076
Y1.546Z44.048
X-2.48
Y-37.582Z43.644
X-3.
Y-36.006Z41.759
Y-26.549Z30.452
Y-26.034Z29.921
Y-25.446Z29.473
Y-24.798Z29.115
Y-24.105Z28.857
Y-23.381Z28.705
Y-22.643Z28.661
Y-22.147Z28.668
Y-21.618Z28.675
Y-19.652Z28.544
Y-17.742Z28.065
Y-15.964Z27.269
Y-14.206Z26.071
Y-12.655Z24.549
Y-11.617Z23.118
Y-10.723Z21.39
Y-10.055Z19.549
Y-9.635Z17.644
Y-9.418Z15.706
Y-9.363Z8.294
Z-21.354
Y-9.391Z-25.083
Y-9.58Z-26.94
Y-9.97Z-28.766
Y-10.613Z-30.552
Y-11.658Z-32.488
Y-12.823Z-33.981
Y-14.206Z-35.275
Y-15.511Z-36.178
Y-16.887Z-36.877
Y-18.309Z-37.376
Y-19.948Z-37.708
Y-21.618Z-37.801
Y-27.178Z-37.799
Y-29.03Z-37.711
G02X-3.Y-37.997I0.J1.616
G01Y-38.583Z-30.092
Y-39.03Z-28.766
Y-39.42Z-26.94
Y-39.609Z-25.083
Y-39.637Z-21.354
Z8.294
Y-39.582Z15.706
Y-39.365Z17.644
Y-38.945Z19.549
Y-38.28Z21.384
Y-37.383Z23.118
Y-36.442Z24.433
Y-34.874Z26.005
Y-33.045Z27.264
Y-32.035Z27.763
Y-30.98Z28.158
Y-29.03Z28.59
Y-27.178Z28.669
Y-25.324Z28.622
Y-22.643Z28.661
X-2.714Y-21.867Z28.795
X-2.427Y-21.122Z29.049
X-2.141Y-20.426Z29.416
X-1.854Y-19.796Z29.887
X-1.568Y-19.248Z30.452
G00X5.
Y36.538Z44.784
X-1.48
G01X-2.48F3200.
X-3.
Y36.718Z44.221
Y36.877Z43.836
Y37.097Z43.483
G02X-3.Y43.379I0.J-37.104
G01Y44.102Z30.198
Y45.548Z26.708
X-2.48
Y20.003Z45.354
X-3.
Y20.278Z44.94
Y20.49Z44.664
Y20.738Z44.421
Y21.018Z44.214
Y21.323Z44.048
G02X-3.Y29.75I0.J-11.206
G01Y30.439Z35.691
Y31.42Z34.062
Y31.932Z33.095
Y33.256Z30.229
Y33.417Z29.862
Y45.548Z.577
G00X5.
Y-10.044Z19.502
X-1.48
G01X-2.48F3200.
X-3.
Y-8.77Z20.318
Y-7.633Z21.317
Y-6.66Z22.476
Y-5.872Z23.768
Y-5.289Z25.165
Y-4.638Z27.128
Y-3.792Z28.75
Y-3.155Z29.673
Y-2.431Z30.53
Y-1.007Z31.817
Y.618Z32.838
Y4.34Z34.337
Y8.03Z35.91
Y9.829Z36.332
Y11.672Z36.449
Y13.586Z36.249
Y15.442Z35.74
Y17.245Z34.916
Y18.885Z33.803
Y20.504Z32.28
Y21.873Z30.53
Y22.854Z28.901
Y23.557Z27.482
Y24.178Z26.035
Y37.678Z-6.557
Y39.086Z-10.15
Y39.563Z-12.024
Y39.806Z-13.942
Y39.767Z-15.933
Y39.437Z-17.896
Y38.821Z-19.683
Y37.941Z-21.354
Y37.678Z-21.749
Y36.664Z-23.009
Y35.484Z-24.115
Y34.207Z-25.018
Y32.819Z-25.74
Y30.266Z-26.808
Y26.438Z-28.374
G02X-3.Y15.442I0.J-3.94
G01Y14.16Z-25.624
Y13.019Z-24.39
Y11.976Z-22.922
Y11.09Z-21.354
Y8.249Z-14.609
Y8.03Z-14.09
Y7.918Z-13.876
Y7.77Z-13.685
Y7.592Z-13.523
Y7.389Z-13.393
Y7.166Z-13.3
Y-.26Z-10.925
Y-.484Z-10.832
Y-.688Z-10.701
Y-.867Z-10.537
Y-1.014Z-10.344
Y-1.126Z-10.129
Y-2.424Z-7.003
Y-2.419Z-13.923
Y-2.4Z-14.152
Y-2.344Z-14.375
Y-2.252Z-14.586
Y-2.127Z-14.779
Y-1.972Z-14.948
Y-1.791Z-15.091
Y-1.589Z-15.201
Y-1.372Z-15.277
Y-1.146Z-15.317
Y6.61Z-16.02
Y6.85Z-16.021
Y7.086Z-15.981
Y7.311Z-15.902
Y7.521Z-15.786
Y7.707Z-15.635
Y7.864Z-15.455
Y7.989Z-15.251
Y8.077Z-15.029
Y8.127Z-14.794
Y8.135Z-14.555
Y8.103Z-14.318
Y8.03Z-14.09
Y7.815Z-13.569
Y-1.242Z8.294
Y-4.295Z15.706
Y-4.906Z17.499
Y-5.35Z19.341
Y-5.598Z21.221
Y-5.584Z23.118
Y-5.289Z25.165
X-2.714Y-5.3Z25.952
X-2.427Y-5.434Z26.727
X-2.141Y-5.687Z27.472
X-1.854Y-6.054Z28.168
X-1.568Y-6.526Z28.799
G00X5.
Y36.538Z44.784
X-1.98
G01X-2.98F3200.
X-3.5
Y37.195Z43.86
Y37.426Z43.56
G02X-3.5Y43.504I0.J-43.082
G01Y44.248Z30.329
Y45.735Z26.74
X-2.98
Y20.574Z44.784
X-3.5
Y21.24Z44.497
Y21.762Z44.235
G02X-3.5Y30.426I0.J-11.744
G01Y30.778Z35.608
Y31.469Z34.435
Y31.932Z33.553
Y33.361Z30.46
Y33.522Z30.092
Y45.735Z.608
G00X5.
Y6.32Z-44.731
X-1.98
G01X-2.98F3200.
X-3.5
Y6.046Z-44.637
Y5.595Z-44.457
Y5.165Z-44.235
Y4.96Z-44.097
Y4.871Z-44.235
X-2.98
Y46.231Z-27.056
X-3.5
Y46.2Z-27.216
Y46.099Z-27.585
Y45.943Z-27.935
Y45.735Z-28.257
G02X-3.5Y34.558I0.J-18.589
G01Y32.409Z-37.129
G02X-3.5Y2.063I0.J-9.77
G01Y1.637Z-25.186
Y.802Z-23.175
G02X-3.5Y-8.921I0.J-24.114
G00X5.Z-44.235
Y-46.705Z28.249
X-1.98
G01X-2.98F3200.
X-3.5
Y-46.127Z28.757
Y-45.918Z28.963
Y-45.735Z29.192
G02X-3.5Y-36.393I0.J18.613
G01Y-35.501Z37.646
G02X-3.5Y-27.187I0.J8.359
X-3.5Y-15.313I0.J2.88
G01Y-13.63Z37.681
Y-11.746Z36.844
Y-11.082Z36.476
G02X-3.5Y-3.177I0.J16.919
G01Y.772Z44.235
G00X5.
Y10.311Z-44.731
X-1.98
G01X-2.98F3200.
X-3.5
Y10.416Z-42.373
Y10.942Z-30.584
Y11.047Z-28.226
Y11.257Z-23.511
Y11.236Z-22.775
Y11.107Z-22.051
Y10.873Z-21.354
Y10.655Z-20.833
Y8.03Z-14.573
Y-1.442Z8.294
Y-4.498Z15.706
Y-5.131Z17.497
Y-5.607Z19.336
Y-5.875Z21.218
Y-5.921Z23.118
Y-5.644Z25.181
Y-5.05Z27.176
Y-4.183Z28.959
Y-3.052Z30.53
Y-2.248Z31.376
Y-1.362Z32.135
Y-.404Z32.8
Y.618Z33.363
Y8.03Z36.403
Y9.871Z36.812
Y11.755Z36.911
Y13.629Z36.699
Y15.442Z36.18
Y17.345Z35.274
Y19.08Z34.079
Y19.957Z33.289
Y20.758Z32.423
Y21.499Z31.505
Y22.163Z30.53
Y22.854Z29.357
Y23.611Z27.831
Y24.283Z26.265
Y37.868Z-6.53
Y39.29Z-10.14
Y39.797Z-12.016
Y40.062Z-13.942
Y40.066Z-15.924
Y39.756Z-17.882
Y39.188Z-19.672
Y38.354Z-21.354
Y37.678Z-22.358
Y36.683Z-23.519
Y35.545Z-24.542
Y34.276Z-25.415
Y32.902Z-26.112
Y30.266Z-27.231
Y26.453Z-28.766
Y24.68Z-29.239
Y22.854Z-29.429
Y21.783Z-29.409
Y20.717Z-29.291
Y19.667Z-29.076
Y18.641Z-28.766
Y16.981Z-28.038
Y15.442Z-27.081
Y14.071Z-25.931
Y12.873Z-24.604
Y11.777Z-23.038
Y10.873Z-21.354
G03X-3.5Y8.064I0.J-1.765
G01Y-10.942Z-32.276
Y-11.137Z-32.412
Y-11.314Z-32.57
Y-11.471Z-32.748
Y-12.717Z-34.344
Y-14.206Z-35.717
Y-14.846Z-36.178
Y-16.317Z-37.019
Y-17.894Z-37.64
Y-19.734Z-38.058
Y-21.618Z-38.174
Y-25.325Z-38.196
Y-27.178Z-38.177
Y-29.03Z-38.089
Y-30.387Z-37.841
Y-31.704Z-37.435
Y-32.969Z-36.877
Y-34.154Z-36.178
Y-35.488Z-35.135
Y-36.442Z-34.166
Y-37.391Z-32.954
Y-38.189Z-31.638
Y-38.815Z-30.232
Y-39.285Z-28.766
Y-39.643Z-26.936
Y-39.801Z-25.078
Y-39.822Z-21.354
Z8.294
Y-39.776Z15.706
Y-39.593Z17.632
Y-39.225Z19.532
Y-38.662Z21.281
Y-37.782Z23.118
Y-37.153Z24.093
Y-36.442Z25.011
Y-34.885Z26.553
Y-34.082Z27.156
Y-33.066Z27.776
Y-32.07Z28.253
Y-31.032Z28.632
Y-29.03Z29.063
Y-27.178Z29.14
Y-25.324Z29.106
Y-21.618Z29.145
Y-19.627Z29.016
Y-17.689Z28.542
Y-15.806Z27.705
Y-14.206Z26.627
Y-13.244Z25.758
Y-12.378Z24.794
Y-11.218Z23.118
Y-10.425Z21.509
Y-9.775Z19.532
Y-9.404Z17.632
Y-9.221Z15.706
Y-9.178Z8.294
Z-5.96
Z-6.53
Y-9.163Z-6.735
Y-9.118Z-6.936
Y-9.044Z-7.127
Y-8.943Z-7.306
Y-8.817Z-7.468
Y-8.668Z-7.61
Y-2.736Z-12.501
Y-2.587Z-12.643
Y-2.461Z-12.805
Y-2.36Z-12.984
Y-2.286Z-13.175
Y-2.241Z-13.376
Y-2.226Z-13.58
Y-2.224Z-16.919
Y-.514Z-16.321
Y1.193Z-16.232
Y-.084Z-13.153
Y-.192Z-12.944
Y-.333Z-12.756
Y-6.734Z-5.597
Y-6.91Z-5.432
Y-7.111Z-5.299
Y-7.332Z-5.203
Y-7.566Z-5.146
Y-7.806Z-5.13
Y-8.046Z-5.156
Y-8.277Z-5.222
Y-8.494Z-5.327
Y-8.69Z-5.468
Y-8.858Z-5.64
Y-8.995Z-5.838
Y-9.096Z-6.057
Y-9.157Z-6.29
Y-9.178Z-6.53
Z-7.1
Z-21.354
Y-9.199Z-25.078
Y-9.357Z-26.936
Y-9.715Z-28.766
Y-10.357Z-30.67
Y-10.863Z-31.736
Y-11.471Z-32.748
X-3.214Y-11.766Z-33.478
X-2.927Y-11.942Z-34.245
X-2.641Y-11.997Z-35.03
X-2.354Y-11.928Z-35.814
X-2.068Y-11.737Z-36.578
G00X5.
Y37.108Z44.784
X-2.48
G01X-3.48F3200.
X-4.
Y37.161Z44.556
Y37.259Z44.233
Y37.399Z43.926
Y37.579Z43.641
G02X-4.Y43.409I0.J-37.588
G01Y44.228Z30.597
Y45.864Z26.662
X-3.48
Y21.144Z44.784
X-4.
Y21.631Z44.645
Y21.958Z44.527
Y22.266Z44.364
G02X-4.Y30.581I0.J-12.436
G01Y31.289Z35.097
Y32.539Z32.661
Y32.84Z32.021
Y33.588Z30.267
Y45.864Z.631
X-3.48
Y46.801Z-27.626
X-4.
Y46.431Z-27.967
Y45.864Z-28.586
G02X-4.Y34.077I0.J-19.265
G01Y32.042Z-37.604
G02X-4.Y1.827I0.J-9.401
G01Y1.451Z-25.104
Y.942Z-23.878
G02X-4.Y-8.619I0.J-23.864
G00X5.Z-44.364
Y-46.705Z28.249
X-2.48
G01X-3.48F3200.
X-4.
Y-46.029Z29.373
Y-45.864Z29.63
G02X-4.Y-36.711I0.J18.597
G01Y-35.446Z38.076
G02X-4.Y-27.19I0.J8.278
X-4.Y-15.417I0.J2.898
X-4.Y-11.164I0.J-17.626
X-4.Y.074I0.J18.686
G01X-3.48Z44.364
Y-11.164Z36.978
X-4.
Y-10.299Z35.014
Y-9.434Z33.049
Y-8.57Z31.085
Y-7.705Z29.12
Y-6.84Z27.156
Y-5.976Z25.191
Y-5.838Z25.694
G02X-4.Y.618I0.J11.407
G01Y4.33Z35.283
Y6.073Z36.042
Y8.03Z36.806
Y9.873Z37.197
Y11.756Z37.286
Y13.628Z37.075
Y15.442Z36.567
Y16.453Z36.143
Y17.419Z35.628
Y19.196Z34.35
Y20.116Z33.502
Y20.958Z32.577
Y22.392Z30.53
Y22.854Z29.709
Y23.643Z28.093
Y24.349Z26.44
Y38.006Z-6.53
Y39.447Z-10.143
Y39.982Z-12.017
Y40.284Z-13.942
Y40.303Z-15.905
Y40.042Z-17.85
Y39.503Z-19.653
Y38.697Z-21.354
Y37.678Z-22.856
Y36.943Z-23.696
Y36.133Z-24.463
Y35.205Z-25.187
Y34.316Z-25.755
Y32.393Z-26.664
Y30.266Z-27.575
Y27.311Z-28.766
G02X-4.Y15.442I0.J-4.73
G01Y14.009Z-26.189
Y12.756Z-24.793
Y11.636Z-23.134
Y10.721Z-21.354
Y8.03Z-14.908
Y-1.58Z8.294
Y-4.642Z15.706
Y-5.297Z17.495
Y-5.809Z19.33
Y-6.125Z21.211
Y-6.191Z23.118
Y-5.976Z25.191
X-3.714Y-6.018Z25.977
X-3.427Y-6.183Z26.747
X-3.141Y-6.466Z27.481
X-2.854Y-6.86Z28.162
X-2.568Y-7.356Z28.773
Y-37.582Z44.214
X-3.48
X-4.
Y-36.017Z42.367
Y-28.19Z33.13
Y-26.625Z31.282
G03X-4.Y-23.485I0.J3.875
G01Y-22.755Z29.515
Y-21.618Z29.528
Y-19.645Z29.407
Y-17.721Z28.952
Y-16.67Z28.551
Y-15.662Z28.051
Y-14.206Z27.093
Y-13.145Z26.168
Y-12.197Z25.127
Y-11.492Z24.154
Y-10.882Z23.118
Y-10.088Z21.365
Y-9.547Z19.517
Y-9.222Z17.623
Y-9.08Z15.706
Y-9.05Z8.294
Z-7.1
Z-7.67
Y-9.033Z-7.886
Y-8.984Z-8.097
Y-8.902Z-8.297
Y-8.791Z-8.482
Y-8.652Z-8.648
Y-8.49Z-8.791
Y-2.637Z-13.176
Y-2.475Z-13.319
Y-2.336Z-13.485
Y-2.225Z-13.67
Y-2.143Z-13.87
Y-2.094Z-14.08
Y-2.077Z-14.296
Y-2.074Z-17.613
Y-1.028Z-17.183
Y.39Z-16.921
Y1.338Z-16.944
Y.063Z-13.869
Y-.012Z-13.714
Y-.106Z-13.57
Y-.217Z-13.439
Y-6.637Z-6.704
Y-6.815Z-6.547
Y-7.017Z-6.422
Y-7.237Z-6.333
Y-7.47Z-6.282
Y-7.707Z-6.272
Y-7.943Z-6.301
Y-8.17Z-6.371
Y-8.383Z-6.477
Y-8.574Z-6.619
Y-8.739Z-6.79
Y-8.872Z-6.987
Y-8.97Z-7.204
Y-9.03Z-7.434
Y-9.05Z-7.67
Z-8.241
Z-21.354
Y-9.061Z-25.074
Y-9.187Z-26.932
Y-9.513Z-28.766
G02X-4.Y-14.326I0.J-12.554
G01Y-15.982Z-37.197
Y-17.782Z-37.933
Y-19.677Z-38.366
Y-21.618Z-38.486
Y-25.325Z-38.51
Y-27.178Z-38.488
Y-29.03Z-38.405
Y-30.537Z-38.126
Y-31.996Z-37.656
Y-33.383Z-37.004
Y-34.674Z-36.178
Y-35.681Z-35.351
Y-36.442Z-34.594
Y-37.482Z-33.299
Y-38.336Z-31.874
Y-39.01Z-30.357
Y-39.487Z-28.766
Y-39.813Z-26.932
Y-39.939Z-25.074
Y-39.95Z-21.354
Z8.294
Y-39.918Z15.706
Y-39.776Z17.623
Y-39.452Z19.517
Y-38.92Z21.342
Y-38.119Z23.118
Y-37.355Z24.388
Y-36.442Z25.556
Y-35.693Z26.33
Y-34.877Z27.033
Y-34.Z27.658
Y-33.069Z28.2
Y-32.083Z28.658
Y-31.06Z29.024
Y-29.03Z29.451
Y-27.178Z29.521
Y-25.324Z29.487
Y-22.755Z29.515
X-3.714Y-21.979Z29.647
X-3.427Y-21.233Z29.898
X-3.141Y-20.536Z30.263
X-2.854Y-19.904Z30.733
X-2.568Y-19.354Z31.295
G00X5.
Y37.108Z44.784
X-2.98
G01X-3.98F3200.
X-4.5
Y37.674Z43.884
Y37.852Z43.62
G02X-4.5Y44.053I0.J-47.876
G01Y44.996Z28.838
Y45.94Z26.572
X-3.98
Y21.714Z44.784
X-4.5
Y21.949Z44.734
Y22.337Z44.617
Y22.701Z44.44
G02X-4.5Y31.485I0.J-12.961
G01Y31.99Z34.058
Y33.511Z30.64
Y33.616Z30.396
Y45.94Z.603
X-3.98
Y46.801Z-27.626
X-4.5
Y46.118Z-28.657
Y45.94Z-28.909
G02X-4.5Y34.318I0.J-19.438
G01Y32.444Z-37.739
G02X-4.5Y1.382I0.J-9.706
G01Y1.025Z-24.319
G02X-4.5Y-8.304I0.J-23.681
G00X5.Z-44.44
Y-46.705Z28.82
X-2.98
G01X-3.98F3200.
X-4.5
Y-46.034Z29.868
Y-45.94Z30.01
G02X-4.5Y-36.744I0.J18.889
G01Y-34.789Z38.687
Y-33.074Z39.204
Y-31.05Z39.622
Y-29.127Z39.827
Y-21.67Z39.898
Y-21.042Z39.883
Y-19.072Z39.77
Y-18.202Z39.645
Y-17.395Z39.529
Y-15.473Z39.085
Y-13.853Z38.561
Y-12.014Z37.789
Y-11.264Z37.396
G02X-4.5Y-.732I0.J17.808
G00X5.Z44.44
Y.991Z-26.027
X-2.98
G01X-3.98F3200.
X-4.5
Y-1.006Z-25.933
Y-3.004Z-25.839
Y-5.002Z-25.745
Y-7.Z-25.651
Y-8.998Z-25.557
Y-9.018Z-25.999
G02X-4.5Y-11.662I0.J-13.942
X-4.5Y-15.808I0.J-10.5
G01Y-17.545Z-38.127
Y-19.555Z-38.611
Y-21.618Z-38.748
Y-25.325Z-38.76
Y-27.178Z-38.75
Y-29.03Z-38.666
Y-30.65Z-38.365
Y-32.213Z-37.846
Y-33.704Z-37.11
Y-35.08Z-36.178
Y-36.442Z-34.943
Y-37.521Z-33.636
Y-38.411Z-32.194
Y-39.148Z-30.522
Y-39.655Z-28.766
Y-39.938Z-26.928
Y-40.025Z-25.07
Z8.294
Y-40.014Z15.706
Y-39.918Z17.613
Y-39.647Z19.504
Y-39.128Z21.406
Y-38.424Z23.118
Y-37.536Z24.627
Y-36.442Z25.995
Y-34.842Z27.46
Y-33.952Z28.084
Y-33.009Z28.623
Y-31.054Z29.41
Y-29.03Z29.828
Y-27.177Z29.893
Y-25.324Z29.815
Y-21.618Z29.9
Y-19.648Z29.786
Y-17.726Z29.342
Y-15.887Z28.569
Y-14.206Z27.497
Y-13.034Z26.481
Y-11.994Z25.33
Y-11.229Z24.261
Y-10.579Z23.118
Y-9.853Z21.349
Y-9.354Z19.504
Y-9.082Z17.614
Y-8.985Z15.706
Y-8.975Z8.294
Z-25.07
Y-8.998Z-25.557
X-4.214Y-8.911Z-26.339
X-3.927Y-8.704Z-27.098
X-3.641Y-8.38Z-27.815
X-3.354Y-7.948Z-28.473
X-3.068Y-7.418Z-29.055
G00X5.
Y43.95Z-39.599
X-2.98
G01X-3.98F3200.
X-4.5
Y42.626Z-37.549
Y37.332Z-29.348
Y36.798Z-28.66
Y36.152Z-28.076
Y35.415Z-27.612
Y34.609Z-27.283
Y33.758Z-27.099
Y32.888Z-27.066
Y32.025Z-27.184
Y31.196Z-27.45
Y30.266Z-27.84
Y28.004Z-28.766
Y26.767Z-29.26
G02X-4.5Y15.442I0.J-4.155
G01Y14.039Z-26.501
Y12.816Z-25.142
Y11.647Z-23.418
Y10.621Z-21.354
Y8.462Z-16.146
Y8.246Z-15.625
Y8.148Z-15.431
Y8.02Z-15.255
Y7.868Z-15.101
Y7.693Z-14.973
Y7.5Z-14.872
Y7.294Z-14.803
Y.229Z-13.026
Y.023Z-12.957
Y-.17Z-12.856
Y-.345Z-12.728
Y-.498Z-12.573
Y-.625Z-12.397
Y-.723Z-12.204
Y-2.013Z-9.089
Y-2.016Z-16.021
Y-1.995Z-16.261
Y-1.933Z-16.494
Y-1.832Z-16.714
Y-1.696Z-16.912
Y-1.527Z-17.084
Y-1.331Z-17.225
Y-1.113Z-17.33
Y-.881Z-17.396
Y-.641Z-17.421
Y6.927Z-17.561
Y7.157Z-17.546
Y7.382Z-17.493
Y7.596Z-17.405
Y7.791Z-17.282
Y7.964Z-17.129
Y8.11Z-16.949
Y8.224Z-16.748
Y8.303Z-16.531
Y8.345Z-16.304
Y8.35Z-16.073
Y8.317Z-15.845
Y8.246Z-15.625
Y8.03Z-15.104
Y-4.73Z15.706
Y-5.418Z17.491
Y-5.972Z19.323
Y-6.325Z21.206
Y-6.441Z23.118
Y-6.278Z25.096
Y-5.801Z27.022
Y-5.027Z28.849
Y-3.974Z30.53
Y-3.061Z31.609
Y-2.024Z32.57
Y-.757Z33.473
Y.618Z34.199
Y4.342Z35.652
Y6.164Z36.477
Y8.03Z37.196
Y9.877Z37.572
Y11.761Z37.645
Y13.631Z37.413
Y15.442Z36.893
Y16.489Z36.448
Y17.494Z35.914
Y18.444Z35.29
Y19.336Z34.582
Y20.27Z33.677
Y21.121Z32.694
Y21.888Z31.643
Y22.561Z30.53
Y22.854Z29.992
Y23.651Z28.299
Y24.375Z26.574
Y38.087Z-6.53
Y39.563Z-10.143
Y40.13Z-12.014
Y40.457Z-13.942
Y40.515Z-15.898
Y40.274Z-17.84
Y39.784Z-19.582
Y38.978Z-21.354
Y38.373Z-22.336
Y37.678Z-23.256
Y36.933Z-24.072
Y36.115Z-24.817
Y35.306Z-25.433
Y34.293Z-26.066
Y32.389Z-26.949
Y31.196Z-27.45
X-4.214Y30.526Z-27.864
X-3.927Y29.931Z-28.378
X-3.641Y29.422Z-28.979
X-3.354Y29.014Z-29.652
X-3.068Y28.717Z-30.381
G00X5.
Y37.108Z44.784
X-3.48
G01X-4.48F3200.
X-5.
Y37.832Z43.902
Y38.091Z43.557
G02X-5.Y44.085I0.J-50.741
G01Y45.022Z28.993
Y45.96Z26.738
X-4.48
Y22.284Z45.354
X-5.
Y22.37Z45.222
Y22.593Z44.93
Y22.857Z44.673
Y23.155Z44.458
G02X-5.Y31.579I0.J-13.311
G01Y32.038Z34.171
Y33.616Z30.505
Y45.959Z.722
X-4.48
Y46.801Z-28.196
X-5.
Y46.019Z-29.167
Y45.957Z-29.246
G02X-5.Y34.201I0.J-20.024
G01Y32.609Z-37.927
G02X-5.Y1.322I0.J-9.842
G01Y1.035Z-24.483
G02X-5.Y-7.966I0.J-23.24
G00X5.Z-44.459
Y-46.705Z29.39
X-3.48
G01X-4.48F3200.
X-5.
Y-46.085Z30.223
Y-45.956Z30.406
G02X-5.Y-37.161I0.J18.414
G01Y-36.189Z38.495
G02X-5.Y-29.125I0.J9.274
G01Y-21.669Z40.204
Y-21.056Z40.19
Y-19.083Z40.078
Y-17.446Z39.849
Y-15.518Z39.415
Y-13.941Z38.919
Y-12.111Z38.173
Y-11.336Z37.779
G02X-5.Y-1.477I0.J17.381
G01X-4.48Z44.459
Y-11.336Z37.779
X-5.
Y-10.498Z35.817
Y-9.66Z33.855
Y-8.822Z31.893
Y-7.984Z29.932
Y-7.146Z27.97
Y-6.308Z26.008
Y-6.283Z26.118
Y-6.059Z27.103
Y-5.344Z28.885
Y-4.353Z30.53
Y-3.325Z31.774
Y-2.139Z32.869
Y-.817Z33.794
Y.618Z34.533
Y4.332Z36.004
Y6.159Z36.814
Y8.03Z37.514
G02X-5.Y19.482I0.J3.206
X-5.Y22.854I0.J-10.396
G01Y24.378Z26.677
Y38.133Z-6.53
Y39.638Z-10.147
Y40.247Z-12.013
Y40.609Z-13.942
Y40.686Z-15.881
Y40.468Z-17.81
Y39.988Z-19.61
Y39.224Z-21.354
Y38.514Z-22.523
Y37.678Z-23.605
Y36.875Z-24.447
Y35.995Z-25.209
Y35.047Z-25.883
Y34.038Z-26.464
Y30.266Z-28.078
Y28.587Z-28.766
Y27.211Z-29.336
Y25.8Z-29.81
Y24.34Z-30.108
Y22.854Z-30.226
Y21.292Z-30.154
Y19.751Z-29.882
Y18.241Z-29.409
Y16.836Z-28.766
Y15.442Z-27.897
Y13.98Z-26.677
Y12.715Z-25.253
Y11.532Z-23.434
Y10.562Z-21.354
Y8.03Z-15.215
Y-4.778Z15.706
Y-5.504Z17.487
Y-6.107Z19.313
Y-6.503Z21.198
Y-6.655Z23.118
Y-6.506Z25.133
Y-6.308Z26.008
X-4.714Y-6.255Z26.793
X-4.427Y-6.327Z27.577
X-4.141Y-6.52Z28.34
X-3.854Y-6.83Z29.063
X-3.568Y-7.249Z29.729
Y-38.723Z43.644
X-4.48
X-5.
Y-37.249Z41.961
Y-28.406Z31.862
Y-27.78Z31.262
Y-27.061Z30.778
Y-26.268Z30.427
Y-25.427Z30.217
Y-24.562Z30.157
Y-21.618Z30.205
Y-19.645Z30.094
Y-17.718Z29.66
Y-15.888Z28.913
Y-14.206Z27.876
Y-13.07Z26.924
Y-12.06Z25.838
Y-11.118Z24.53
Y-10.339Z23.118
Y-9.645Z21.346
Y-9.204Z19.494
Y-8.98Z17.606
Y-8.931Z15.706
Y-8.932Z-7.67
Z-8.241
Y-8.916Z-8.455
Y-8.867Z-8.664
Y-8.786Z-8.863
Y-8.676Z-9.048
Y-8.539Z-9.213
Y-8.379Z-9.356
Y-2.532Z-13.791
Y-2.371Z-13.933
Y-2.234Z-14.099
Y-2.124Z-14.284
Y-2.043Z-14.483
Y-1.994Z-14.693
Y-1.978Z-14.907
Y-1.981Z-18.214
Y-.431Z-17.659
Y.913Z-17.505
Y1.435Z-17.547
Y.167Z-14.482
Y.093Z-14.329
Y0.Z-14.186
Y-.109Z-14.055
Y-6.515Z-7.279
Y-6.693Z-7.12
Y-6.895Z-6.994
Y-7.115Z-6.904
Y-7.348Z-6.853
Y-7.586Z-6.842
Y-7.822Z-6.871
Y-8.05Z-6.94
Y-8.263Z-7.046
Y-8.455Z-7.187
Y-8.62Z-7.359
Y-8.754Z-7.556
Y-8.852Z-7.773
Y-8.912Z-8.003
Y-8.932Z-8.241
Z-8.811
Z-21.354
Y-8.925Z-25.066
Y-8.967Z-26.924
Y-9.214Z-28.766
G02X-5.Y-14.206I0.J-12.568
G01Y-15.893Z-37.689
Y-17.724Z-38.426
Y-19.649Z-38.857
Y-21.618Z-38.973
Y-25.325Z-38.98
Y-27.178Z-38.968
Y-29.03Z-38.898
Y-30.761Z-38.574
Y-32.426Z-38.004
Y-33.992Z-37.2
Y-35.426Z-36.178
Y-36.442Z-35.237
Y-37.605Z-33.843
Y-38.556Z-32.296
Y-39.298Z-30.575
Y-39.786Z-28.766
Y-40.033Z-26.924
Y-40.075Z-25.066
Y-40.068Z-21.354
Y-40.067Z15.706
Y-40.019Z17.606
Y-39.796Z19.493
Y-39.317Z21.477
Y-38.667Z23.118
Y-37.677Z24.845
Y-36.442Z26.407
Y-35.597Z27.228
Y-34.676Z27.962
Y-33.07Z28.935
Y-32.098Z29.37
Y-31.092Z29.718
Y-30.07Z29.972
Y-29.03Z30.135
Y-27.177Z30.198
Y-25.324Z30.144
Y-24.562Z30.157
X-4.714Y-23.786Z30.293
X-4.427Y-23.042Z30.548
X-4.141Y-22.347Z30.917
X-3.854Y-21.718Z31.39
X-3.568Y-21.171Z31.956
G00X5.
Y37.678Z44.784
X-3.98
G01X-4.98F3200.
X-5.5
Y37.941Z44.203
Y38.359Z43.457
Y40.295Z40.178
Y40.914Z38.94
Y43.437Z32.881
Y44.278Z30.861
Y45.96Z26.822
X-4.98
Y22.284Z45.354
X-5.5
Y23.515Z44.492
Y23.563Z44.458
G02X-5.5Y31.682I0.J-13.743
G01Y32.081Z34.255
Y35.135Z26.948
Y45.959Z.84
X-4.98
Y46.801Z-28.196
X-5.5
Y46.302Z-29.018
Y45.957Z-29.516
G02X-5.5Y34.256I0.J-20.141
G01Y33.86Z-37.629
G02X-5.5Y19.276I0.J-11.568
X-5.5Y1.101I0.J3.7
X-5.5Y-7.686I0.J-23.137
G00X5.Z-44.459
Y-46.705Z29.39
X-3.98
G01X-4.98F3200.
X-5.5
Y-46.266Z30.253
Y-45.956Z30.781
G02X-5.5Y-36.083I0.J18.666
G01Y-35.269Z39.138
Y-34.275Z39.473
Y-33.015Z39.809
Y-30.966Z40.213
Y-29.118Z40.402
Y-21.665Z40.466
Y-21.078Z40.453
Y-19.108Z40.346
Y-17.485Z40.124
Y-15.559Z39.697
Y-13.992Z39.212
Y-12.162Z38.476
Y-11.552Z38.171
Y-11.35
G02X-5.5Y-2.234I0.J17.365
G00X5.Z44.459
Y9.17Z-44.731
X-3.98
G01X-4.98F3200.
X-5.5
Y8.23Z-42.516
Y3.526Z-31.445
Y2.585Z-29.231
Y.704Z-24.802
G03X-5.5Y-8.822I0.J-4.6
G01Y-8.898Z-26.735
Y-8.899Z-26.921
G02X-5.5Y-10.595I0.J-14.03
X-5.5Y-14.206I0.J-10.991
G01Y-15.798Z-37.835
Y-17.516Z-38.542
Y-18.519Z-38.823
Y-19.542Z-39.017
Y-21.618Z-39.151
Y-25.325Z-39.176
Y-29.03Z-39.072
Y-30.833Z-38.735
Y-32.565Z-38.133
Y-34.2Z-37.272
Y-35.69Z-36.178
Y-36.442Z-35.479
Y-37.664Z-34.039
Y-38.653Z-32.43
Y-39.409Z-30.644
Y-39.894Z-28.766
Y-40.101Z-26.921
Y-40.109Z-25.063
Z15.706
Y-40.096Z17.599
Y-39.928Z19.484
Y-39.527Z21.337
Y-38.876Z23.118
G02X-5.5Y-29.03I0.J11.297
G01Y-27.177Z30.464
Y-25.324Z30.429
Y-21.618Z30.467
Y-19.648Z30.361
Y-17.722Z29.934
Y-15.892Z29.198
Y-14.206Z28.174
Y-12.946Z27.129
Y-11.833Z25.929
Y-10.885Z24.581
Y-10.126Z23.118
Y-9.479Z21.336
Y-9.076Z19.484
Y-8.904Z17.599
Y-8.891Z15.706
Z-25.063
Y-8.898Z-26.735
X-5.214Y-8.778Z-27.513
X-4.927Y-8.539Z-28.262
X-4.641Y-8.184Z-28.965
X-4.354Y-7.725Z-29.604
X-4.068Y-7.17Z-30.163
G00X5.
Y45.09Z-38.459
X-3.98
G01X-4.98F3200.
X-5.5
Y44.028Z-36.577
Y39.779Z-29.048
Y39.322Z-28.374
Y38.762Z-27.783
Y38.113Z-27.29
Y37.394Z-26.91
Y36.621Z-26.651
Y35.817Z-26.521
Y35.003Z-26.523
Y34.2Z-26.658
Y33.429Z-26.921
Y30.266Z-28.297
Y29.095Z-28.766
Y26.062Z-29.916
Y24.474Z-30.264
Y22.854Z-30.4
Y21.199Z-30.317
Y19.57Z-30.012
Y18.005Z-29.498
Y16.496Z-28.766
Y15.442Z-28.09
Y14.06Z-26.946
Y12.852Z-25.62
Y12.127Z-24.616
Y11.499Z-23.549
Y10.528Z-21.354
Y8.799Z-17.178
Y8.582Z-16.656
Y8.471Z-16.443
Y8.325Z-16.251
Y8.149Z-16.087
Y7.946Z-15.956
Y7.725Z-15.862
Y.254Z-13.414
Y.033Z-13.32
Y-.169Z-13.189
Y-.345Z-13.026
Y-.491Z-12.835
Y-.602Z-12.621
Y-1.921Z-9.45
Y-1.92Z-16.437
Y-1.902Z-16.665
Y-1.846Z-16.888
Y-1.755Z-17.098
Y-1.63Z-17.29
Y-1.476Z-17.46
Y-1.297Z-17.602
Y-1.096Z-17.713
Y-.881Z-17.79
Y-.655Z-17.83
Y7.154Z-18.586
Y7.394Z-18.588
Y7.631Z-18.55
Y7.858Z-18.471
Y8.068Z-18.355
Y8.255Z-18.205
Y8.414Z-18.025
Y8.54Z-17.821
Y8.629Z-17.598
Y8.678Z-17.363
Y8.687Z-17.123
Y8.655Z-16.885
Y8.582Z-16.656
Y8.366Z-16.135
Y-4.823Z15.706
Y-6.101Z18.946
Y-6.553Z20.631
Y-6.794Z22.36
Y-6.831Z23.118
Y-6.794Z24.484
Y-6.564Z26.087
Y-6.124Z27.644
Y-5.487Z29.135
Y-4.661Z30.53
Y-3.586Z31.876
Y-2.331Z33.055
Y-.92Z34.042
Y.618Z34.818
Y4.324Z36.304
Y6.154Z37.103
Y8.03Z37.787
G02X-5.5Y20.528I0.J3.165
G01Y21.39Z32.884
Y22.142Z31.738
Y22.791Z30.53
Y22.854Z30.399
Y25.898Z23.118
Y38.178Z-6.53
Y39.691Z-10.154
Y40.342Z-12.012
Y40.729Z-13.942
Y40.827Z-15.876
Y40.632Z-17.802
Y40.155Z-19.637
Y39.416Z-21.354
Y38.624Z-22.664
Y37.678Z-23.867
Y36.875Z-24.686
Y35.999Z-25.427
Y35.057Z-26.082
Y34.058Z-26.647
Y33.429Z-26.921
X-5.214Y32.766Z-27.344
X-4.927Y32.176Z-27.865
X-4.641Y31.676Z-28.473
X-4.354Y31.277Z-29.151
X-4.068Y30.988Z-29.883
G00X5.
Y37.678Z44.214
X-4.48
G01X-5.48F3200.
X-6.
Y37.852Z44.095
Y38.112Z43.891
Y38.343Z43.654
Y38.541Z43.39
Y38.683Z43.169
Y40.497Z39.956
Y41.024Z38.875
Y43.492Z32.932
Y44.314Z30.95
Y45.96Z26.988
X-5.48
Y22.854Z45.354
X-6.
Y23.3Z44.932
Y23.882Z44.458
G02X-6.Y31.789I0.J-13.645
G01Y32.101Z34.359
Y45.959Z.925
X-5.48
Y46.801Z-28.766
X-6.
Y46.083Z-29.597
Y45.957Z-29.748
G02X-6.Y34.235I0.J-20.165
G01Y33.896Z-37.772
G02X-6.Y19.199I0.J-11.562
X-6.Y1.154I0.J3.659
X-6.Y-7.445I0.J-23.117
G00X5.Z-44.459
Y-46.705Z29.96
X-4.48
G01X-5.48F3200.
X-6.
Y-46.239Z30.754
Y-45.956Z31.185
G02X-6.Y-35.632I0.J18.692
G01Y-34.176Z39.749
Y-32.389Z40.211
Y-31.29Z40.431
Y-30.436Z40.552
Y-29.07Z40.651
Y-20.384Z40.685
Y-19.118Z40.609
Y-17.872Z40.452
Y-16.814Z40.262
Y-15.508Z39.953
Y-14.443Z39.637
Y-13.179Z39.185
Y-12.155Z38.754
Y-11.441Z38.414
G02X-6.Y-2.867I0.J16.925
G01X-5.48Z44.459
Y-11.441Z38.414
X-6.
Y-10.643Z36.426
Y-9.846Z34.438
Y-9.048Z32.449
Y-8.251Z30.461
Y-7.454Z28.473
Y-6.656Z26.485
Y-6.603Z26.712
G02X-6.Y-2.506I0.J12.235
G01Y-1.014Z34.275
Y.618Z35.084
Y4.158Z36.475
Y5.897Z37.248
Y7.668Z37.942
G02X-6.Y20.669I0.J3.488
G01Y21.504Z32.938
Y22.234Z31.775
Y22.863Z30.53
Y25.943Z23.118
Y39.73Z-10.164
Y40.417Z-12.013
Y40.827Z-13.942
Y40.94Z-15.863
Y40.764Z-17.778
Y40.29Z-19.66
Y39.576Z-21.354
Y38.719Z-22.786
Y37.678Z-24.09
Y36.875Z-24.89
Y36.001Z-25.614
Y35.065Z-26.255
Y34.073Z-26.807
Y30.266Z-28.454
Y29.488Z-28.766
Y26.266Z-30.012
Y24.579Z-30.401
Y22.854Z-30.55
Y21.125Z-30.457
Y19.426Z-30.124
Y17.784Z-29.556
Y16.237Z-28.766
Y15.442Z-28.245
Y14.077Z-27.12
Y12.881Z-25.816
Y12.113Z-24.749
Y11.457Z-23.609
Y10.483Z-21.354
Y-5.993Z18.429
Y-6.466Z19.826
Y-6.794Z21.264
Y-6.995Z23.118
Y-6.968Z24.513
Y-6.794Z25.897
Y-6.656Z26.485
X-5.714Y-6.599Z27.27
X-5.427Y-6.665Z28.054
X-5.141Y-6.853Z28.818
X-4.854Y-7.159Z29.543
X-4.568Y-7.574Z30.212
Y-38.153Z44.214
X-5.48
X-6.
Y-36.765Z42.536
Y-28.436Z32.471
Y-27.918Z31.932
Y-27.325Z31.477
Y-26.671Z31.115
Y-25.97Z30.854
Y-25.238Z30.701
Y-24.492Z30.659
Y-21.618Z30.712
Y-20.362Z30.686
Y-19.116Z30.53
Y-17.81Z30.221
Y-16.967Z29.92
Y-16.546Z29.769
Y-15.339Z29.18
Y-14.206Z28.46
Y-12.874Z27.357
Y-11.708Z26.081
Y-10.725Z24.659
Y-9.941Z23.118
Y-9.332Z21.329
Y-8.973Z19.474
Y-8.85Z17.592
Y-8.849Z-8.001
Z-8.569
Y-8.833Z-8.781
Y-8.786Z-8.987
Y-8.707Z-9.184
Y-8.6Z-9.367
Y-8.466Z-9.532
Y-8.309Z-9.674
Y-2.408Z-14.266
Y-2.251Z-14.409
Y-2.117Z-14.573
Y-2.01Z-14.756
Y-1.931Z-14.953
Y-1.884Z-15.159
Y-1.867Z-15.371
Z-18.613
Y-.228Z-18.033
Y1.512Z-17.931
Y.275Z-14.945
Y.202Z-14.795
Y.112Z-14.655
Y.006Z-14.527
Y-6.424Z-7.616
Y-6.602Z-7.455
Y-6.803Z-7.327
Y-7.024Z-7.235
Y-7.257Z-7.183
Y-7.496Z-7.17
Y-7.733Z-7.198
Y-7.962Z-7.266
Y-8.176Z-7.373
Y-8.369Z-7.513
Y-8.535Z-7.685
Y-8.669Z-7.883
Y-8.768Z-8.1
Y-8.829Z-8.331
Y-8.849Z-8.569
Z-9.138
Z-25.062
Y-8.845Z-26.919
Y-9.022Z-28.766
G02X-6.Y-14.206I0.J-12.498
G01Y-15.791Z-37.998
Y-17.499Z-38.695
Y-18.506Z-38.975
Y-19.533Z-39.168
Y-21.618Z-39.298
Y-25.325Z-39.321
Y-27.178Z-39.3
Y-29.03Z-39.223
Y-30.902Z-38.872
Y-32.697Z-38.239
Y-34.381Z-37.332
Y-35.906Z-36.178
Y-36.442Z-35.675
Y-37.713Z-34.193
Y-38.736Z-32.53
Y-39.502Z-30.696
Y-39.978Z-28.766
Y-40.155Z-26.919
Y-40.151Z-25.062
Y-40.152Z17.592
Y-40.033Z19.475
Y-39.672Z21.329
Y-39.063Z23.118
Y-38.529Z24.223
Y-37.938Z25.208
Y-37.235Z26.165
Y-36.442Z27.049
Y-34.903Z28.381
Y-33.394Z29.324
Y-31.671Z30.068
Y-29.885Z30.53
Y-29.03Z30.651
Y-27.177Z30.704
Y-25.324Z30.644
Y-24.492Z30.659
X-5.714Y-23.717Z30.797
X-5.427Y-22.973Z31.054
X-5.141Y-22.278Z31.424
X-4.854Y-21.65Z31.898
X-4.568Y-21.104Z32.465
G00X5.
Y38.249Z44.214
X-4.98
G01X-5.98F3200.
X-6.5
Y38.387Z43.852
Y38.508Z43.582
Y38.661Z43.329
G02X-6.5Y44.363I0.J-66.665
G01Y45.162Z29.061
Y45.96Z27.136
X-5.98
Y22.854Z45.354
X-6.5
Y24.092Z44.52
Y24.181Z44.458
G02X-6.5Y31.933I0.J-13.944
G01Y32.156Z34.357
Y45.959Z1.036
X-5.98
Y46.801Z-28.766
X-6.5
Y46.119Z-29.708
Y45.957Z-29.919
G02X-6.5Y34.191I0.J-20.093
G01Y33.95Z-37.852
G02X-6.5Y17.329I0.J-11.393
X-6.5Y1.197I0.J5.553
X-6.5Y-7.277I0.J-22.937
G00X5.Z-44.459
Y-46.705Z30.53
X-4.98
G01X-5.98F3200.
X-6.5
Y-46.087Z31.303
Y-45.956Z31.475
G02X-6.5Y-36.738I0.J18.609
G01Y-35.504Z39.515
Y-33.95Z40.028
Y-32.587Z40.373
Y-30.797Z40.694
Y-29.111Z40.851
Y-21.661Z40.911
Y-21.219Z40.904
Y-19.487Z40.834
Y-18.084Z40.679
Y-16.379Z40.367
Y-14.834Z39.954
Y-12.765Z39.219
Y-11.527Z38.65
G02X-6.5Y-3.369I0.J17.2
G00X5.Z44.459
Y1.18Z-27.322
X-4.98
G01X-5.98F3200.
X-6.5
Y-1.316Z-27.22
Y-3.812Z-27.119
Y-6.307Z-27.018
Y-8.803Z-26.917
Y-8.841Z-27.379
G02X-6.5Y-14.206I0.J-12.589
G01Y-15.904Z-38.178
Y-17.736Z-38.886
Y-19.657Z-39.297
Y-21.618Z-39.403
Y-25.325Z-39.418
Y-27.178Z-39.404
Y-29.03Z-39.335
Y-30.956Z-38.973
Y-32.801Z-38.315
Y-34.52Z-37.375
Y-36.071Z-36.178
G02X-6.5Y-40.046I0.J8.523
G01Y-40.197Z-26.917
Y-40.193Z-25.062
Y-40.194Z17.587
Y-40.119Z19.467
Y-39.796Z21.324
Y-39.216Z23.118
Y-38.673Z24.281
Y-38.039Z25.359
Y-37.291Z26.383
Y-36.442Z27.323
Y-35.027Z28.537
Y-33.846Z29.304
Y-32.373Z30.018
Y-30.819Z30.53
Y-29.03Z30.851
Y-27.177Z30.903
Y-25.324Z30.832
Y-21.618Z30.912
Y-19.886Z30.842
Y-18.18Z30.53
Y-17.129Z30.209
Y-16.111Z29.795
Y-14.999Z29.214
Y-14.206Z28.704
Y-12.807Z27.565
Y-11.59Z26.234
Y-10.581Z24.74
Y-9.792Z23.118
Y-9.21Z21.325
Y-8.887Z19.467
Y-8.807Z17.587
Z-25.062
Y-8.803Z-26.917
X-6.214Y-8.678Z-27.694
X-5.927Y-8.434Z-28.442
X-5.641Y-8.075Z-29.142
X-5.354Y-7.611Z-29.778
X-5.068Y-7.053Z-30.333
G00X5.
Y42.81Z-40.74
X-4.98
G01X-5.98F3200.
X-6.5
Y41.684Z-38.692
Y37.18Z-30.502
Y36.729Z-29.821
Y36.174Z-29.222
Y35.529Z-28.722
Y34.811Z-28.334
Y34.039Z-28.067
Y33.234Z-27.93
Y32.417Z-27.926
Y31.611Z-28.054
Y30.836Z-28.312
Y30.266Z-28.555
Y29.746Z-28.766
Y26.402Z-30.086
Y24.649Z-30.502
Y22.854Z-30.662
Y21.065Z-30.562
Y19.309Z-30.207
Y17.622Z-29.604
Y16.038Z-28.766
Y15.442Z-28.37
Y14.085Z-27.258
Y12.895Z-25.968
Y12.095Z-24.852
Y11.42Z-23.657
Y10.438Z-21.354
Y8.708Z-17.178
Y8.492Z-16.656
Y8.396Z-16.467
Y8.273Z-16.294
Y8.124Z-16.142
Y7.955Z-16.014
Y7.768Z-15.913
Y7.568Z-15.842
Y.393Z-13.88
Y.194Z-13.809
Y.007Z-13.708
Y-.163Z-13.58
Y-.311Z-13.428
Y-.434Z-13.255
Y-.53Z-13.066
Y-1.826Z-9.944
Y-1.825Z-16.855
Y-1.805Z-17.091
Y-1.745Z-17.321
Y-1.648Z-17.537
Y-1.515Z-17.734
Y-1.351Z-17.905
Y-1.161Z-18.046
Y-.949Z-18.153
Y-.722Z-18.223
Y-.487Z-18.253
Y7.137Z-18.591
Y7.371Z-18.582
Y7.6Z-18.534
Y7.817Z-18.448
Y8.018Z-18.328
Y8.195Z-18.175
Y8.345Z-17.996
Y8.463Z-17.793
Y8.545Z-17.574
Y8.59Z-17.345
Y8.596Z-17.111
Y8.563Z-16.879
Y8.492Z-16.656
Y8.276Z-16.135
Y-5.941Z18.182
Y-6.425Z19.434
G02X-6.5Y-5.174I0.J12.26
G01Y-4.023Z32.047
Y-2.651Z33.367
Y-1.091Z34.46
Y.618Z35.299
Y3.856Z36.547
Y7.034Z37.942
G02X-6.5Y20.696I0.J4.118
G01Y21.533Z33.092
Y22.252Z31.917
Y22.854Z30.679
Y22.918Z30.53
Y39.776Z-10.169
Y40.479Z-12.015
Y40.731Z-12.97
Y40.908Z-13.942
Y41.034Z-15.851
Y40.871Z-17.756
G02X-6.5Y34.083I0.J-12.449
G01Y30.836Z-28.312
X-6.214Y30.17Z-28.73
X-5.927Y29.577Z-29.248
X-5.641Y29.072Z-29.852
X-5.354Y28.668Z-30.527
X-5.068Y28.375Z-31.257
G00X5.
Y38.249Z44.214
X-5.48
G01X-6.48F3200.
X-7.
Y38.8Z43.273
Y38.813Z43.25
Y39.945Z41.341
Y40.577Z40.081
Y44.166Z31.456
Y45.063Z29.3
Y45.96Z27.144
X-6.48
Y23.424Z45.354
X-7.
Y23.892Z44.903
Y24.42Z44.458
G02X-7.Y31.908I0.J-13.945
G01Y32.093Z34.619
Y45.959Z1.145
X-6.48
Y46.801Z-28.766
X-7.
Y46.312Z-29.541
Y45.957Z-30.034
G02X-7.Y34.221I0.J-20.289
G01Y33.928Z-37.952
G02X-7.Y17.22I0.J-11.359
X-7.Y1.236I0.J5.685
X-7.Y-7.164I0.J-22.841
G00X5.Z-44.459
Y-46.705Z30.53
X-5.48
G01X-6.48F3200.
X-7.
Y-46.192Z31.365
Y-45.956Z31.715
G02X-7.Y-36.297I0.J18.422
G01Y-34.912Z39.896
G02X-7.Y-29.086I0.J8.062
G01Y-20.628Z41.056
Y-19.28Z40.97
Y-17.26Z40.701
Y-16.042Z40.462
Y-15.056Z40.203
Y-13.934Z39.837
Y-12.178Z39.147
Y-11.537Z38.836
Y-11.144Z39.284
Y-9.731Z40.655
Y-8.498Z41.674
Y-6.885Z42.802
Y-5.51Z43.609
Y-3.753Z44.459
X-6.48
Y-11.537Z38.836
X-7.
Y-10.782Z36.761
Y-10.028Z34.686
Y-9.273Z32.611
Y-8.519Z30.536
Y-7.764Z28.461
Y-7.01Z26.386
Y-6.916Z26.778
Y-6.794Z27.291
Y-6.19Z28.962
Y-5.355Z30.53
Y-4.179Z32.108
Y-2.766Z33.479
Y-1.154Z34.608
Y.618Z35.465
Y3.628Z36.649
Y6.593Z37.942
G02X-7.Y21.613I0.J4.555
G01Y22.29Z31.995
Y22.854Z30.792
Y39.822Z-10.172
Y40.531Z-12.016
Y40.788Z-12.97
Y40.97Z-13.942
Y41.102Z-15.844
Y40.945Z-17.743
G02X-7.Y34.086I0.J-12.473
G01Y30.266Z-28.646
Y29.969Z-28.766
Y26.514Z-30.123
Y24.707Z-30.566
Y22.854Z-30.736
Y21.027Z-30.633
Y19.234Z-30.264
Y17.514Z-29.638
Y15.903Z-28.766
Y15.442Z-28.457
Y14.082Z-27.348
Y12.889Z-26.061
Y12.071Z-24.918
Y11.385Z-23.691
Y10.393Z-21.354
Y-6.404Z19.199
Y-6.794Z20.398
Y-7.09Z21.746
Y-7.245Z23.118
Y-7.265Z24.172
Y-7.196Z25.223
Y-7.038Z26.265
Y-7.01Z26.386
X-6.714Y-6.949Z27.17
X-6.427Y-7.012Z27.955
X-6.141Y-7.197Z28.72
X-5.854Y-7.5Z29.446
X-5.568Y-7.912Z30.117
Y-39.293Z43.644
X-6.48
X-7.
Y-37.794Z41.844
Y-30.302Z32.845
Y-29.7Z32.237
Y-29.004Z31.74
Y-28.233Z31.369
Y-27.41Z31.135
Y-26.559Z31.045
Y-25.324Z31.02
Y-21.618Z31.066
Y-20.598Z31.057
Y-19.583Z30.965
Y-18.579Z30.789
Y-17.592Z30.53
Y-15.836Z29.84
Y-14.206Z28.89
Y-12.756Z27.719
Y-11.496Z26.346
Y-10.454Z24.801
Y-9.653Z23.118
Y-9.106Z21.318
Y-8.817Z19.459
Y-8.766Z15.706
Z-8.075
Z-8.641
Y-8.751Z-8.846
Y-8.706Z-9.046
Y-8.632Z-9.238
Y-8.531Z-9.417
Y-8.405Z-9.579
Y-8.257Z-9.721
Y-2.307Z-14.63
Y-2.159Z-14.772
Y-2.033Z-14.933
Y-1.932Z-15.112
Y-1.858Z-15.303
Y-1.813Z-15.504
Y-1.798Z-15.708
Y-1.794Z-19.116
Y-.174Z-18.539
Y1.651Z-18.438
Y.341Z-15.281
Y.233Z-15.072
Y.092Z-14.884
Y-6.322Z-7.708
Y-6.497Z-7.543
Y-6.699Z-7.41
Y-6.919Z-7.314
Y-7.154Z-7.257
Y-7.394Z-7.242
Y-7.634Z-7.267
Y-7.865Z-7.333
Y-8.082Z-7.438
Y-8.278Z-7.579
Y-8.446Z-7.751
Y-8.583Z-7.949
Y-8.684Z-8.168
Y-8.745Z-8.401
Y-8.766Z-8.641
Z-9.207
Y-8.764Z-26.916
Y-8.899Z-28.766
G02X-7.Y-21.618I0.J-12.441
G01Y-25.325Z-39.501
Y-27.178Z-39.478
Y-29.03Z-39.405
G02X-7.Y-40.101I0.J1.327
G01Y-40.236Z-26.916
Y-40.234Z17.583
Y-40.19Z19.46
Y-39.898Z21.319
Y-39.347Z23.118
G02X-7.Y-29.03I0.J11.638
G01Y-27.177Z31.057
Y-26.559Z31.045
X-6.714Y-25.78Z31.153
X-6.427Y-25.026Z31.381
X-6.141Y-24.318Z31.724
X-5.854Y-23.672Z32.174
X-5.568Y-23.105Z32.719
G00X5.
Y38.249Z44.214
X-5.98
G01X-6.98F3200.
X-7.5
Y38.725Z43.527
Y38.944Z43.182
Y40.077Z41.227
Y40.658Z40.052
Y44.192Z31.545
Y45.076Z29.418
Y45.96Z27.291
X-6.98
Y23.424Z45.354
X-7.5
Y24.585Z44.482
Y24.616Z44.458
G02X-7.5Y31.957I0.J-14.014
G01Y32.093Z34.728
Y45.959Z1.253
X-6.98
Y46.801Z-28.766
X-7.5
Y46.478Z-29.354
Y46.236Z-29.752
Y45.957Z-30.125
G02X-7.5Y34.228I0.J-20.339
G01Y33.925Z-38.019
G02X-7.5Y17.13I0.J-11.347
X-7.5Y1.276I0.J5.712
X-7.5Y-7.074I0.J-22.823
G00X5.Z-44.459
Y-46.705Z30.53
X-5.98
G01X-6.98F3200.
X-7.5
Y-46.483Z31.023
Y-46.243Z31.488
Y-45.956Z31.926
G02X-7.5Y-35.726I0.J18.305
G01Y-34.648Z40.148
Y-33.227Z40.553
Y-32.058Z40.811
Y-30.599Z41.043
Y-29.075Z41.166
Y-20.491Z41.204
G02X-7.5Y-11.566I0.J-.7
G01Y-11.318Z39.323
Y-9.863Z40.746
Y-8.913Z41.565
Y-8.067Z42.206
Y-7.042Z42.888
Y-5.329Z43.88
Y-4.141Z44.459
G00X5.
Y9.17Z-44.731
X-5.98
G01X-6.98F3200.
X-7.5
Y8.247Z-42.571
Y3.632Z-31.77
Y2.708Z-29.61
Y.862Z-25.29
G03X-7.5Y-8.599I0.J-4.597
G01Y-8.724Z-26.916
Y-8.756Z-27.379
G02X-7.5Y-12.729I0.J-12.398
G01Y-14.206Z-37.355
Y-15.788Z-38.271
Y-17.487Z-38.947
Y-18.498Z-39.22
Y-19.529Z-39.409
Y-20.571Z-39.51
Y-21.618Z-39.534
Y-25.325Z-39.561
Y-29.03Z-39.462
G02X-7.5Y-40.15I0.J1.308
G01Y-40.276Z-26.916
Z15.706
Y-40.249Z19.455
Y-39.986Z21.316
Y-39.454Z23.118
G02X-7.5Y-29.03I0.J11.71
G01Y-27.177Z31.213
Y-25.324Z31.177
Y-21.618Z31.217
Y-20.467Z31.205
Y-19.322Z31.085
Y-18.193Z30.86
Y-17.089Z30.53
Y-15.6Z29.895
Y-14.206Z29.071
Y-12.711Z27.87
Y-11.419Z26.453
Y-10.37Z24.879
Y-9.549Z23.118
Y-9.018Z21.315
Y-8.755Z19.454
Y-8.724Z15.706
Z-26.916
X-7.214Y-8.601Z-27.693
X-6.927Y-8.358Z-28.442
X-6.641Y-8.001Z-29.143
X-6.354Y-7.538Z-29.78
X-6.068Y-6.981Z-30.336
G00X5.
Y44.52Z-38.459
X-5.98
G01X-6.98F3200.
X-7.5
Y43.429Z-36.248
Y40.154Z-29.613
Y39.718Z-28.891
Y39.167Z-28.253
Y38.517Z-27.716
Y37.786Z-27.296
Y36.995Z-27.005
Y36.165Z-26.851
Y35.322Z-26.838
Y34.489Z-26.968
Y33.689Z-27.235
Y30.266Z-28.712
Y26.597Z-30.155
Y24.75Z-30.618
Y22.854Z-30.795
Y20.994Z-30.689
Y19.171Z-30.309
Y17.425Z-29.663
Y15.794Z-28.766
Y15.442Z-28.529
Y14.076Z-27.421
Y12.878Z-26.132
Y12.045Z-24.97
Y11.35Z-23.72
Y10.348Z-21.354
Y8.829Z-17.688
Y8.612Z-17.164
Y8.518Z-16.977
Y8.396Z-16.806
Y8.251Z-16.655
Y8.084Z-16.528
Y7.9Z-16.427
Y7.704Z-16.354
Y.435Z-14.276
Y.238Z-14.204
Y.054Z-14.102
Y-.112Z-13.975
Y-.258Z-13.824
Y-.379Z-13.653
Y-.474Z-13.466
Y-1.756Z-10.37
Y-1.752Z-17.247
Y-1.732Z-17.481
Y-1.673Z-17.708
Y-1.577Z-17.923
Y-1.447Z-18.118
Y-1.286Z-18.289
Y-1.099Z-18.43
Y-.89Z-18.538
Y-.667Z-18.61
Y-.434Z-18.644
Y7.236Z-19.098
Y7.472Z-19.092
Y7.703Z-19.046
Y7.923Z-18.963
Y8.127Z-18.844
Y8.307Z-18.692
Y8.459Z-18.512
Y8.579Z-18.309
Y8.664Z-18.089
Y8.71Z-17.858
Y8.717Z-17.622
Y8.684Z-17.389
Y8.612Z-17.164
Y8.395Z-16.641
Y-5.923Z17.926
Y-6.794Z20.166
G02X-7.5Y-2.027I0.J12.042
G01Y-1.211Z34.755
Y-.314Z35.229
Y.618Z35.628
Y3.431Z36.73
Y6.198Z37.942
Y8.03Z38.578
Y9.881Z38.912
Y11.762Z38.962
Y13.631Z38.725
Y15.442Z38.207
G02X-7.5Y22.854I0.J-4.548
G01Y39.868Z-10.173
Y40.579Z-12.016
Y40.839Z-12.971
Y41.023Z-13.942
Y41.158Z-15.841
Y41.005Z-17.738
G02X-7.5Y33.689I0.J-12.464
G01X-7.214Y33.024Z-27.656
X-6.927Y32.434Z-28.176
X-6.641Y31.931Z-28.782
X-6.354Y31.53Z-29.459
X-6.068Y31.24Z-30.19
G00X5.
Y38.249Z44.214
X-6.48
G01X-7.48F3200.
X-8.
Y38.547Z43.858
Y38.818Z43.502
Y39.056Z43.124
Y40.147Z41.21
Y40.694Z40.094
Y44.205Z31.641
Y45.082Z29.528
Y45.96Z27.415
X-7.48
Y23.995Z45.354
X-8.
Y24.404Z44.849
Y24.591Z44.642
Y24.8Z44.458
G02X-8.Y32.093I0.J-14.266
G01Y33.017Z32.605
Y45.959Z1.362
X-7.48
Y46.801Z-28.766
X-8.
Y46.62Z-29.146
Y46.321Z-29.685
Y45.957Z-30.184
G02X-8.Y34.224I0.J-20.358
G01Y33.931Z-38.043
G02X-8.Y17.078I0.J-11.377
X-8.Y1.318I0.J5.702
X-8.Y-7.01I0.J-22.793
G00X5.Z-44.459
Y-46.705Z31.1
X-6.48
G01X-7.48F3200.
X-8.
Y-45.964Z32.101
Y-45.956Z32.111
G02X-8.Y-36.271I0.J18.267
G01Y-35.178Z40.093
Y-33.591Z40.579
Y-32.294Z40.882
Y-30.657Z41.152
Y-29.068Z41.285
Y-20.395Z41.317
Y-18.843Z41.2
Y-16.799Z40.883
Y-15.486Z40.588
Y-13.899Z40.117
Y-12.66Z39.658
Y-11.598Z39.183
Y-11.459Z39.345
Y-9.976Z40.803
Y-9.015Z41.635
Y-8.148Z42.293
Y-7.106Z42.986
Y-5.347Z44.004
Y-4.405Z44.459
X-7.48
Y-11.598Z39.183
X-8.
Y-10.855Z37.139
Y-10.111Z35.095
Y-9.368Z33.051
Y-8.624Z31.008
Y-7.881Z28.964
Y-7.138Z26.92
Y-7.023Z27.319
G02X-8.Y.618I0.J12.027
G01Y3.291Z36.783
Y5.91Z37.942
G02X-8.Y22.854I0.J5.215
G01Y39.913Z-10.173
Y40.625Z-12.016
Y40.885Z-12.971
Y41.069Z-13.942
Y41.205Z-15.84
Y41.053Z-17.738
G02X-8.Y34.085I0.J-12.527
G01Y30.266Z-28.739
Y26.631Z-30.171
Y24.768Z-30.646
Y22.854Z-30.831
Y20.97Z-30.726
Y19.123Z-30.34
Y17.356Z-29.682
Y15.708Z-28.766
Y15.442Z-28.586
Y14.066Z-27.476
Y12.86Z-26.183
Y12.017Z-25.009
Y11.315Z-23.746
Y10.303Z-21.354
Y-5.048Z15.706
Y-6.794Z19.991
Y-7.209Z21.535
Y-7.429Z23.118
Y-7.461Z24.386
Y-7.366Z25.65
Y-7.138Z26.92
X-7.714Y-7.121Z27.707
X-7.427Y-7.228Z28.486
X-7.141Y-7.456Z29.24
X-6.854Y-7.799Z29.948
X-6.568Y-8.248Z30.594
Y-39.293Z43.644
X-7.48
X-8.
Y-37.865Z41.896
Y-30.724Z33.156
Y-30.125Z32.54
Y-29.43Z32.036
Y-28.658Z31.658
Y-27.834Z31.417
Y-26.98Z31.322
Y-25.324Z31.279
Y-21.618Z31.336
G02X-8.Y-9.451I0.J.414
G01Y-8.943Z21.311
Y-8.703Z19.45
Y-8.683Z15.706
Y-8.682Z-8.731
Z-9.299
Y-8.667Z-9.509
Y-8.619Z-9.715
Y-8.541Z-9.911
Y-8.435Z-10.094
Y-8.302Z-10.258
Y-8.146Z-10.401
Y-2.244Z-15.028
Y-2.089Z-15.171
Y-1.956Z-15.335
Y-1.849Z-15.517
Y-1.772Z-15.713
Y-1.724Z-15.919
Y-1.708Z-16.13
Y-1.707Z-19.522
Y-.72Z-19.106
Y.687Z-18.83
Y1.732Z-18.843
Y.432Z-15.704
Y.36Z-15.555
Y.271Z-15.416
Y.166Z-15.288
Y-6.255Z-8.348
Y-6.432Z-8.187
Y-6.633Z-8.058
Y-6.854Z-7.966
Y-7.087Z-7.913
Y-7.326Z-7.899
Y-7.564Z-7.927
Y-7.793Z-7.995
Y-8.007Z-8.101
Y-8.201Z-8.242
Y-8.367Z-8.414
Y-8.502Z-8.611
Y-8.601Z-8.829
Y-8.662Z-9.06
Y-8.682Z-9.299
Z-9.867
Z-26.916
Y-8.805Z-28.766
G02X-8.Y-21.618I0.J-12.491
G01Y-25.325Z-39.585
Y-29.03Z-39.489
G02X-8.Y-40.195I0.J1.268
G01Y-40.318Z-26.916
Z15.706
Y-40.301Z19.45
Y-40.06Z21.312
Y-39.55Z23.118
G02X-8.Y-29.03I0.J11.806
G01Y-27.177Z31.327
Y-26.98Z31.322
X-7.714Y-26.2Z31.425
X-7.427Y-25.445Z31.649
X-7.141Y-24.735Z31.988
X-6.854Y-24.087Z32.434
X-6.568Y-23.516Z32.976
G00X5.
Y38.249Z44.214
X-6.98
G01X-7.98F3200.
X-8.5
Y38.888Z43.457
Y39.03Z43.271
Y39.154Z43.074
Y40.195Z41.231
Y40.724Z40.146
Y44.215Z31.738
Y45.087Z29.636
Y45.96Z27.534
X-7.98
Y23.995Z45.354
X-8.5
Y24.482Z44.857
Y24.923Z44.458
G02X-8.5Y33.017I0.J-15.86
G01Y33.942Z30.482
Y45.959Z1.471
X-7.98
Y46.801Z-29.336
X-8.5
Y46.14Z-30.068
Y45.957Z-30.282
G02X-8.5Y34.22I0.J-20.635
G01Y33.937Z-38.066
G02X-8.5Y17.026I0.J-11.394
X-8.5Y1.359I0.J5.693
X-8.5Y-6.946I0.J-22.747
G00X5.Z-44.459
Y-46.705Z31.1
X-6.98
G01X-7.98F3200.
X-8.5
Y-46.121Z32.
Y-45.947Z32.251
G02X-8.5Y-36.602I0.J18.229
G01Y-35.498Z40.061
Y-33.806Z40.598
Y-32.427Z40.93
Y-30.677Z41.223
Y-29.062Z41.359
Y-20.336Z41.386
Y-19.135Z41.317
Y-17.845Z41.163
Y-16.822Z40.987
Y-15.554Z40.7
Y-14.554Z40.419
Y-13.323Z40.002
Y-12.263Z39.575
Y-11.621Z39.279
Y-11.547Z39.366
Y-10.044Z40.846
Y-9.071Z41.688
Y-8.187Z42.358
Y-7.132Z43.059
Y-5.345Z44.087
Y-4.574Z44.459
G00X5.
Y9.17Z-44.731
X-6.98
G01X-7.98F3200.
X-8.5
Y8.258Z-42.571
Y3.693Z-31.771
Y2.78Z-29.612
Y.954Z-25.292
G03X-8.5Y-8.517I0.J-4.604
G01Y-8.641Z-26.916
Y-8.671Z-27.378
G02X-8.5Y-14.206I0.J-12.436
X-8.5Y-21.618I0.J-7.167
G01Y-25.325Z-39.607
Y-29.03Z-39.515
G02X-8.5Y-40.239I0.J1.228
G01Y-40.359Z-26.916
Z15.706
Y-40.348Z19.447
Y-40.124Z21.31
Y-39.625Z23.118
Y-39.065Z24.44
Y-38.321Z25.745
Y-37.448Z26.925
Y-36.442Z27.996
Y-35.544Z28.768
Y-34.577Z29.452
Y-33.55Z30.041
Y-32.472Z30.53
Y-30.78Z31.067
Y-29.03Z31.359
Y-27.177Z31.397
Y-25.324Z31.354
Y-21.618Z31.408
G02X-8.5Y-9.376I0.J.437
G01Y-8.878Z21.31
Y-8.654Z19.447
Y-8.641Z15.706
Z-26.916
X-8.214Y-8.518Z-27.693
X-7.927Y-8.275Z-28.442
X-7.641Y-7.917Z-29.143
X-7.354Y-7.455Z-29.779
X-7.068Y-6.898Z-30.336
G00X5.
Y43.95Z-39.599
X-6.98
G01X-7.98F3200.
X-8.5
Y42.791Z-37.691
Y38.154Z-30.056
Y37.689Z-29.412
Y37.127Z-28.85
Y36.484Z-28.383
Y35.775Z-28.025
Y35.019Z-27.783
Y34.233Z-27.664
Y33.439Z-27.671
Y32.656Z-27.804
Y31.903Z-28.059
Y30.266Z-28.764
Y26.662Z-30.186
Y25.733Z-30.466
Y24.784Z-30.674
Y23.823Z-30.807
Y22.854Z-30.866
Y20.946Z-30.763
Y19.076Z-30.371
Y17.289Z-29.701
Y15.624Z-28.766
Y15.442Z-28.643
Y14.056Z-27.531
Y12.842Z-26.234
Y11.989Z-25.048
Y11.28Z-23.771
Y10.258Z-21.354
Y8.96Z-18.222
Y8.744Z-17.7
Y8.651Z-17.516
Y8.532Z-17.348
Y8.39Z-17.198
Y8.227Z-17.071
Y8.048Z-16.97
Y7.855Z-16.896
Y.514Z-14.68
Y.321Z-14.606
Y.141Z-14.505
Y-.021Z-14.378
Y-.164Z-14.228
Y-.282Z-14.06
Y-.375Z-13.876
Y-1.666Z-10.76
Y-1.664Z-17.67
Y-1.645Z-17.902
Y-1.587Z-18.127
Y-1.493Z-18.34
Y-1.365Z-18.534
Y-1.207Z-18.705
Y-1.023Z-18.847
Y-.817Z-18.956
Y-.597Z-19.03
Y-.367Z-19.066
Y7.348Z-19.632
Y7.586Z-19.63
Y7.819Z-19.587
Y8.042Z-19.505
Y8.248Z-19.387
Y8.431Z-19.236
Y8.585Z-19.056
Y8.708Z-18.853
Y8.794Z-18.631
Y8.841Z-18.399
Y8.849Z-18.162
Y8.816Z-17.927
Y8.744Z-17.7
Y8.528Z-17.178
Y-5.093Z15.706
Y-6.794Z19.845
G02X-8.5Y-3.027I0.J11.904
G01Y-2.143Z34.392
Y-1.293Z34.93
Y-.357Z35.42
Y.618Z35.83
Y3.197Z36.826
Y5.725Z37.942
G02X-8.5Y20.236I0.J5.398
G01Y21.039Z34.331
Y21.747Z33.32
Y22.353Z32.246
Y22.854Z31.119
Y39.958Z-10.173
Y40.67Z-12.016
G02X-8.5Y34.081I0.J-12.043
G01Y31.903Z-28.059
X-8.214Y31.238Z-28.48
X-7.927Y30.647Z-28.999
X-7.641Y30.144Z-29.604
X-7.354Y29.742Z-30.281
X-7.068Y29.451Z-31.012
G00X5.
Y38.249Z44.214
X-7.48
G01X-8.48F3200.
X-9.
Y38.912Z43.482
Y39.088Z43.265
Y39.239Z43.03
Y40.208Z41.311
Y40.732Z40.235
Y44.217Z31.84
Y45.088Z29.741
Y45.96Z27.642
X-8.48
Y23.995Z45.354
X-9.
Y24.94Z44.54
Y25.038Z44.458
G02X-9.Y32.093I0.J-14.358
G01Y33.017Z32.823
Y45.959Z1.58
X-8.48
Y46.801Z-29.336
X-9.
Y46.012Z-30.274
Y45.957Z-30.34
G02X-9.Y34.277I0.J-20.585
G01Y33.996Z-38.067
G02X-9.Y18.868I0.J-11.673
X-9.Y1.401I0.J3.77
X-9.Y-6.882I0.J-22.706
G00X5.Z-44.459
Y-46.705Z31.1
X-7.48
G01X-8.48F3200.
X-9.
Y-46.273Z31.865
Y-45.938Z32.381
G02X-9.Y-35.787I0.J18.047
G01Y-34.001Z40.618
Y-32.541Z40.978
Y-30.687Z41.289
Y-29.057Z41.428
Y-20.28Z41.45
Y-19.052Z41.377
Y-17.709Z41.213
Y-16.645Z41.024
Y-15.327Z40.716
Y-14.289Z40.413
Y-13.013Z39.964
Y-12.066Z39.576
Y-11.635Z39.373
Y-10.284Z40.73
Y-9.304Z41.593
Y-8.354Z42.326
Y-7.25Z43.066
Y-5.408Z44.13
Y-4.74Z44.459
X-8.48
Y-11.635Z39.373
X-9.
Y-10.898Z37.351
Y-10.16Z35.329
Y-9.423Z33.307
Y-8.686Z31.285
Y-7.948Z29.263
Y-7.211Z27.241
Y-7.072Z27.682
G02X-9.Y.618I0.J11.986
G01Y5.567Z37.942
Y6.777Z38.452
G02X-9.Y21.088I0.J4.359
G01Y21.775Z33.374
Y22.364Z32.326
Y22.854Z31.228
Y40.003Z-10.173
Y40.716Z-12.017
G02X-9.Y34.099I0.J-12.042
G01Y30.321Z-28.766
Y26.665Z-30.211
Y25.735Z-30.494
Y24.786Z-30.704
Y23.824Z-30.84
Y22.854Z-30.902
Y20.923Z-30.8
Y19.029Z-30.403
Y17.221Z-29.719
Y15.54Z-28.766
Y15.442Z-28.7
Y14.047Z-27.586
Y12.824Z-26.285
Y11.961Z-25.087
Y11.245Z-23.797
Y10.212Z-21.354
Y-5.138Z15.706
Y-6.794Z19.719
Y-7.294Z21.392
Y-7.557Z23.118
Y-7.594Z24.503
Y-7.478Z25.884
Y-7.211Z27.241
X-8.714Y-7.182Z28.027
X-8.427Y-7.276Z28.809
X-8.141Y-7.491Z29.566
X-7.854Y-7.822Z30.28
X-7.568Y-8.26Z30.933
Y-39.293Z43.644
X-8.48
X-9.
Y-37.913Z41.926
Y-31.012Z33.335
Y-30.511Z32.798
Y-29.938Z32.34
Y-29.304Z31.971
Y-28.622Z31.699
Y-27.908Z31.529
Y-27.177Z31.466
Y-25.324Z31.443
Y-21.618Z31.472
G02X-9.Y-9.312I0.J.477
G01Y-8.823Z21.308
Y-8.609Z19.445
Y-8.599Z15.706
Z-9.299
Z-9.867
Y-8.583Z-10.08
Y-8.534Z-10.289
Y-8.454Z-10.488
Y-8.345Z-10.672
Y-8.209Z-10.837
Y-8.049Z-10.98
Y-2.173Z-15.466
Y-2.013Z-15.609
Y-1.877Z-15.774
Y-1.768Z-15.958
Y-1.688Z-16.157
Y-1.639Z-16.365
Y-1.622Z-16.579
Z-19.928
Y-.544Z-19.49
Y.879Z-19.233
Y1.809Z-19.26
Y.521Z-16.152
Y.447Z-16.
Y.355Z-15.858
Y.246Z-15.728
Y-6.18Z-8.907
Y-6.358Z-8.748
Y-6.56Z-8.622
Y-6.78Z-8.531
Y-7.013Z-8.479
Y-7.251Z-8.468
Y-7.487Z-8.497
Y-7.716Z-8.566
Y-7.929Z-8.672
Y-8.121Z-8.813
Y-8.286Z-8.985
Y-8.42Z-9.182
Y-8.519Z-9.399
Y-8.579Z-9.63
Y-8.599Z-9.867
Z-10.435
Z-26.916
Y-8.716Z-28.766
G02X-9.Y-21.618I0.J-12.504
G01Y-25.325Z-39.63
Y-29.03Z-39.541
G02X-9.Y-40.284I0.J1.186
G01Y-40.401Z-26.916
Z15.706
Y-40.391Z19.445
Y-40.177Z21.308
Y-39.689Z23.118
Y-39.125Z24.465
Y-38.365Z25.804
Y-37.473Z27.009
Y-36.442Z28.098
Y-35.586Z28.832
Y-34.667Z29.485
Y-33.693Z30.053
Y-32.671Z30.53
Y-30.884Z31.116
Y-29.03Z31.428
Y-27.177Z31.466
X-8.714Y-26.403Z31.606
X-8.427Y-25.659Z31.864
X-8.141Y-24.966Z32.236
X-7.854Y-24.339Z32.712
X-7.568Y-23.794Z33.28
G00X5.
Y38.249Z44.214
X-7.98
G01X-8.98F3200.
X-9.5
Y38.942Z43.494
Y39.146Z43.254
Y39.319Z42.989
Y40.207Z41.415
Y40.734Z40.334
Y44.218Z31.943
Y45.089Z29.845
Y45.96Z27.747
X-8.98
Y23.995Z45.354
X-9.5
Y24.909Z44.596
Y25.084Z44.458
G02X-9.5Y32.093I0.J-13.97
G01Y33.017Z32.932
Y45.959Z1.689
X-8.98
Y46.801Z-29.336
X-9.5
Y46.005Z-30.339
Y45.957Z-30.398
G02X-9.5Y34.339I0.J-20.526
G01Y34.06Z-38.065
G02X-9.5Y18.84I0.J-11.784
X-9.5Y1.443I0.J3.722
X-9.5Y-6.818I0.J-22.668
G00X5.Z-44.459
Y-46.705Z31.1
X-7.98
G01X-8.98F3200.
X-9.5
Y-46.4Z31.717
Y-46.182Z32.111
Y-45.93Z32.484
G02X-9.5Y-35.444I0.J18.455
G01Y-34.33Z40.576
G02X-9.5Y-27.15I0.J6.84
G01Y-20.202Z41.5
Y-18.982Z41.422
Y-17.603Z41.248
Y-16.515Z41.05
Y-15.164Z40.726
Y-14.104Z40.408
Y-12.796Z39.936
Y-11.787Z39.509
Y-11.642Z39.439
Y-10.341Z40.75
Y-9.026Z41.862
Y-7.194Z43.16
Y-6.051Z43.86
Y-5.055Z44.381
Y-4.887Z44.459
G00X5.
Y9.17Z-44.731
X-7.98
G01X-8.98F3200.
X-9.5
Y8.268Z-42.571
Y3.754Z-31.773
Y2.852Z-29.613
Y1.046Z-25.294
G03X-9.5Y-8.436I0.J-4.612
G01Y-8.557Z-26.915
Y-8.586Z-27.378
G02X-9.5Y-14.206I0.J-12.445
G01Y-15.759Z-38.424
Y-17.42Z-39.066
Y-18.449Z-39.334
Y-19.496Z-39.515
Y-21.618Z-39.625
Y-25.325Z-39.653
Y-29.03Z-39.567
G02X-9.5Y-40.329I0.J1.144
G01Y-40.443Z-26.915
Y-40.442Z15.706
Y-40.434Z19.444
Y-40.228Z21.307
Y-39.745Z23.118
G02X-9.5Y-29.03I0.J11.887
G01Y-27.177Z31.518
Y-25.324Z31.495
Y-21.618Z31.522
G02X-9.5Y-9.255I0.J.486
G01Y-8.772Z21.307
Y-8.566Z19.444
Y-8.557Z15.706
Z-26.915
X-9.214Y-8.434Z-27.693
X-8.927Y-8.191Z-28.441
X-8.641Y-7.834Z-29.142
X-8.354Y-7.371Z-29.779
X-8.068Y-6.815Z-30.336
G00X5.
Y43.95Z-39.599
X-7.98
G01X-8.98F3200.
X-9.5
Y42.999Z-37.7
Y39.192Z-30.101
Y38.755Z-29.385
Y38.203Z-28.752
Y37.553Z-28.22
Y36.824Z-27.804
Y36.035Z-27.516
Y35.209Z-27.365
Y34.37Z-27.353
Y33.54Z-27.483
Y32.744Z-27.749
Y30.382Z-28.766
Y26.664Z-30.237
G02X-9.5Y15.442I0.J-4.14
G01Y14.037Z-27.641
Y12.806Z-26.336
Y11.933Z-25.127
Y11.209Z-23.822
Y10.167Z-21.354
Y9.086Z-18.744
Y8.87Z-18.222
Y8.757Z-18.006
Y8.609Z-17.812
Y8.428Z-17.647
Y8.222Z-17.516
Y7.997Z-17.423
Y.575Z-15.089
Y.35Z-14.996
Y.144Z-14.865
Y-.036Z-14.7
Y-.185Z-14.506
Y-.298Z-14.29
Y-1.581Z-11.194
Y-1.58Z-18.074
Y-1.561Z-18.304
Y-1.505Z-18.527
Y-1.412Z-18.738
Y-1.287Z-18.931
Y-1.131Z-19.101
Y-.95Z-19.243
Y-.748Z-19.354
Y-.53Z-19.429
Y-.303Z-19.468
Y7.454Z-20.153
Y7.693
Y7.928Z-20.113
Y8.154Z-20.034
Y8.362Z-19.917
Y8.548Z-19.766
Y8.705Z-19.586
Y8.83Z-19.382
Y8.918Z-19.16
Y8.967Z-18.926
Y8.975Z-18.687
Y8.942Z-18.45
Y8.87Z-18.222
Y8.654Z-17.7
Y-6.794Z19.601
Y-7.329Z21.33
Y-7.61Z23.118
G02X-9.5Y.618I0.J12.546
G01Y5.442Z37.942
Y6.714Z38.482
G02X-9.5Y20.374I0.J4.432
G01Y21.13Z34.392
Y21.798Z33.428
Y22.374Z32.406
Y22.854Z31.336
Y40.048Z-10.173
Y40.761Z-12.017
G02X-9.5Y34.118I0.J-12.04
G01Y32.744Z-27.749
X-9.214Y32.079Z-28.169
X-8.927Y31.487Z-28.689
X-8.641Y30.985Z-29.294
X-8.354Y30.583Z-29.971
X-8.068Y30.292Z-30.703
G00X5.
Y38.249Z44.214
X-8.48
G01X-9.48F3200.
X-10.
Y38.98Z43.49
Y39.206Z43.233
Y39.396Z42.947
Y40.189Z41.547
Y40.726Z40.449
Y44.215Z32.048
Y45.087Z29.948
Y45.96Z27.847
X-9.48
Y23.995Z45.354
X-10.
Y25.152Z44.466
Y25.162Z44.458
G02X-10.Y33.017I0.J-15.51
G01Y33.942Z30.809
Y45.959Z1.798
X-9.48
Y46.801Z-29.336
X-10.
Y46.105Z-30.232
Y45.957Z-30.414
G02X-10.Y34.4I0.J-20.187
G01Y34.124Z-38.064
G02X-10.Y20.408I0.J-12.145
X-10.Y1.484I0.J2.105
X-10.Y-6.689I0.J-22.869
G00X5.Z-44.459
Y-46.705Z31.67
X-8.48
G01X-9.48F3200.
X-10.
Y-46.205Z32.228
Y-45.924Z32.572
G02X-10.Y-35.558I0.J18.39
G01Y-34.415Z40.587
G02X-10.Y-27.275I0.J6.794
G01Y-20.187Z41.526
Y-18.957Z41.448
Y-17.553Z41.272
Y-16.444Z41.069
Y-15.068Z40.735
Y-13.989Z40.409
Y-12.659Z39.923
Y-11.663Z39.477
Y-10.285Z40.85
Y-8.956Z41.962
Y-7.131Z43.238
Y-5.924Z43.961
Y-4.955Z44.459
X-9.48
Y-11.663Z39.477
X-10.
Y-10.933Z37.457
Y-10.203Z35.438
Y-9.473Z33.418
Y-8.743Z31.399
Y-8.013Z29.379
Y-7.283Z27.36
Y-7.266Z27.442
G02X-10.Y-.413I0.J12.274
G01Y5.405Z37.942
Y6.693Z38.502
G02X-10.Y20.433I0.J4.481
G01Y21.168Z34.419
Y21.819Z33.48
Y22.383Z32.486
Y22.854Z31.445
Y40.093Z-10.173
Y40.807Z-12.017
G02X-10.Y34.138I0.J-12.039
G01Y30.442Z-28.766
Y26.663Z-30.263
G02X-10.Y15.373I0.J-4.17
G01Y13.981Z-27.653
Y12.761Z-26.354
Y11.889Z-25.142
Y11.168Z-23.834
Y10.122Z-21.354
Y-6.794Z19.487
Y-7.361Z21.27
Y-7.657Z23.118
Y-7.695Z24.579
Y-7.562Z26.034
Y-7.283Z27.36
X-9.714Y-7.244Z28.146
X-9.427Y-7.328Z28.928
X-9.141Y-7.534Z29.688
X-8.854Y-7.856Z30.406
X-8.568Y-8.286Z31.065
Y-39.293Z43.644
X-9.48
X-10.
Y-37.914Z41.936
Y-31.017Z33.395
Y-30.516Z32.859
Y-29.941Z32.403
Y-29.306Z32.035
Y-28.623Z31.765
Y-27.909Z31.597
Y-27.177Z31.536
Y-25.324Z31.518
Y-21.618Z31.544
G02X-10.Y-9.205I0.J.531
G01Y-8.726Z21.306
Y-8.523Z19.443
Y-8.516Z15.706
Z-9.867
Z-10.435
Y-8.499Z-10.652
Y-8.449Z-10.864
Y-8.366Z-11.065
Y-8.253Z-11.251
Y-8.113Z-11.418
Y-7.949Z-11.561
Y-2.106Z-15.883
Y-1.941Z-16.026
Y-1.801Z-16.192
Y-1.688Z-16.379
Y-1.606Z-16.58
Y-1.555Z-16.792
Y-1.538Z-17.009
Z-20.344
Y-.519Z-19.921
Y.887Z-19.653
Y1.886Z-19.67
Y.606Z-16.582
Y.529Z-16.425
Y.434Z-16.28
Y.321Z-16.147
Y-6.107Z-9.465
Y-6.285Z-9.308
Y-6.487Z-9.184
Y-6.708Z-9.096
Y-6.94Z-9.046
Y-7.177Z-9.036
Y-7.412Z-9.067
Y-7.639Z-9.137
Y-7.851Z-9.244
Y-8.041Z-9.385
Y-8.206Z-9.556
Y-8.338Z-9.753
Y-8.436Z-9.969
Y-8.496Z-10.199
Y-8.516Z-10.435
Z-11.003
Z-26.915
Y-8.627Z-28.766
G02X-10.Y-19.487I0.J-12.491
G01Y-21.618Z-39.647
Y-25.325Z-39.676
Y-29.03Z-39.592
G02X-10.Y-40.373I0.J1.102
G01Y-40.484Z-26.915
Z15.706
Y-40.477Z19.443
Y-40.274Z21.306
Y-39.795Z23.118
G02X-10.Y-29.03I0.J11.897
G01Y-27.177Z31.536
X-9.714Y-26.402Z31.671
X-9.427Y-25.657Z31.926
X-9.141Y-24.962Z32.294
X-8.854Y-24.332Z32.767
X-8.568Y-23.784Z33.332
G00X5.
Y38.249Z44.214
X-8.98
G01X-9.98F3200.
X-10.5
Y38.965Z43.499
Y39.189Z43.242
Y39.377Z42.957
Y40.464Z41.027
Y40.989Z39.951
Y44.303Z31.966
Y45.131Z29.97
Y45.96Z27.974
X-9.98
Y23.995Z45.354
X-10.5
Y25.097Z44.565
Y25.239Z44.458
G02X-10.5Y33.017I0.J-15.884
G01Y33.942Z30.918
Y45.959Z1.907
X-9.98
Y46.801Z-29.336
X-10.5
Y46.217Z-30.141
Y45.957Z-30.47
G02X-10.5Y34.46I0.J-20.121
G01Y34.187Z-38.062
G02X-10.5Y20.434I0.J-12.278
X-10.5Y1.526I0.J2.091
X-10.5Y-6.622I0.J-22.8
G00X5.Z-44.459
Y-46.705Z31.67
X-8.98
G01X-9.98F3200.
X-10.5
Y-46.011Z32.538
Y-45.918Z32.659
G02X-10.5Y-36.631I0.J18.451
G01Y-35.671Z40.224
G02X-10.5Y-29.048I0.J8.609
G01Y-20.185Z41.551
Y-18.934Z41.474
Y-17.503Z41.295
Y-16.374Z41.087
Y-14.973Z40.745
Y-13.875Z40.409
Y-12.523Z39.909
Y-11.67Z39.525
Y-10.341Z40.85
Y-9.333Z41.729
Y-8.356Z42.472
Y-7.617Z42.983
Y-6.746Z43.53
Y-5.927Z43.992
Y-5.018Z44.459
G00X5.
Y1.517Z-27.205
X-8.98
G01X-9.98F3200.
X-10.5
Y-.981Z-27.133
Y-3.478Z-27.06
Y-5.976Z-26.988
Y-8.474Z-26.915
Y-8.501Z-27.378
G02X-10.5Y-14.206I0.J-12.451
G01Y-15.743Z-38.499
Y-17.383Z-39.123
Y-18.421Z-39.39
Y-19.479Z-39.567
Y-21.618Z-39.67
Y-25.324Z-39.699
Y-29.03Z-39.618
G02X-10.5Y-40.418I0.J1.06
G01Y-40.526Z-26.915
Z15.706
Y-40.52Z19.443
Y-40.32Z21.306
Y-39.846Z23.118
G02X-10.5Y-29.03I0.J11.908
G01Y-27.177Z31.56
Y-25.324Z31.541
Y-21.618Z31.567
G02X-10.5Y-9.154I0.J.57
G01Y-8.68Z21.306
Y-8.48Z19.443
Y-8.474Z15.706
Z-26.915
X-10.214Y-8.351Z-27.693
X-9.927Y-8.108Z-28.441
X-9.641Y-7.751Z-29.142
X-9.354Y-7.288Z-29.779
X-9.068Y-6.731Z-30.335
G00X5.
Y43.38Z-40.169
X-8.98
G01X-9.98F3200.
X-10.5
Y42.274Z-38.225
Y37.85Z-30.445
Y37.393Z-29.775
Y36.835Z-29.188
Y36.188Z-28.699
Y35.471Z-28.321
Y34.703Z-28.063
Y33.903Z-27.933
Y33.092Z-27.934
Y32.292Z-28.066
Y31.524Z-28.325
Y30.501Z-28.766
Y30.266Z-28.863
Y26.662Z-30.288
G02X-10.5Y15.291I0.J-4.199
G01Y13.916Z-27.657
Y12.71Z-26.366
Y11.842Z-25.152
Y11.125Z-23.843
Y10.077Z-21.354
Y8.996Z-18.743
Y8.779Z-18.221
Y8.681Z-18.028
Y8.554Z-17.852
Y8.402Z-17.698
Y8.227Z-17.569
Y8.035Z-17.469
Y7.829Z-17.4
Y.768Z-15.615
Y.562Z-15.545
Y.37Z-15.445
Y.196Z-15.317
Y.043Z-15.163
Y-.084Z-14.987
Y-.182Z-14.794
Y-1.497Z-11.622
Y-1.496Z-18.626
Y-1.475Z-18.867
Y-1.413Z-19.1
Y-1.312Z-19.319
Y-1.175Z-19.518
Y-1.006Z-19.69
Y-.81Z-19.83
Y-.593Z-19.935
Y-.36Z-20.001
Y-.12Z-20.026
Y7.462Z-20.157
Y7.692Z-20.142
Y7.917Z-20.089
Y8.13Z-20.
Y8.325Z-19.877
Y8.498Z-19.724
Y8.643Z-19.545
Y8.757Z-19.344
Y8.836Z-19.127
Y8.879Z-18.9
Y8.883Z-18.669
Y8.85Z-18.441
Y8.779Z-18.221
Y8.563Z-17.699
Y-6.794Z19.376
Y-7.394Z21.212
Y-7.705Z23.118
G02X-10.5Y-.427I0.J12.567
G01Y5.348Z37.942
Y6.664Z38.519
G02X-10.5Y20.493I0.J4.54
G01Y21.206Z34.446
Y21.84Z33.532
Y22.391Z32.566
Y22.854Z31.554
Y40.138Z-10.174
Y40.853Z-12.017
G02X-10.5Y34.158I0.J-12.037
G01Y31.524Z-28.325
X-10.214Y30.859Z-28.746
X-9.927Y30.268Z-29.266
X-9.641Y29.766Z-29.871
X-9.354Y29.364Z-30.548
X-9.068Y29.073Z-31.28
G00X5.
Y38.819Z44.214
X-9.48
G01X-10.48F3200.
X-11.
Y39.485Z43.012
Y39.581Z42.846
Y39.625Z42.773
Y40.619Z40.851
Y40.972Z40.091
Y44.297Z32.082
Y45.128Z30.079
Y45.96Z28.077
X-10.48
Y24.565Z45.354
X-11.
Y24.782Z45.032
Y25.027Z44.724
Y25.317Z44.458
G02X-11.Y33.017I0.J-15.869
G01Y33.942Z31.027
Y45.959Z2.016
X-10.48
Y46.801Z-29.336
X-11.
Y46.337Z-30.03
Y45.957Z-30.527
G02X-11.Y34.519I0.J-20.055
G01Y34.25Z-38.061
G02X-11.Y20.46I0.J-12.412
X-11.Y1.565I0.J1.987
X-11.Y-6.557I0.J-22.808
G00X5.Z-44.459
Y-46.705Z31.67
X-9.48
G01X-10.48F3200.
X-11.
Y-45.942Z32.705
Y-45.912Z32.746
G02X-11.Y-35.783I0.J18.262
G01Y-34.582Z40.609
Y-32.537Z41.128
Y-31.299Z41.361
Y-30.235Z41.49
Y-29.045Z41.564
Y-20.158Z41.577
Y-18.91Z41.5
Y-17.453Z41.318
Y-16.305Z41.106
Y-14.879Z40.755
Y-13.763Z40.41
Y-12.307Z39.859
Y-11.692Z39.58
Y-10.56Z40.7
Y-8.941Z42.064
Y-7.926Z42.815
Y-7.042Z43.387
Y-6.257Z43.845
Y-5.166Z44.417
Y-5.076Z44.459
X-10.48
Y-11.692Z39.58
X-11.
Y-10.979Z37.51
Y-10.267Z35.44
Y-9.554Z33.369
Y-8.842Z31.299
Y-8.13Z29.229
Y-7.417Z27.159
Y-7.306Z27.656
G02X-11.Y-.523I0.J12.167
G01Y5.291Z37.942
Y6.635Z38.535
G02X-11.Y20.551I0.J4.598
G01Y21.243Z34.474
Y21.86Z33.585
Y22.399Z32.645
Y22.854Z31.663
Y40.184Z-10.174
Y40.898Z-12.017
G02X-11.Y34.177I0.J-12.036
G01Y30.56Z-28.766
Y30.266Z-28.888
Y26.662Z-30.314
G02X-11.Y15.209I0.J-4.229
G01Y13.851Z-27.661
Y12.66Z-26.377
Y11.796Z-25.162
Y11.082Z-23.852
Y10.032Z-21.354
Y-6.794Z19.267
Y-7.147Z20.199
Y-7.426Z21.155
Y-7.628Z22.13
Y-7.752Z23.118
Y-7.789Z24.645
Y-7.639Z26.165
Y-7.417Z27.159
X-10.714Y-7.368Z27.944
X-10.427Y-7.442Z28.728
X-10.141Y-7.637Z29.49
X-9.854Y-7.95Z30.213
X-9.568Y-8.372Z30.877
Y-39.293Z43.644
X-10.48
X-11.
Y-37.912Z41.942
Y-31.007Z33.432
Y-30.506Z32.9
Y-29.932Z32.446
Y-29.299Z32.08
Y-28.618Z31.811
Y-27.906Z31.644
Y-27.177Z31.583
Y-25.324Z31.564
Y-21.618Z31.591
G02X-11.Y-9.104I0.J.588
G01Y-8.633Z21.305
Y-8.438Z19.442
Y-8.432Z15.706
Z-9.867
Z-10.435
Y-8.417Z-10.642
Y-8.371Z-10.845
Y-8.296Z-11.039
Y-8.192Z-11.219
Y-8.064Z-11.382
Y-7.912Z-11.524
Y-1.975Z-16.319
Y-1.824Z-16.461
Y-1.695Z-16.624
Y-1.591Z-16.804
Y-1.516Z-16.998
Y-1.47Z-17.201
Y-1.455Z-17.408
Y-1.454Z-20.757
Y-.535Z-20.361
Y.846Z-20.075
Y1.965Z-20.073
Y.686Z-16.982
Y.575Z-16.769
Y.429Z-16.577
Y-5.996Z-9.494
Y-6.172Z-9.331
Y-6.373Z-9.2
Y-6.594Z-9.105
Y-6.827Z-9.05
Y-7.067Z-9.035
Y-7.306Z-9.062
Y-7.537Z-9.129
Y-7.752Z-9.234
Y-7.947Z-9.375
Y-8.115Z-9.547
Y-8.251Z-9.745
Y-8.351Z-9.963
Y-8.412Z-10.196
Y-8.432Z-10.435
Z-11.003
Z-26.915
Y-8.537Z-28.766
G02X-11.Y-19.47I0.J-12.493
G01Y-21.618Z-39.692
Y-25.324Z-39.722
Y-29.03Z-39.643
G02X-11.Y-40.463I0.J1.018
G01Y-40.568Z-26.915
Z15.706
Y-40.562Z19.442
Y-40.367Z21.305
Y-39.896Z23.118
G02X-11.Y-29.03I0.J11.918
G01Y-27.177Z31.583
X-10.714Y-26.401Z31.714
X-10.427Y-25.655Z31.965
X-10.141Y-24.958Z32.329
X-9.854Y-24.326Z32.798
X-9.568Y-23.775Z33.361
G00X5.
Y38.249Z44.214
X-9.98
G01X-10.98F3200.
X-11.5
Y39.02Z43.584
Y39.266Z43.354
Y39.479Z43.093
Y39.655Z42.805
Y40.58Z41.034
Y40.953Z40.238
Y44.291Z32.198
Y45.125Z30.189
Y45.96Z28.179
X-10.98
Y24.565Z45.354
X-11.5
Y25.044Z44.795
Y25.212Z44.618
Y25.396Z44.458
G02X-11.5Y33.017I0.J-15.838
G01Y33.942Z31.135
Y45.959Z2.124
X-10.98
Y46.801Z-29.336
X-11.5
Y46.469Z-29.883
Y45.957Z-30.583
G02X-11.5Y34.577I0.J-19.988
G01Y34.313Z-38.059
G02X-11.5Y20.486I0.J-12.547
X-11.5Y1.601I0.J1.931
X-11.5Y-6.491I0.J-22.744
G00X5.Z-44.459
Y-46.705Z31.67
X-9.98
G01X-10.98F3200.
X-11.5
Y-46.049Z32.633
Y-45.905Z32.833
G02X-11.5Y-35.894I0.J18.199
G01Y-34.665Z40.621
Y-32.57Z41.154
Y-31.302Z41.391
Y-30.212Z41.521
Y-29.042Z41.592
Y-20.131Z41.603
Y-18.887Z41.526
Y-17.405Z41.342
Y-16.236Z41.125
Y-14.786Z40.765
Y-13.651Z40.411
Y-12.254Z39.882
Y-11.688Z39.628
Y-10.61Z40.705
Y-8.975Z42.082
Y-7.947Z42.841
Y-7.045Z43.421
Y-6.249Z43.883
Y-5.141Z44.459
G00X5.
Y1.601Z-27.214
X-9.98
G01X-10.98F3200.
X-11.5
Y-.897Z-27.139
Y-3.395Z-27.064
Y-5.893Z-26.99
Y-8.391Z-26.915
Y-8.416Z-27.378
G02X-11.5Y-19.461I0.J-12.541
G01Y-21.618Z-39.714
Y-25.324Z-39.745
Y-29.03Z-39.668
G02X-11.5Y-40.507I0.J.976
G01Y-40.609Z-26.915
Z15.706
Y-40.604Z19.441
Y-40.413Z21.304
Y-39.946Z23.118
G02X-11.5Y-29.03I0.J11.947
G01Y-21.618Z31.614
G02X-11.5Y-9.054I0.J.63
G01Y-8.587Z21.304
Y-8.396Z19.441
Y-8.391Z15.706
Z-26.915
X-11.214Y-8.268Z-27.692
X-10.927Y-8.025Z-28.441
X-10.641Y-7.667Z-29.142
X-10.354Y-7.205Z-29.779
X-10.068Y-6.648Z-30.335
G00X5.
Y44.52Z-39.029
X-9.98
G01X-10.98F3200.
X-11.5
Y43.513Z-37.197
Y39.485Z-29.869
Y39.033Z-29.187
Y38.476Z-28.587
Y37.829Z-28.086
Y37.108Z-27.697
Y36.334Z-27.432
Y35.527Z-27.296
Y34.708Z-27.293
Y33.9Z-27.425
Y33.124Z-27.686
Y30.618Z-28.766
Y30.266Z-28.912
Y26.661Z-30.34
G02X-11.5Y15.128I0.J-4.258
G01Y13.787Z-27.665
Y12.61Z-26.389
Y11.749Z-25.172
Y11.039Z-23.861
Y9.987Z-21.354
Y9.115Z-19.25
Y8.897Z-18.724
Y8.802Z-18.535
Y8.679Z-18.363
Y8.532Z-18.211
Y8.363Z-18.083
Y8.177Z-17.982
Y7.978Z-17.91
Y.76Z-15.909
Y.561Z-15.837
Y.375Z-15.736
Y.206Z-15.608
Y.059Z-15.456
Y-.064Z-15.284
Y-.16Z-15.095
Y-1.413Z-12.068
Z-18.858
Y-1.393Z-19.093
Y-1.334Z-19.321
Y-1.237Z-19.536
Y-1.106Z-19.732
Y-.943Z-19.903
Y-.755Z-20.045
Y-.545Z-20.153
Y-.32Z-20.224
Y-.086Z-20.256
Y7.53Z-20.657
Y7.765Z-20.65
Y7.995Z-20.603
Y8.215Z-20.519
Y8.417Z-20.399
Y8.596Z-20.247
Y8.747Z-20.068
Y8.866Z-19.865
Y8.95Z-19.645
Y8.995Z-19.415
Y9.002Z-19.18
Y8.969Z-18.947
Y8.897Z-18.724
Y8.679Z-18.197
Y-6.794Z19.159
G02X-11.5Y.618I0.J11.532
G01Y5.234Z37.942
Y6.607Z38.551
G02X-11.5Y20.59I0.J4.656
G01Y21.267Z34.519
Y21.873Z33.649
Y22.403Z32.731
Y22.854Z31.772
Y40.229Z-10.174
Y40.944Z-12.017
G02X-11.5Y34.197I0.J-12.034
G01Y33.124Z-27.686
X-11.214Y32.459Z-28.107
X-10.927Y31.868Z-28.626
X-10.641Y31.366Z-29.232
X-10.354Y30.964Z-29.909
X-10.068Y30.673Z-30.64
G00X5.
Y39.389Z43.644
X-10.48
G01X-11.48F3200.
X-12.
Y39.567Z43.125
Y39.721Z42.769
Y40.539Z41.219
Y40.932Z40.385
Y45.96Z28.279
X-11.48
Y24.565Z45.354
X-12.
Y24.911Z44.98
Y25.475Z44.458
G02X-12.Y33.017I0.J-15.826
G01Y33.942Z31.243
Y45.959Z2.233
X-11.48
Y46.801Z-29.336
X-12.
Y46.636Z-29.652
Y46.326Z-30.165
Y45.957Z-30.638
G02X-12.Y34.213I0.J-20.803
G01Y33.948Z-38.235
G02X-12.Y17.24I0.J-11.68
X-12.Y1.636I0.J5.256
X-12.Y-6.425I0.J-22.714
G00X5.Z-44.459
Y-46.705Z31.67
X-10.48
G01X-11.48F3200.
X-12.
Y-46.156Z32.548
Y-45.899Z32.919
G02X-12.Y-36.004I0.J18.136
G01Y-34.747Z40.632
Y-32.603Z41.18
Y-31.304Z41.421
Y-30.189Z41.552
Y-29.04Z41.62
Y-20.104Z41.629
Y-18.864Z41.553
Y-17.356Z41.365
Y-16.168Z41.144
Y-14.694Z40.775
Y-13.541Z40.412
Y-12.122Z39.868
Y-11.697Z39.674
Y-10.661Z40.709
Y-9.01Z42.098
Y-7.968Z42.866
Y-7.049Z43.455
Y-6.242Z43.921
Y-5.199Z44.459
X-11.48
Y-11.697Z39.674
X-12.
Y-11.012Z37.536
Y-10.327Z35.399
Y-9.641Z33.261
Y-8.956Z31.124
Y-8.271Z28.987
Y-7.585Z26.849
Y-7.474Z27.323
G02X-12.Y.618I0.J12.144
G01Y5.178Z37.942
Y6.578Z38.567
G02X-12.Y20.621I0.J4.714
G01Y21.287Z34.571
Y21.883Z33.718
Y22.407Z32.819
Y22.854Z31.879
Y40.274Z-10.174
Y40.989Z-12.017
G02X-12.Y34.217I0.J-12.033
G01Y30.676Z-28.766
Y30.266Z-28.937
Y26.66Z-30.365
G02X-12.Y10.996I0.J-4.271
G01Y9.942Z-21.354
Y-6.794Z19.05
Y-7.181Z20.031
Y-7.489Z21.04
Y-7.712Z22.072
Y-7.847Z23.118
Y-7.883Z24.708
Y-7.717Z26.291
Y-7.585Z26.849
X-11.714Y-7.527Z27.634
X-11.427Y-7.592Z28.418
X-11.141Y-7.779Z29.183
X-10.854Y-8.083Z29.909
X-10.568Y-8.497Z30.578
Y-39.863Z43.074
X-11.48
X-12.
Y-38.497Z41.46
Y-31.668Z33.393
Y-31.05Z32.78
Y-30.336Z32.284
Y-29.547Z31.919
Y-28.706Z31.697
Y-27.84Z31.623
Y-21.618Z31.638
G02X-12.Y-9.004I0.J.659
G01Y-8.541Z21.304
Y-8.353Z19.441
Y-8.349Z15.706
Z-10.435
Z-11.003
Y-8.333Z-11.214
Y-8.286Z-11.419
Y-8.208Z-11.615
Y-8.102Z-11.798
Y-7.969Z-11.962
Y-7.814Z-12.104
Y-1.906Z-16.742
Y-1.751Z-16.885
Y-1.618Z-17.049
Y-1.512Z-17.231
Y-1.434Z-17.427
Y-1.387Z-17.633
Y-1.371Z-17.843
Z-21.189
Y-.566Z-20.829
Y.788Z-20.524
Y2.045Z-20.496
Y.771Z-17.417
Y.699Z-17.269
Y.61Z-17.13
Y.505Z-17.002
Y-5.921Z-10.053
Y-6.098Z-9.892
Y-6.3Z-9.763
Y-6.52Z-9.67
Y-6.754Z-9.617
Y-6.993Z-9.604
Y-7.23Z-9.632
Y-7.46Z-9.699
Y-7.674Z-9.805
Y-7.867Z-9.946
Y-8.034Z-10.118
Y-8.169Z-10.316
Y-8.268Z-10.533
Y-8.329Z-10.765
Y-8.349Z-11.003
Z-11.571
Z-26.915
Y-8.449Z-28.766
G02X-12.Y-19.452I0.J-12.496
G01Y-21.618Z-39.737
Y-25.324Z-39.768
Y-29.03Z-39.693
G02X-12.Y-40.551I0.J.934
G01Y-40.651Z-26.915
Z15.706
Y-40.647Z19.441
Y-40.459Z21.304
Y-39.996Z23.118
G02X-12.Y-29.03I0.J11.951
G01Y-27.84Z31.623
X-11.714Y-27.063Z31.748
X-11.427Y-26.315Z31.993
X-11.141Y-25.614Z32.352
X-10.854Y-24.979Z32.816
X-10.568Y-24.424Z33.374
G00X5.
Y39.389Z43.644
X-10.98
G01X-11.98F3200.
X-12.5
Y39.569Z43.2
Y39.789Z42.732
Y40.499Z41.402
Y40.911Z40.53
Y45.96Z28.379
X-11.98
Y24.565Z45.354
X-12.5
Y25.278Z44.695
Y25.554Z44.458
G02X-12.5Y33.017I0.J-15.797
G01Y33.942Z31.35
Y45.959Z2.341
X-11.98
Y46.801Z-29.336
X-12.5
Y46.286Z-30.286
Y46.135Z-30.53
Y45.957Z-30.754
G02X-12.5Y34.221I0.J-21.189
G01Y33.949Z-38.259
G02X-12.5Y18.795I0.J-11.888
X-12.5Y1.729I0.J3.63
G01Y1.67Z-27.6
G02X-12.5Y-6.359I0.J-22.674
G00X5.Z-44.459
Y-46.705Z31.67
X-10.98
G01X-11.98F3200.
X-12.5
Y-46.262Z32.448
Y-45.893Z33.005
G02X-12.5Y-36.113I0.J18.074
G01Y-35.688Z40.372
G02X-12.5Y-29.038I0.J8.196
G01Y-20.078Z41.655
Y-18.841Z41.579
Y-17.309Z41.389
Y-16.101Z41.163
Y-14.603Z40.786
Y-13.431Z40.413
Y-11.965Z39.843
Y-11.703Z39.722
Y-10.711Z40.714
Y-9.044Z42.115
Y-7.989Z42.891
Y-7.052Z43.489
Y-6.235Z43.958
Y-5.257Z44.459
G00X5.
Y1.67Z-27.6
X-10.98
G01X-11.98F3200.
X-12.5
Y-.325Z-27.463
Y-2.321Z-27.326
Y-4.316Z-27.189
Y-6.312Z-27.052
Y-8.307Z-26.915
Y-8.332Z-27.378
G02X-12.5Y-19.443I0.J-12.542
G01Y-21.618Z-39.759
Y-25.324Z-39.791
Y-29.03Z-39.718
G02X-12.5Y-40.596I0.J.893
G01Y-40.693Z-26.915
Z15.706
Y-40.689Z19.44
Y-40.505Z21.303
Y-40.046Z23.118
G02X-12.5Y-29.03I0.J11.954
G01Y-21.618Z31.661
G02X-12.5Y-10.5I0.J.7
G01Y-9.619Z24.726
Y-8.954Z23.118
Y-8.495Z21.303
Y-8.311Z19.44
Y-8.307Z15.706
Z-26.915
X-12.214Y-8.184Z-27.692
X-11.927Y-7.941Z-28.441
X-11.641Y-7.584Z-29.142
X-11.354Y-7.121Z-29.779
X-11.068Y-6.565Z-30.335
G00X5.
Y45.09Z-37.889
X-10.98
G01X-11.98F3200.
X-12.5
Y44.024Z-35.794
Y40.825Z-29.51
Y40.384Z-28.799
Y39.831Z-28.171
Y39.181Z-27.644
Y38.453Z-27.233
Y37.665Z-26.949
Y36.842Z-26.801
Y36.005Z-26.791
Y35.179Z-26.922
Y34.386Z-27.188
Y30.734Z-28.766
Y30.266Z-28.962
Y26.659Z-30.39
G02X-12.5Y10.953I0.J-4.301
G01Y9.897Z-21.354
Y9.247Z-19.784
Y9.03Z-19.261
Y8.936Z-19.076
Y8.817Z-18.906
Y8.673Z-18.757
Y8.509Z-18.63
Y8.328Z-18.528
Y8.135Z-18.455
Y.802Z-16.279
Y.608Z-16.205
Y.427Z-16.104
Y.263Z-15.977
Y.119Z-15.827
Y0.Z-15.658
Y-.094Z-15.472
Y-1.33Z-12.488
Y-1.329Z-19.223
Y-1.31Z-19.455
Y-1.252Z-19.68
Y-1.158Z-19.893
Y-1.031Z-20.087
Y-.873Z-20.257
Y-.688Z-20.399
Y-.483Z-20.509
Y-.263Z-20.583
Y-.033Z-20.619
Y7.632Z-21.193
Y7.869Z-21.19
Y8.103Z-21.148
Y8.326Z-21.066
Y8.532Z-20.949
Y8.715Z-20.797
Y8.871Z-20.617
Y8.993Z-20.414
Y9.079Z-20.193
Y9.127Z-19.96
Y9.134Z-19.723
Y9.102Z-19.487
Y9.03Z-19.261
Y8.813Z-18.738
Y-6.794Z18.941
G02X-12.5Y.618I0.J11.457
G01Y5.123Z37.942
Y6.55Z38.582
G02X-12.5Y21.306I0.J4.77
G01Y21.893Z33.786
Y22.41Z32.906
Y22.854Z31.986
Y23.459Z30.53
Y40.319Z-10.174
Y41.035Z-12.017
G02X-12.5Y36.039I0.J-12.048
G01Y34.386Z-27.188
X-12.214Y33.769Z-27.677
X-11.927Y33.236Z-28.256
X-11.641Y32.8Z-28.911
X-11.354Y32.472Z-29.626
X-11.068Y32.259Z-30.384
G00X5.
Y39.389Z43.644
X-11.48
G01X-12.48F3200.
X-13.
Y39.773Z42.841
Y39.842Z42.703
Y40.975Z40.513
Y41.331Z39.746
Y45.96Z28.574
X-12.48
Y24.565Z45.354
X-13.
Y25.545Z44.531
Y25.633Z44.458
G02X-13.Y33.017I0.J-15.758
G01Y33.942Z31.456
Y45.959Z2.449
X-12.48
Y46.801Z-29.907
X-13.
Y46.03Z-30.731
Y45.957Z-30.811
G02X-13.Y34.22I0.J-21.245
G01Y33.949Z-38.284
G02X-13.Y18.822I0.J-11.933
X-13.Y1.703I0.J3.581
X-13.Y-6.294I0.J-22.634
G00X5.Z-44.459
Y-46.705Z31.67
X-11.48
G01X-12.48F3200.
X-13.
Y-46.368Z32.329
Y-46.145Z32.72
Y-45.887Z33.09
G02X-13.Y-35.787I0.J17.916
G01Y-35.352Z40.531
G02X-13.Y-29.036I0.J8.033
G01Y-20.051Z41.681
Y-18.74Z41.596
Y-17.262Z41.412
Y-16.034Z41.182
Y-14.512Z40.796
Y-13.322Z40.414
Y-11.861Z39.841
Y-11.709Z39.771
Y-10.761Z40.719
Y-9.079Z42.132
Y-8.01Z42.915
Y-7.056Z43.522
Y-6.228Z43.995
Y-5.316Z44.459
X-12.48
Y-11.709Z39.771
X-13.
Y-11.045Z37.592
Y-10.38Z35.413
Y-9.716Z33.234
Y-9.052Z31.056
Y-8.388Z28.877
Y-7.724Z26.698
Y-7.662Z26.945
G02X-13.Y.618I0.J12.249
G01Y5.068Z37.942
Y6.523Z38.598
G02X-13.Y21.326I0.J4.827
G01Y21.903Z33.854
Y22.414Z32.992
Y22.854Z32.091
Y40.364Z-10.174
Y41.08Z-12.017
G02X-13.Y36.059I0.J-12.046
G01Y34.409Z-27.204
Y30.792Z-28.766
Y30.266Z-28.987
Y26.658Z-30.416
G02X-13.Y10.911I0.J-4.331
G01Y9.852Z-21.354
Y-6.794Z18.832
Y-7.212Z19.865
Y-7.551Z20.926
Y-7.795Z22.013
Y-7.942Z23.118
Y-7.977Z24.769
Y-7.795Z26.411
Y-7.724Z26.698
X-12.714Y-7.656Z27.482
X-12.427Y-7.713Z28.267
X-12.141Y-7.891Z29.034
X-11.854Y-8.187Z29.763
X-11.568Y-8.594Z30.437
Y-39.863Z43.074
X-12.48
X-13.
Y-38.497Z41.468
Y-31.668Z33.438
Y-31.052Z32.829
Y-30.34Z32.336
Y-29.553Z31.973
Y-28.716Z31.752
Y-27.853Z31.678
Y-21.618Z31.685
G02X-13.Y-10.5I0.J.729
G01Y-9.588Z24.772
Y-8.904Z23.118
Y-8.449Z21.302
Y-8.269Z19.439
Y-8.266Z-11.003
Z-11.571
Y-8.249Z-11.785
Y-8.201Z-11.994
Y-8.12Z-12.193
Y-8.011Z-12.377
Y-7.874Z-12.542
Y-7.714Z-12.685
Y-1.839Z-17.161
Y-1.679Z-17.304
Y-1.542Z-17.469
Y-1.433Z-17.654
Y-1.353Z-17.852
Y-1.304Z-18.061
Y-1.287Z-18.275
Z-21.514
Y-.514Z-21.166
Y.842Z-20.858
Y2.089Z-20.828
Y.855Z-17.849
Y.781Z-17.696
Y.689Z-17.554
Y.58Z-17.424
Y-5.847Z-10.611
Y-6.025Z-10.452
Y-6.227Z-10.325
Y-6.448Z-10.235
Y-6.68Z-10.184
Y-6.918Z-10.172
Y-7.155Z-10.201
Y-7.383Z-10.27
Y-7.596Z-10.377
Y-7.788Z-10.518
Y-7.953Z-10.689
Y-8.087Z-10.886
Y-8.185Z-11.103
Y-8.246Z-11.334
Y-8.266Z-11.571
Z-12.14
Z-26.915
Y-8.36Z-28.766
G02X-13.Y-19.434I0.J-12.498
G01Y-21.618Z-39.781
Y-25.324Z-39.814
Y-29.03Z-39.743
G02X-13.Y-40.64I0.J.851
G01Y-40.734Z-26.915
Y-40.731Z19.439
Y-40.551Z21.302
Y-40.096Z23.118
G02X-13.Y-27.853I0.J11.912
G01X-12.714Y-27.076Z31.802
X-12.427Y-26.328Z32.046
X-12.141Y-25.627Z32.404
X-11.854Y-24.991Z32.867
X-11.568Y-24.435Z33.424
G00X5.
Y39.389Z43.644
X-11.98
G01X-12.98F3200.
X-13.5
Y39.918Z42.694
Y39.943Z42.648
Y40.345Z41.909
Y40.79Z40.977
Y45.96Z28.551
X-12.98
Y24.565Z45.354
X-13.5
Y25.646Z44.51
Y25.711Z44.458
G02X-13.5Y32.688I0.J-14.923
G01Y32.788Z34.357
Y45.959Z2.56
X-12.98
Y46.801Z-29.907
X-13.5
Y46.002Z-30.817
Y45.957Z-30.867
G02X-13.5Y34.219I0.J-21.302
G01Y33.95Z-38.308
G02X-13.5Y18.849I0.J-11.978
X-13.5Y1.737I0.J3.439
X-13.5Y-6.228I0.J-22.591
G00X5.Z-44.459
Y-46.705Z32.241
X-11.98
G01X-12.98F3200.
X-13.5
Y-46.137Z32.869
Y-45.881Z33.175
G02X-13.5Y-35.442I0.J17.856
G01Y-34.311Z40.888
G02X-13.5Y-29.034I0.J8.278
G01Y-20.025Z41.707
Y-18.754Z41.626
Y-17.215Z41.436
Y-15.968Z41.201
Y-14.423Z40.807
Y-13.214Z40.415
Y-11.714Z39.82
Y-10.811Z40.723
Y-9.113Z42.149
Y-8.032Z42.94
Y-7.06Z43.555
Y-6.221Z44.032
Y-5.375Z44.459
G00X5.
Y1.737Z-27.952
X-11.98
G01X-12.98F3200.
X-13.5
Y-.255Z-27.745
Y-2.248Z-27.537
Y-4.24Z-27.33
Y-6.232Z-27.122
Y-8.224Z-26.915
Y-8.247Z-27.378
G02X-13.5Y-19.425I0.J-12.543
G01Y-21.618Z-39.804
Y-25.324Z-39.837
Y-29.03Z-39.767
G02X-13.5Y-40.685I0.J.809
G01Y-40.776Z-26.915
Y-40.773Z19.439
Y-40.597Z21.302
Y-40.146Z23.118
G02X-13.5Y-29.03I0.J11.978
G01Y-20.023Z31.707
Y-18.441Z31.512
Y-16.896Z31.117
Y-15.413Z30.53
Y-14.206Z29.878
Y-13.21Z29.2
Y-12.284Z28.429
Y-11.337Z27.461
Y-10.5Z26.396
Y-9.556Z24.818
Y-8.854Z23.118
Y-8.403Z21.302
Y-8.227Z19.439
Y-8.224Z-26.915
X-13.214Y-8.101Z-27.692
X-12.927Y-7.858Z-28.44
X-12.641Y-7.501Z-29.142
X-12.354Y-7.038Z-29.778
X-12.068Y-6.481Z-30.335
G00X5.
Y45.09Z-37.889
X-11.98
G01X-12.98F3200.
X-13.5
Y44.037Z-35.805
Y40.878Z-29.553
Y40.438Z-28.84
Y39.886Z-28.209
Y39.236Z-27.68
Y38.506Z-27.267
Y37.718Z-26.981
Y36.893Z-26.832
Y36.055Z-26.822
Y35.227Z-26.952
Y34.433Z-27.219
Y30.85Z-28.766
Y30.266Z-29.011
Y26.658Z-30.441
G02X-13.5Y10.868I0.J-4.361
G01Y9.16Z-19.793
Y8.944Z-19.272
Y8.846Z-19.079
Y8.719Z-18.904
Y8.567Z-18.75
Y8.393Z-18.621
Y8.201Z-18.521
Y7.996Z-18.451
Y.919Z-16.651
Y.714Z-16.582
Y.522Z-16.481
Y.348Z-16.353
Y.196Z-16.199
Y.069Z-16.023
Y-.029Z-15.83
Y-1.246Z-12.895
Z-19.539
Y-1.225Z-19.777
Y-1.165Z-20.007
Y-1.066Z-20.224
Y-.932Z-20.422
Y-.767Z-20.593
Y-.574Z-20.734
Y-.361Z-20.841
Y-.132Z-20.909
Y.104Z-20.938
Y7.601Z-21.207
Y7.833Z-21.196
Y8.061Z-21.147
Y8.277Z-21.06
Y8.476Z-20.939
Y8.652Z-20.786
Y8.801Z-20.607
Y8.917Z-20.405
Y8.999Z-20.187
Y9.043Z-19.958
Y9.048Z-19.725
Y9.015Z-19.494
Y8.944Z-19.272
Y8.729Z-18.752
Y-6.794Z18.723
G02X-13.5Y.618I0.J11.4
G01Y5.013Z37.942
Y6.495Z38.613
G02X-13.5Y21.345I0.J4.884
G01Y21.914Z33.922
Y22.418Z33.077
Y22.854Z32.195
Y23.549Z30.53
Y40.409Z-10.174
Y41.126Z-12.017
G02X-13.5Y36.078I0.J-12.045
G01Y34.433Z-27.219
X-13.214Y33.813Z-27.704
X-12.927Y33.277Z-28.281
X-12.641Y32.838Z-28.934
X-12.354Y32.507Z-29.648
X-12.068Y32.291Z-30.404
G00X5.
Y39.389Z43.644
X-12.48
G01X-13.48F3200.
X-14.
Y39.864Z42.828
Y39.973Z42.631
Y40.949Z40.77
Y41.331Z39.955
Y45.96Z28.784
X-13.48
Y24.565Z45.354
X-14.
Y25.566Z44.629
Y25.789Z44.458
G02X-14.Y33.017I0.J-15.678
G01Y33.941Z31.665
Y45.959Z2.665
X-13.48
Y46.801Z-29.907
X-14.
Y46.118Z-30.737
Y45.957Z-30.923
G02X-14.Y34.218I0.J-21.361
G01Y33.95Z-38.333
G02X-14.Y18.875I0.J-12.023
X-14.Y1.771I0.J3.378
X-14.Y-6.163I0.J-22.573
G00X5.Z-44.459
Y-46.705Z32.241
X-12.48
G01X-13.48F3200.
X-14.
Y-45.96Z33.153
Y-45.875Z33.26
G02X-14.Y-36.434I0.J17.881
G01Y-35.53Z40.548
G02X-14.Y-29.032I0.J8.071
G01Y-20.Z41.733
Y-18.768Z41.657
Y-17.169Z41.46
Y-15.902Z41.22
Y-14.334Z40.817
Y-13.108Z40.416
Y-11.726Z39.863
Y-10.837Z40.75
Y-9.123Z42.185
Y-8.03Z42.98
Y-7.047Z43.599
Y-6.2Z44.076
Y-5.434Z44.459
X-13.48
Y-11.726Z39.863
X-14.
Y-11.083Z37.64
Y-10.441Z35.418
Y-9.799Z33.195
Y-9.157Z30.972
Y-8.514Z28.749
Y-7.872Z26.527
Y-7.729Z27.079
G02X-14.Y.618I0.J12.235
G01Y4.958Z37.942
Y6.468Z38.628
Y8.03Z39.182
Y9.874Z39.555
Y11.752Z39.65
Y13.622Z39.462
Y15.442Z38.998
Y16.63Z38.529
Y17.764Z37.942
Y19.349Z36.844
Y20.747Z35.516
Y21.925Z33.989
Y22.854Z32.298
Y23.594Z30.53
Y40.455Z-10.175
Y41.171Z-12.017
G02X-14.Y36.098I0.J-12.043
G01Y34.456Z-27.234
Y30.908Z-28.766
Y30.266Z-29.036
Y26.657Z-30.466
G02X-14.Y10.826I0.J-4.391
G01Y9.761Z-21.354
Y-6.794Z18.614
Y-7.24Z19.699
Y-7.612Z20.812
Y-7.878Z21.955
Y-8.036Z23.118
Y-8.071Z24.828
Y-7.872Z26.527
X-13.714Y-7.904Z27.313
X-13.427Y-8.059Z28.085
X-13.141Y-8.332Z28.823
X-12.854Y-8.718Z29.509
X-12.568Y-9.206Z30.126
Y-39.863Z43.074
X-13.48
X-14.
Y-38.371Z41.184
Y-32.401Z33.627
Y-31.897Z33.079
Y-31.317Z32.612
Y-30.674Z32.236
Y-29.983Z31.959
Y-29.258Z31.788
Y-28.516Z31.727
Y-25.324Z31.702
Y-21.618Z31.732
G02X-14.Y-10.5I0.J.788
G01Y-9.525Z24.863
Y-8.804Z23.118
Y-8.357Z21.301
Y-8.184Z19.438
Y-8.182Z-11.571
Z-12.139
Y-8.166Z-12.357
Y-8.115Z-12.569
Y-8.032Z-12.77
Y-7.919Z-12.957
Y-7.779Z-13.123
Y-7.614Z-13.266
Y-1.772Z-17.577
Y-1.608Z-17.72
Y-1.467Z-17.886
Y-1.354Z-18.072
Y-1.271Z-18.274
Y-1.221Z-18.486
Y-1.204Z-18.703
Z-21.842
Y-.309Z-21.463
Y1.03Z-21.186
Y2.141Z-21.176
Y.939Z-18.277
Y.863Z-18.12
Y.767Z-17.974
Y.654Z-17.841
Y-5.774Z-11.168
Y-5.953Z-11.012
Y-6.155Z-10.888
Y-6.375Z-10.8
Y-6.607Z-10.75
Y-6.844Z-10.741
Y-7.079Z-10.771
Y-7.306Z-10.841
Y-7.518Z-10.948
Y-7.708Z-11.089
Y-7.872Z-11.261
Y-8.005Z-11.457
Y-8.103Z-11.674
Y-8.162Z-11.903
Y-8.182Z-12.139
Z-12.708
Z-26.915
Y-8.271Z-28.766
G02X-14.Y-19.416I0.J-12.501
G01Y-21.618Z-39.826
Y-25.324Z-39.86
Y-29.03Z-39.792
G02X-14.Y-40.729I0.J.767
G01Y-40.818Z-26.915
Y-40.816Z19.438
Y-40.643Z21.301
Y-40.196Z23.118
G02X-14.Y-29.03I0.J11.991
G01Y-28.516Z31.727
X-13.714Y-27.738Z31.844
X-13.427Y-26.988Z32.081
X-13.141Y-26.284Z32.433
X-12.854Y-25.643Z32.89
X-12.568Y-25.082Z33.442
G00X5.
Y39.389Z43.644
X-12.98
G01X-13.98F3200.
X-14.5
Y39.832Z42.951
Y40.044Z42.588
Y40.937Z40.896
Y41.33Z40.058
Y45.96Z28.888
X-13.98
Y25.135Z45.354
X-14.5
Y25.377Z44.995
Y25.602Z44.709
Y25.866Z44.458
G02X-14.5Y33.017I0.J-15.637
G01Y33.941Z31.769
Y45.959Z2.772
X-13.98
Y46.801Z-29.907
X-14.5
Y46.242Z-30.638
Y45.957Z-30.979
G02X-14.5Y34.218I0.J-21.422
G01Y33.95Z-38.358
G02X-14.5Y18.902I0.J-12.069
X-14.5Y1.806I0.J3.321
X-14.5Y-6.1I0.J-22.545
G00X5.Z-44.459
Y-46.705Z32.241
X-12.98
G01X-13.98F3200.
X-14.5
Y-45.903Z33.3
Y-45.869Z33.344
G02X-14.5Y-35.618I0.J17.732
G01Y-34.441Z40.924
G02X-14.5Y-29.03I0.J8.15
G01Y-19.974Z41.759
Y-18.755Z41.684
Y-17.123Z41.484
Y-15.828Z41.237
Y-14.214Z40.818
Y-12.97Z40.407
Y-11.75Z39.912
G02X-14.5Y-5.495I0.J16.866
G00X5.Z44.459
Y9.741Z-44.731
X-12.98
G01X-13.98F3200.
X-14.5
Y8.82Z-42.56
Y4.218Z-31.707
Y3.298Z-29.536
Y1.457Z-25.195
G03X-14.5Y-8.031I0.J-4.602
G01Y-8.141Z-26.915
Y-8.162Z-27.377
G02X-14.5Y-19.407I0.J-12.543
G01Y-21.618Z-39.848
Y-25.324Z-39.883
Y-29.03Z-39.816
G02X-14.5Y-40.773I0.J.725
G01Y-40.859Z-26.915
Y-40.858Z19.437
Y-40.689Z21.301
Y-40.246Z23.118
G02X-14.5Y-29.03I0.J12.004
G01Y-25.324Z31.725
Y-21.618Z31.756
Y-19.974Z31.759
Y-18.342Z31.558
Y-16.727Z31.139
Y-15.225Z30.53
Y-14.206Z29.979
Y-13.19Z29.297
Y-12.245Z28.519
Y-11.321Z27.587
Y-10.5Z26.563
Y-9.494Z24.908
Y-8.754Z23.118
Y-8.311Z21.301
Y-8.142Z19.437
Y-8.141Z-26.915
X-14.214Y-8.018Z-27.692
X-13.927Y-7.775Z-28.44
X-13.641Y-7.417Z-29.142
X-13.354Y-6.955Z-29.778
X-13.068Y-6.398Z-30.335
G00X5.
Y45.09Z-37.889
X-12.98
G01X-13.98F3200.
X-14.5
Y44.288Z-35.825
Y41.879Z-29.635
Y41.504Z-28.871
Y41.006Z-28.183
Y40.397Z-27.588
Y39.697Z-27.105
Y38.926Z-26.748
Y38.104Z-26.527
Y37.258Z-26.448
Y36.41Z-26.514
Y35.585Z-26.722
Y34.808Z-27.068
G02X-14.5Y25.731I0.J-39.631
X-14.5Y10.783I0.J-3.493
G01Y9.282Z-20.305
Y9.065Z-19.781
Y8.969Z-19.592
Y8.846Z-19.419
Y8.698Z-19.267
Y8.528Z-19.139
Y8.342Z-19.038
Y8.142Z-18.967
Y.946Z-16.992
Y.746Z-16.92
Y.56Z-16.819
Y.39Z-16.691
Y.242Z-16.539
Y.119Z-16.367
Y.023Z-16.177
Y-1.162Z-13.316
Z-19.847
Y-1.142Z-20.081
Y-1.084Z-20.308
Y-.989Z-20.522
Y-.859Z-20.717
Y-.698Z-20.888
Y-.512Z-21.03
Y-.304Z-21.138
Y-.081Z-21.211
Y.151Z-21.245
Y7.684Z-21.714
Y7.92Z-21.709
Y8.152Z-21.664
Y8.373Z-21.581
Y8.577Z-21.462
Y8.758Z-21.31
Y8.911Z-21.13
Y9.031Z-20.927
Y9.116Z-20.707
Y9.162Z-20.475
Y9.169Z-20.24
Y9.136Z-20.006
Y9.065Z-19.781
Y8.847Z-19.256
Y-7.253Z19.617
G02X-14.5Y.618I0.J11.744
G01Y4.899Z37.942
Y6.439Z38.641
Y8.03Z39.213
Y9.873Z39.591
Y11.751Z39.689
Y13.621Z39.507
Y15.442Z39.046
Y16.68Z38.559
Y17.859Z37.942
Y19.409Z36.858
Y20.778Z35.552
Y21.935Z34.055
Y22.854Z32.401
Y23.639Z30.53
Y40.5Z-10.175
Y41.217Z-12.017
G02X-14.5Y36.117I0.J-12.041
G01Y34.808Z-27.068
X-14.214Y34.187Z-27.55
X-13.927Y33.648Z-28.124
X-13.641Y33.206Z-28.775
X-13.354Y32.871Z-29.488
X-13.068Y32.652Z-30.244
G00X5.
Y39.389Z43.644
X-13.48
G01X-14.48F3200.
X-15.
Y39.797Z43.065
Y40.122Z42.536
Y40.895Z41.086
Y41.309Z40.211
Y45.96Z28.991
X-14.48
Y25.135Z45.354
X-15.
Y25.621Z44.777
Y25.775Z44.61
Y25.943Z44.458
G02X-15.Y32.923I0.J-15.548
G01Y33.854Z32.109
Y45.959Z2.886
X-14.48
Y46.801Z-29.907
X-15.
Y46.378Z-30.511
Y45.957Z-31.034
G02X-15.Y38.454I0.J-17.814
G01Y34.217Z-38.272
Y33.95Z-38.382
G02X-15.Y18.929I0.J-12.115
X-15.Y1.838I0.J3.322
X-15.Y-6.037I0.J-22.526
G00X5.Z-44.459
Y-46.705Z32.241
X-13.48
G01X-14.48F3200.
X-15.
Y-46.005Z33.235
Y-45.863Z33.428
G02X-15.Y-35.705I0.J17.67
G01Y-34.506Z40.942
G02X-15.Y-29.029I0.J8.098
G01Y-19.948Z41.785
Y-18.734Z41.711
Y-17.078Z41.508
Y-15.766Z41.257
Y-14.135Z40.831
Y-12.874Z40.411
Y-11.762Z39.956
G02X-15.Y-5.556I0.J16.871
G01X-14.48Z44.459
Y-11.762Z39.956
X-15.
Y-11.127Z37.736
Y-10.491Z35.517
Y-9.856Z33.297
Y-9.22Z31.078
Y-8.585Z28.858
Y-7.95Z26.639
Y-7.835Z27.065
G02X-15.Y.618I0.J12.293
G01Y4.839Z37.942
Y6.409Z38.655
Y8.03Z39.243
Y9.872Z39.626
Y11.749Z39.729
Y13.62Z39.551
Y15.442Z39.095
Y16.73Z38.588
Y17.953Z37.942
Y19.469Z36.872
Y20.809Z35.589
Y21.946Z34.121
Y22.854Z32.502
Y23.684Z30.53
Y40.545Z-10.175
Y41.262Z-12.018
G02X-15.Y36.137I0.J-12.04
G01Y34.503Z-27.263
Y31.023Z-28.766
Y30.266Z-29.085
Y26.655Z-30.516
G02X-15.Y10.741I0.J-4.45
G01Y9.671Z-21.354
Y-7.265Z19.535
Y-7.671Z20.698
Y-7.961Z21.897
Y-8.131Z23.118
Y-8.165Z24.885
Y-7.95Z26.639
X-14.714Y-7.977Z27.425
X-14.427Y-8.127Z28.198
X-14.141Y-8.396Z28.937
X-13.854Y-8.778Z29.626
X-13.568Y-9.262Z30.246
Y-39.863Z43.074
X-14.48
X-15.
Y-38.351Z41.189
Y-32.304Z33.651
Y-31.802Z33.112
Y-31.227Z32.653
Y-30.59Z32.283
Y-29.906Z32.011
Y-29.189Z31.842
Y-28.456Z31.78
Y-25.324Z31.748
Y-21.618Z31.779
Y-19.949Z31.785
G02X-15.Y-8.705I0.J-.765
G01Y-8.265Z21.3
Y-8.1Z19.437
Y-8.099Z-11.571
Z-12.139
Y-8.084Z-12.346
Y-8.038Z-12.549
Y-7.963Z-12.742
Y-7.86Z-12.922
Y-7.732Z-13.085
Y-7.58Z-13.227
Y-1.639Z-18.041
Y-1.488Z-18.183
Y-1.36Z-18.346
Y-1.257Z-18.526
Y-1.181Z-18.719
Y-1.136Z-18.922
Y-1.12Z-19.128
Z-22.251
Y-.273Z-21.888
Y1.052Z-21.606
Y2.219Z-21.587
Y1.023Z-18.702
Y.913Z-18.489
Y.767Z-18.298
Y-5.661Z-11.2
Y-5.837Z-11.036
Y-6.039Z-10.905
Y-6.26Z-10.81
Y-6.493Z-10.755
Y-6.733Z-10.74
Y-6.972Z-10.766
Y-7.203Z-10.833
Y-7.419Z-10.938
Y-7.613Z-11.079
Y-7.781Z-11.251
Y-7.917Z-11.449
Y-8.017Z-11.668
Y-8.079Z-11.9
Y-8.099Z-12.139
Z-12.708
Z-26.914
Y-8.183Z-28.766
G02X-15.Y-19.399I0.J-12.503
G01Y-21.618Z-39.871
Y-25.324Z-39.906
Y-29.03Z-39.84
G02X-15.Y-40.817I0.J.685
G01Y-40.901Z-26.914
Y-40.9Z19.437
Y-40.735Z21.3
Y-40.295Z23.118
G02X-15.Y-30.281I0.J12.033
G01Y-29.03Z31.786
Y-28.456Z31.78
X-14.714Y-27.677Z31.895
X-14.427Y-26.926Z32.131
X-14.141Y-26.221Z32.481
X-13.854Y-25.58Z32.937
X-13.568Y-25.018Z33.488
G00X5.
Y39.389Z43.644
X-13.98
G01X-14.98F3200.
X-15.5
Y39.744Z43.187
Y40.2Z42.485
Y40.878Z41.222
Y41.304Z40.323
Y45.96Z29.094
X-14.98
Y25.135Z45.354
X-15.5
Y25.53Z44.924
Y26.02Z44.458
G02X-15.5Y32.968I0.J-15.623
G01Y33.896Z32.117
Y45.959Z2.995
X-14.98
Y46.801Z-29.907
X-15.5
Y46.539Z-30.327
Y46.266Z-30.722
Y45.957Z-31.089
G02X-15.5Y38.478I0.J-17.762
G01Y34.217Z-38.297
Y33.949Z-38.407
G02X-15.5Y18.955I0.J-12.162
X-15.5Y1.877I0.J3.237
X-15.5Y-5.973I0.J-22.47
G00X5.Z-44.459
Y-46.705Z32.241
X-13.98
G01X-14.98F3200.
X-15.5
Y-46.11Z33.157
Y-45.857Z33.511
G02X-15.5Y-36.27I0.J17.594
G01Y-35.792Z40.575
G02X-15.5Y-29.028I0.J8.141
G01Y-19.922Z41.811
Y-18.714Z41.737
Y-17.033Z41.532
Y-15.705Z41.278
Y-14.056Z40.845
Y-12.778Z40.415
Y-11.774Z40.001
G02X-15.5Y-5.618I0.J16.89
G00X5.Z44.459
Y1.877Z-28.641
X-13.98
G01X-14.98F3200.
X-15.5
Y-.11Z-28.247
Y-2.097Z-27.852
Y-4.084Z-27.457
Y-6.071Z-27.063
Y-8.057Z-26.668
Z-26.914
G02X-15.5Y-9.294I0.J-13.491
X-15.5Y-19.437I0.J-11.372
G01Y-21.618Z-39.892
Y-25.324Z-39.929
Y-29.03Z-39.864
G02X-15.5Y-40.862I0.J.646
G01Y-40.943Z-26.914
Y-40.942Z19.436
Y-40.781Z21.299
Y-40.345Z23.118
Y-39.703Z24.729
Y-38.806Z26.293
Y-37.717Z27.687
Y-36.442Z28.914
Y-35.249Z29.796
Y-33.96Z30.53
Y-32.783Z31.038
Y-31.561Z31.424
Y-30.305Z31.683
Y-29.03Z31.813
Y-25.324Z31.771
Y-21.618Z31.803
Y-19.925Z31.811
G02X-15.5Y-8.655I0.J-.754
G01Y-8.219Z21.299
Y-8.058Z19.436
Y-8.057Z-26.668
X-15.214Y-7.934Z-27.445
X-14.927Y-7.691Z-28.194
X-14.641Y-7.334Z-28.895
X-14.354Y-6.871Z-29.532
X-14.068Y-6.315Z-30.088
G00X5.
Y45.661Z-37.319
X-13.98
G01X-14.98F3200.
X-15.5
Y44.929Z-35.323
Y42.733Z-29.337
Y42.37Z-28.56
Y41.879Z-27.857
Y41.275Z-27.247
Y40.576Z-26.75
Y39.802Z-26.38
Y38.977Z-26.148
Y38.123Z-26.06
Y37.267Z-26.119
Y36.434Z-26.323
Y35.648Z-26.668
Y34.527Z-27.278
Y31.081Z-28.766
Y30.266Z-29.11
Y26.654Z-30.541
G02X-15.5Y10.573I0.J-4.49
G01Y9.27Z-20.495
Y9.053Z-19.971
Y8.955Z-19.778
Y8.829Z-19.603
Y8.677Z-19.449
Y8.503Z-19.32
Y8.311Z-19.22
Y8.106Z-19.15
Y1.016Z-17.339
Y.811Z-17.27
Y.62Z-17.17
Y.446Z-17.041
Y.294Z-16.887
Y.167Z-16.712
Y.069Z-16.519
Y-1.079Z-13.747
Z-20.144
Y-1.059Z-20.379
Y-.999Z-20.608
Y-.902Z-20.824
Y-.77Z-21.02
Y-.607Z-21.192
Y-.418Z-21.333
Y-.207Z-21.44
Y.019Z-21.511
Y.253Z-21.542
Y7.692Z-21.905
Y7.926Z-21.897
Y8.156Z-21.849
Y8.374Z-21.765
Y8.575Z-21.644
Y8.754Z-21.492
Y8.905Z-21.313
Y9.023Z-21.11
Y9.106Z-20.891
Y9.151Z-20.661
Y9.157Z-20.426
Y9.124Z-20.194
Y9.053Z-19.971
Y8.836Z-19.447
Y-6.794Z18.287
Y-7.7Z20.642
G02X-15.5Y-.602I0.J12.074
G01Y.618Z36.25
Y4.779Z37.942
Y6.38Z38.668
Y8.03Z39.274
Y9.871Z39.661
Y11.748Z39.768
Y13.619Z39.595
Y15.442Z39.144
Y16.779Z38.618
Y18.047Z37.942
Y19.528Z36.885
Y20.841Z35.625
Y21.958Z34.187
Y22.854Z32.603
Y23.729Z30.53
Y40.59Z-10.175
Y41.308Z-12.018
G02X-15.5Y37.678I0.J-12.061
G01Y36.156Z-26.391
Y35.648Z-26.668
X-15.214Y35.025Z-27.147
X-14.927Y34.484Z-27.719
X-14.641Y34.039Z-28.368
X-14.354Y33.701Z-29.079
X-14.068Y33.478Z-29.833
G00X5.
Y39.389Z43.644
X-14.48
G01X-15.48F3200.
X-16.
Y39.67Z43.317
Y39.998Z42.892
Y40.278Z42.433
Y40.86Z41.357
Y41.173Z40.724
Y43.848Z34.81
Y43.976Z34.516
Y45.96Z29.726
X-15.48
Y25.135Z45.354
X-16.
Y25.867Z44.663
Y26.097Z44.458
G02X-16.Y32.846I0.J-15.387
G01Y33.606Z33.259
Y33.874Z32.689
Y34.737Z30.689
Y45.959Z3.597
X-15.48
Y46.801Z-29.907
X-16.
Y46.235Z-30.788
Y46.104Z-30.972
Y45.957Z-31.144
G02X-16.Y38.502I0.J-17.711
G01Y34.217Z-38.322
Y33.949Z-38.432
G02X-16.Y18.982I0.J-12.209
X-16.Y1.981I0.J3.184
G01Y1.925Z-28.831
G02X-16.Y-5.903I0.J-22.58
G00X5.Z-44.459
Y-46.705Z32.811
X-14.48
G01X-15.48F3200.
X-16.
Y-46.204Z33.231
Y-46.014Z33.408
Y-45.844Z33.603
G02X-16.Y-35.878I0.J17.544
G01Y-34.633Z40.979
G02X-16.Y-29.026I0.J7.993
G01Y-19.897Z41.836
Y-18.693Z41.763
Y-16.988Z41.556
Y-15.644Z41.298
Y-13.979Z40.859
Y-12.683Z40.42
Y-11.786Z40.046
G02X-16.Y-5.68I0.J16.926
G01X-15.48Z44.459
Y-11.786Z40.046
X-16.
Y-11.159Z37.83
Y-10.533Z35.613
Y-9.906Z33.397
Y-9.28Z31.18
Y-8.653Z28.964
Y-8.027Z26.747
Y-7.904Z27.186
G02X-16.Y-.612I0.J12.139
G01Y.618Z36.274
Y4.718Z37.942
Y6.351Z38.68
Y8.03Z39.304
Y9.87Z39.696
Y11.747Z39.808
Y13.618Z39.639
Y15.442Z39.192
Y16.828Z38.647
Y18.139Z37.942
Y19.587Z36.899
Y20.872Z35.661
Y21.969Z34.253
Y22.854Z32.702
Y23.775Z30.53
Y24.694Z28.723
Y25.498Z26.862
Y40.083Z-8.348
Y40.68Z-10.199
Y41.359Z-12.036
G02X-16.Y37.678I0.J-12.065
G01Y36.175Z-26.413
Y34.551Z-27.292
Y31.139Z-28.766
Y30.266Z-29.135
Y26.653Z-30.566
G02X-16.Y10.538I0.J-4.518
G01Y10.29Z-23.066
Y9.967Z-22.505
Y9.379Z-21.354
Y-2.904Z8.294
Y-5.961Z15.706
Y-6.356Z16.949
Y-6.544Z17.575
Y-6.794Z18.179
Y-7.729Z20.585
Y-8.043Z21.839
Y-8.226Z23.118
Y-8.259Z24.94
Y-8.027Z26.747
X-15.714Y-8.05Z27.534
X-15.427Y-8.196Z28.307
X-15.141Y-8.461Z29.048
X-14.854Y-8.839Z29.739
X-14.568Y-9.32Z30.361
Y-39.863Z43.074
X-15.48
X-16.
Y-38.347Z41.197
Y-32.285Z33.691
Y-31.784Z33.157
Y-31.212Z32.701
Y-30.578Z32.334
Y-29.898Z32.064
Y-29.186Z31.895
Y-28.457Z31.833
Y-25.324Z31.794
Y-19.9Z31.836
G02X-16.Y-9.399I0.J-.753
G01Y-8.962Z24.097
Y-8.605Z23.118
Y-8.173Z21.298
Y-8.016Z19.434
Z17.567
Y-7.864Z15.706
Y-7.827Z8.294
Z-12.802
Z-13.372
Y-7.812Z-13.576
Y-7.768Z-13.776
Y-7.694Z-13.967
Y-7.594Z-14.145
Y-7.469Z-14.307
Y-7.322Z-14.449
Y-1.358Z-19.403
