%
O0100
(SONCHU POSTPROCESSOR A.I.C TAICHUNG)
G40G49G90G80
G17G00G54X0.Y0.
/G05.1 Q1
(TOOL: R2_ER35_ROUGH_0)
M03S8000
G43Z0.H1
M8
G00X-15.66Y-18.723
Z23.169
G01X-16.66F1200. 
X-17.66
G03X-17.66Y-18.565I0.J1.663
G01Y-18.52Z20.688
Y-18.451Z20.594
Y-18.419Z20.545
Y-18.Z20.818
X-17.94Y-18.022Z20.934
Y-18.025Z20.434
Y-17.987
Y-17.785Z20.412
Y-17.603Z20.368
Y-18.39Z20.693
Y-18.294Z20.559
Y-18.257Z20.5
Y-17.833Z20.767
X-18.08Y-17.893Z20.963
Y-18.294Z20.664
Y-18.256Z20.613
Y-18.216Z20.556
Y-18.196Z20.542
Y-18.17Z20.533
Y-18.141
Y-18.092Z20.535
Y-17.987
Y-17.814Z20.519
G03X-18.08Y-15.751I0.J.188
G00X10.Z21.813
Y12.974Z31.494
X-16.281
G01X-17.281F1200.
X-18.281
X-18.376Y13.025Z31.256
X-18.44Y13.09Z31.01
X-18.472Y13.167Z30.763
Y13.255Z30.516
X-18.44Y13.353Z30.276
X-18.376Y13.459Z30.045
X-18.281Y13.571Z29.829
X-18.158Y13.688Z29.63
X-18.007Y13.806Z29.452
X-17.832Y13.925Z29.298
X-17.736Y13.986Z29.226
X-17.64Y14.04Z29.151
X-17.632Y14.043Z29.144
X-17.544Y14.096Z29.07
X-17.455Y14.155Z28.993
X-17.441Y14.162Z28.981
X-17.366Y14.209Z28.911
X-17.276Y14.27Z28.824
X-17.201Y14.314Z28.748
X-17.093Y14.383Z28.635
X-16.97Y14.458Z28.497
X-16.905Y14.497Z28.422
X-16.845Y14.535Z28.348
X-16.725Y14.603Z28.2
X-16.691Y14.623Z28.154
X-16.591Y14.675Z28.024
X-16.47Y14.741Z27.853
X-16.432Y14.758Z27.8
X-16.371Y14.791Z27.706
X-16.276Y14.839Z27.561
X-16.154Y14.907Z27.359
X-16.074Y14.956Z27.216
X-15.998Y15.006Z27.072
X-15.92Y15.06Z26.917
X-15.833Y15.127Z26.728
X-15.773Y15.177Z26.585
X-15.713Y15.231Z26.436
X-15.644Y15.3Z26.246
X-15.582Y15.37Z26.056
X-15.551Y15.406Z25.956
X-15.498Y15.479Z25.764
X-15.473Y15.516Z25.662
X-15.464Y15.533Z25.62
X-15.431Y15.588Z25.473
X-15.389Y15.674Z25.249
X-15.373Y15.715Z25.141
X-15.352Y15.775Z24.987
X-15.333Y15.847Z24.803
X-15.323Y15.901Z24.665
X-15.313Y15.976Z24.477
X-15.311Y16.035Z24.328
Y16.113Z24.137
Y16.528Z23.137
X-15.31Y16.567Z23.041
X-15.311Y16.611Z22.937
X-15.31Y16.767Z22.558
X-15.311Y16.776Z22.537
X-15.31Y22.823Z7.937
X-15.311Y22.907Z7.737
X-15.31Y22.967Z7.59
X-15.311Y22.99Z7.537
Y25.061Z2.537
X-15.31Y31.108Z-12.063
X-15.311Y31.185Z-12.25
X-15.316Y31.235Z-12.373
X-15.326Y31.299Z-12.526
X-15.343Y31.362Z-12.676
X-15.377Y31.447Z-12.878
X-15.392Y31.479Z-12.951
X-15.425Y31.539Z-13.09
X-15.46Y31.596Z-13.221
X-15.468Y31.607Z-13.247
X-15.519Y31.677Z-13.403
X-15.573Y31.74Z-13.547
X-15.63Y31.802Z-13.683
X-15.712Y31.881Z-13.857
X-15.766Y31.93Z-13.963
X-15.851Y32.Z-14.114
X-15.893Y32.03Z-14.186
X-15.939Y32.063Z-14.264
X-16.031Y32.121Z-14.413
X-16.124Y32.171Z-14.561
X-16.182Y32.199Z-14.648
X-16.215Y32.213Z-14.699
X-16.302Y32.247Z-14.827
X-16.388Y32.275Z-14.954
X-16.487Y32.302Z-15.089
X-16.595Y32.327Z-15.229
X-16.707Y32.345Z-15.367
X-16.803Y32.352Z-15.484
X-16.877Y32.349Z-15.578
X-16.892Y32.351Z-15.593
X-17.065Y32.387Z-15.786
X-17.214Y32.441Z-15.994
X-17.336Y32.512Z-16.215
X-17.428Y32.6Z-16.443
X-17.49Y32.702Z-16.676
X-17.521Y32.818Z-16.908
X-17.519Y32.944Z-17.137
X-17.485Y33.079Z-17.359
X-17.42Y33.221Z-17.569
X-17.324Y33.367Z-17.763
X-13.323Y32.638Z-14.201
X-13.407Y32.405Z-14.286
X-13.515Y32.19Z-14.389
X-13.644Y31.996Z-14.508
X-13.793Y31.827Z-14.642
X-13.958Y31.685Z-14.787
X-14.137Y31.573Z-14.941
X-14.327Y31.492Z-15.102
X-14.524Y31.445Z-15.267
X-14.726Y31.432Z-15.433
X-14.928Y31.453Z-15.597
X-15.Y31.466Z-15.655
X-15.05Y31.475Z-15.695
X-15.173Y31.493Z-15.793
X-15.298Y31.507Z-15.891
X-15.427Y31.515Z-15.989
X-15.562Y31.519Z-16.087
X-15.687Y31.516Z-16.195
X-15.854Y31.528Z-16.225
X-15.992Y31.538Z-16.273
X-16.235Y31.572Z-16.362
X-16.469Y31.638Z-16.458
X-16.691Y31.736Z-16.558
X-16.895Y31.863Z-16.66
X-17.079Y32.018Z-16.764
X-17.239Y32.198Z-16.866
X-17.373Y32.399Z-16.966
X-17.478Y32.619Z-17.062
X-17.553Y32.853Z-17.152
X-17.596Y33.097Z-17.234
G00X10.
Y12.342Z31.39
X-16.79
G01X-17.79F1200.
X-17.771Y12.26Z31.142
X-17.732Y12.206Z30.889
X-17.673Y12.18Z30.636
X-17.596Y12.182Z30.386
X-17.501Y12.213Z30.144
X-17.39Y12.272Z29.914
X-17.266Y12.357Z29.701
X-17.13Y12.468Z29.507
X-16.984Y12.602Z29.336
X-16.832Y12.758Z29.191
X-16.781Y12.812Z29.148
X-16.699Y12.838Z29.114
X-16.682Z29.11
X-16.471Y12.917Z29.013
X-16.34Y12.94Z28.978
X-16.317Y12.951Z28.966
X-16.225Y12.994Z28.916
X-16.129Y13.034Z28.867
X-16.018Y13.079Z28.807
X-15.902Y13.125Z28.741
X-15.747Y13.184Z28.649
X-15.658Y13.215Z28.594
X-15.582Y13.242Z28.544
X-15.423Y13.293Z28.441
X-15.389Y13.304Z28.417
X-15.272Y13.338Z28.337
X-15.128Y13.377Z28.234
X-15.063Y13.391Z28.188
X-15.Y13.411Z28.129
X-14.997Y13.412Z28.126
X-14.811Y13.486Z27.958
X-14.625Y13.591Z27.807
X-14.443Y13.724Z27.674
X-14.268Y13.883Z27.562
X-14.103Y14.065Z27.473
X-13.952Y14.268Z27.408
X-13.815Y14.488Z27.368
X-13.696Y14.721Z27.355
X-13.597Y14.962Z27.369
X-13.52Y15.209Z27.408
X-18.251Y12.832Z31.421
X-18.346Y12.894Z31.186
X-18.41Y12.97Z30.944
X-18.442Y13.057Z30.699
X-18.441Y13.154Z30.456
X-18.408Y13.26Z30.219
X-18.343Y13.372Z29.992
X-18.246Y13.489Z29.779
X-18.121Y13.609Z29.583
X-17.968Y13.73Z29.408
X-17.791Y13.85Z29.257
X-17.697Y13.909Z29.188
X-17.603Y13.958Z29.116
X-17.594Y13.961Z29.109
X-17.5Y14.013Z29.03
X-17.409Y14.067Z28.954
X-17.395Y14.074Z28.941
X-17.319Y14.119Z28.872
X-17.229Y14.176Z28.787
X-17.153Y14.218Z28.711
X-17.045Y14.282Z28.601
X-16.922Y14.353Z28.465
X-16.856Y14.389Z28.391
X-16.796Y14.425Z28.318
X-16.677Y14.488Z28.173
X-16.643Y14.507Z28.128
X-16.545Y14.555Z28.
X-16.424Y14.616Z27.833
X-16.387Y14.631Z27.781
X-16.327Y14.663Z27.69
X-16.23Y14.712Z27.543
X-16.107Y14.78Z27.34
X-16.027Y14.83Z27.196
X-15.949Y14.881Z27.05
X-15.87Y14.936Z26.893
X-15.784Y15.003Z26.704
X-15.722Y15.055Z26.559
X-15.677Y15.096Z26.448
X-15.661Y15.109Z26.409
X-15.592Y15.18Z26.218
X-15.529Y15.25Z26.027
X-15.498Y15.288Z25.925
X-15.445Y15.36Z25.732
X-15.419Y15.399Z25.628
X-15.41Y15.416Z25.586
X-15.376Y15.472Z25.437
X-15.334Y15.559Z25.212
X-15.318Y15.601Z25.103
X-15.296Y15.661Z24.947
X-15.277Y15.734Z24.762
X-15.267Y15.79Z24.622
X-15.257Y15.865Z24.432
X-15.255Y15.925Z24.283
Y16.003Z24.092
Y16.418Z23.092
Y16.457Z22.996
Y16.501Z22.892
Y16.657Z22.513
Y16.667Z22.492
Y18.489Z18.092
Y30.998Z-12.108
X-15.256Y31.076Z-12.296
X-15.26Y31.128Z-12.421
X-15.271Y31.193Z-12.577
X-15.289Y31.257Z-12.727
X-15.313Y31.321Z-12.877
X-15.323Y31.345Z-12.932
X-15.339Y31.377Z-13.007
X-15.372Y31.439Z-13.148
X-15.408Y31.496Z-13.28
X-15.416Y31.508Z-13.307
X-15.468Y31.578Z-13.465
X-15.522Y31.643Z-13.61
X-15.58Y31.706Z-13.748
X-15.663Y31.787Z-13.925
X-15.719Y31.837Z-14.033
X-15.804Y31.907Z-14.181
X-15.845Y31.938Z-14.25
X-15.891Y31.971Z-14.325
X-15.982Y32.029Z-14.469
X-16.075Y32.081Z-14.611
X-16.133Y32.11Z-14.696
X-16.165Y32.124Z-14.745
X-16.253Y32.16Z-14.869
X-16.34Y32.19Z-14.992
X-16.439Y32.218Z-15.123
X-16.548Y32.245Z-15.26
X-16.661Y32.265Z-15.394
X-16.758Y32.274Z-15.509
X-16.835Y32.276Z-15.599
X-16.856Y32.282Z-15.618
X-17.035Y32.344Z-15.798
X-17.189Y32.423Z-15.994
X-17.315Y32.518Z-16.203
X-17.411Y32.626Z-16.422
X-17.475Y32.745Z-16.645
X-17.507Y32.875Z-16.87
X-17.505Y33.012Z-17.093
X-17.47Y33.154Z-17.31
X-17.402Y33.299Z-17.516
X-17.303Y33.445Z-17.71
X-13.422Y32.535Z-14.005
X-13.507Y32.309Z-14.105
X-13.613Y32.1Z-14.222
X-13.741Y31.915Z-14.355
X-13.886Y31.754Z-14.501
X-14.048Y31.622Z-14.659
X-14.223Y31.52Z-14.825
X-14.408Y31.451Z-14.996
X-14.6Y31.414Z-15.17
X-14.796Y31.412Z-15.343
X-14.992Y31.444Z-15.513
X-15.Y31.446Z-15.52
X-15.025Y31.452Z-15.541
X-15.142Y31.478Z-15.639
X-15.262Y31.498Z-15.737
X-15.384Y31.514Z-15.836
X-15.51Y31.525Z-15.936
X-15.641Y31.532Z-16.035
X-15.762Y31.531Z-16.142
X-15.923Y31.544Z-16.176
X-16.053Y31.559Z-16.224
X-16.293Y31.604Z-16.317
X-16.523Y31.681Z-16.416
X-16.739Y31.789Z-16.517
X-16.936Y31.926Z-16.621
X-17.112Y32.089Z-16.724
X-17.264Y32.277Z-16.826
X-17.389Y32.485Z-16.924
X-17.484Y32.71Z-17.016
X-17.549Y32.949Z-17.102
X-17.582Y33.196Z-17.179
G00X10.
Y12.46Z31.35
X-16.913
G01X-17.913F1200.
X-17.887Y12.37Z31.105
X-17.841Y12.308Z30.855
X-17.775Y12.274Z30.604
X-17.691Y12.269Z30.357
X-17.59Y12.293Z30.116
X-17.475Y12.345Z29.888
X-17.346Y12.425Z29.674
X-17.206Y12.531Z29.48
X-17.058Y12.661Z29.309
X-16.904Y12.814Z29.162
X-16.852Y12.868Z29.118
X-16.77Y12.896Z29.085
X-16.754Y12.897Z29.081
X-16.551Y12.97Z28.979
X-16.424Y12.995Z28.941
X-16.401Y13.005Z28.929
X-16.312Y13.048Z28.878
X-16.202Y13.093Z28.817
X-16.11Y13.131Z28.764
X-15.996Y13.176Z28.695
X-15.846Y13.233Z28.599
X-15.759Y13.262Z28.544
X-15.684Y13.288Z28.492
X-15.53Y13.336Z28.386
X-15.496Y13.347Z28.361
X-15.382Y13.379Z28.278
X-15.241Y13.415Z28.171
X-15.178Y13.428Z28.125
X-15.113Y13.448Z28.063
X-15.Y13.506Z27.897
X-14.979Y13.517Z27.867
X-14.837Y13.606Z27.666
X-14.694Y13.725Z27.482
X-14.553Y13.872Z27.317
X-14.417Y14.044Z27.175
X-14.288Y14.239Z27.058
X-14.167Y14.452Z26.968
X-14.057Y14.682Z26.906
X-13.961Y14.923Z26.873
X-13.879Y15.171Z26.871
X-13.813Y15.423Z26.899
X-18.228Y12.697Z31.345
X-18.322Y12.769Z31.112
X-18.386Y12.855Z30.873
X-18.417Y12.951Z30.632
X-18.415Y13.056Z30.393
X-18.38Y13.169Z30.159
X-18.313Y13.287Z29.936
X-18.214Y13.409Z29.726
X-18.087Y13.532Z29.534
X-17.932Y13.654Z29.362
X-17.752Y13.774Z29.214
X-17.66Y13.831Z29.148
X-17.568Y13.877Z29.077
X-17.56Y13.88Z29.07
X-17.458Y13.931Z28.987
X-17.367Y13.98Z28.91
X-17.353Y13.986Z28.897
X-17.276Y14.028Z28.829
X-17.186Y14.082Z28.745
X-17.11Y14.121Z28.67
X-17.002Y14.181Z28.561
X-16.878Y14.247Z28.428
X-16.814Y14.28Z28.354
X-16.754Y14.313Z28.283
X-16.636Y14.371Z28.14
X-16.602Y14.389Z28.097
X-16.505Y14.434Z27.972
X-16.386Y14.49Z27.809
X-16.35Y14.503Z27.757
X-16.29Y14.533Z27.669
X-16.192Y14.582Z27.519
X-16.068Y14.652Z27.315
X-15.987Y14.702Z27.171
X-15.909Y14.754Z27.023
X-15.829Y14.81Z26.866
X-15.742Y14.878Z26.676
X-15.68Y14.931Z26.53
X-15.634Y14.972Z26.418
X-15.618Y14.986Z26.377
X-15.548Y15.057Z26.187
X-15.485Y15.128Z25.994
X-15.453Y15.167Z25.89
X-15.399Y15.24Z25.697
X-15.374Y15.279Z25.591
X-15.364Y15.296Z25.549
X-15.33Y15.354Z25.398
X-15.288Y15.441Z25.172
X-15.271Y15.484Z25.062
X-15.249Y15.545Z24.905
X-15.23Y15.619Z24.72
X-15.22Y15.675Z24.578
X-15.21Y15.752Z24.385
X-15.208Y15.812Z24.237
X-15.207Y15.89Z24.045
Y16.305Z23.045
Y16.344Z22.949
Y16.388Z22.845
Y16.544Z22.466
Y18.376Z18.045
Y30.802Z-11.955
Y30.885Z-12.155
X-15.208Y30.964Z-12.343
X-15.213Y31.018Z-12.47
X-15.224Y31.084Z-12.628
X-15.242Y31.149Z-12.779
X-15.267Y31.215Z-12.93
X-15.277Y31.239Z-12.987
X-15.293Y31.272Z-13.063
X-15.326Y31.335Z-13.206
X-15.363Y31.393Z-13.338
X-15.371Y31.405Z-13.366
X-15.423Y31.476Z-13.525
X-15.478Y31.542Z-13.672
X-15.538Y31.606Z-13.812
X-15.622Y31.688Z-13.991
X-15.679Y31.739Z-14.101
X-15.762Y31.81Z-14.245
X-15.803Y31.841Z-14.312
X-15.848Y31.874Z-14.385
X-15.938Y31.934Z-14.523
X-16.03Y31.987Z-14.66
X-16.088Y32.018Z-14.742
X-16.121Y32.032Z-14.789
X-16.208Y32.07Z-14.91
X-16.296Y32.102Z-15.029
X-16.395Y32.132Z-15.156
X-16.505Y32.161Z-15.288
X-16.617Y32.184Z-15.419
X-16.714Y32.195Z-15.532
X-16.795Y32.202Z-15.618
X-16.822Y32.212Z-15.641
X-17.003Y32.29Z-15.812
X-17.159Y32.382Z-16.
X-17.287Y32.489Z-16.202
X-17.384Y32.607Z-16.414
X-17.45Y32.735Z-16.633
X-17.481Y32.871Z-16.854
X-17.48Y33.012Z-17.075
X-17.444Y33.156Z-17.29
X-17.375Y33.3Z-17.498
X-17.274Y33.442Z-17.693
X-13.383Y32.301Z-13.618
X-13.463Y32.086Z-13.744
X-13.564Y31.892Z-13.887
X-13.686Y31.721Z-14.044
X-13.826Y31.578Z-14.212
X-13.981Y31.463Z-14.389
X-14.15Y31.38Z-14.57
X-14.329Y31.329Z-14.754
X-14.515Y31.312Z-14.937
X-14.705Y31.328Z-15.116
X-14.896Y31.378Z-15.288
X-15.Y31.414Z-15.38
X-15.008Y31.417Z-15.387
X-15.089Y31.441Z-15.457
X-15.121Y31.45Z-15.486
X-15.235Y31.479Z-15.583
X-15.35Y31.502Z-15.681
X-15.469Y31.52Z-15.781
X-15.592Y31.534Z-15.882
X-15.72Y31.543Z-15.983
X-15.838Y31.545Z-16.09
X-15.992Y31.564Z-16.127
X-16.115Y31.582Z-16.175
X-16.352Y31.634Z-16.272
X-16.578Y31.718Z-16.373
X-16.789Y31.832Z-16.477
X-16.982Y31.975Z-16.581
X-17.152Y32.145Z-16.685
X-17.297Y32.337Z-16.786
X-17.415Y32.55Z-16.883
X-17.504Y32.779Z-16.973
X-17.561Y33.02Z-17.056
X-17.587Y33.27Z-17.13
G00X10.
Y12.568Z31.295
X-17.051
G01X-18.051F1200.
X-18.015Y12.471Z31.054
X-17.96Y12.401Z30.808
X-17.885Y12.36Z30.561
X-17.793Y12.349Z30.316
X-17.685Y12.366Z30.079
X-17.562Y12.413Z29.852
X-17.428Y12.488Z29.641
X-17.284Y12.59Z29.448
X-17.132Y12.717Z29.277
X-16.976Y12.868Z29.131
X-16.923Y12.922Z29.086
X-16.841Y12.952Z29.052
X-16.826Y12.953Z29.049
X-16.631Y13.024Z28.945
X-16.508Y13.049Z28.903
X-16.486Y13.058Z28.891
X-16.399Y13.099Z28.838
X-16.306Y13.139Z28.782
X-16.203Y13.18Z28.72
X-16.09Y13.225Z28.648
X-15.944Y13.28Z28.548
X-15.86Y13.307Z28.492
X-15.787Y13.332Z28.438
X-15.638Y13.377Z28.33
X-15.604Y13.388Z28.303
X-15.492Y13.418Z28.217
X-15.353Y13.451Z28.107
X-15.293Y13.464Z28.063
X-15.229Y13.485Z27.999
X-15.098Y13.552Z27.808
X-15.Y13.612Z27.642
X-14.957Y13.638Z27.569
X-14.828Y13.732Z27.361
X-14.699Y13.855Z27.17
X-14.571Y14.006Z26.999
X-14.447Y14.182Z26.85
X-14.329Y14.38Z26.727
X-14.219Y14.598Z26.632
X-14.119Y14.83Z26.565
X-14.03Y15.073Z26.529
X-13.954Y15.324Z26.523
X-13.893Y15.577Z26.549
X-18.204Y12.564Z31.266
X-18.298Y12.647Z31.037
X-18.361Y12.742Z30.801
X-18.391Y12.846Z30.563
X-18.388Y12.96Z30.327
X-18.352Y13.079Z30.098
X-18.284Y13.203Z29.878
X-18.184Y13.329Z29.671
X-18.054Y13.455Z29.482
X-17.897Y13.579Z29.313
X-17.716Y13.699Z29.168
X-17.626Y13.754Z29.106
X-17.536Y13.796Z29.036
X-17.528Y13.798Z29.028
X-17.419Y13.848Z28.941
X-17.328Y13.892Z28.863
X-17.314Y13.898Z28.85
X-17.237Y13.938Z28.783
X-17.147Y13.988Z28.7
X-17.07Y14.024Z28.625
X-16.964Y14.08Z28.517
X-16.841Y14.141Z28.386
X-16.777Y14.171Z28.313
X-16.717Y14.202Z28.244
X-16.601Y14.254Z28.102
X-16.567Y14.271Z28.06
X-16.472Y14.311Z27.937
X-16.355Y14.363Z27.778
X-16.32Y14.374Z27.728
X-16.262Y14.402Z27.641
X-16.163Y14.452Z27.49
X-16.038Y14.523Z27.285
X-15.956Y14.573Z27.141
X-15.877Y14.626Z26.992
X-15.797Y14.682Z26.834
X-15.709Y14.751Z26.644
X-15.646Y14.805Z26.496
X-15.6Y14.846Z26.384
X-15.584Y14.861Z26.342
X-15.513Y14.932Z26.151
X-15.449Y15.004Z25.957
X-15.417Y15.044Z25.851
X-15.363Y15.117Z25.659
X-15.337Y15.158Z25.551
X-15.327Y15.175Z25.509
X-15.293Y15.233Z25.357
X-15.25Y15.321Z25.13
X-15.233Y15.364Z25.019
X-15.211Y15.427Z24.861
X-15.192Y15.5Z24.675
X-15.181Y15.558Z24.532
X-15.171Y15.635Z24.338
X-15.169Y15.696Z24.189
X-15.168Y15.775Z23.997
Y16.189Z22.997
Y16.228Z22.901
Y16.272Z22.797
Y16.428Z22.418
Y18.26Z17.997
Y30.686Z-12.003
Y30.769Z-12.203
X-15.169Y30.85Z-12.391
X-15.174Y30.904Z-12.52
X-15.186Y30.973Z-12.68
X-15.204Y31.038Z-12.832
X-15.228Y31.105Z-12.984
X-15.239Y31.129Z-13.042
X-15.255Y31.163Z-13.118
X-15.289Y31.227Z-13.263
X-15.326Y31.286Z-13.396
X-15.334Y31.299Z-13.424
X-15.387Y31.371Z-13.584
X-15.443Y31.437Z-13.733
X-15.502Y31.502Z-13.875
X-15.587Y31.585Z-14.055
X-15.645Y31.637Z-14.166
X-15.728Y31.709Z-14.308
X-15.768Y31.74Z-14.372
X-15.812Y31.774Z-14.442
X-15.9Y31.835Z-14.574
X-15.991Y31.89Z-14.707
X-16.048Y31.922Z-14.786
X-16.081Y31.937Z-14.831
X-16.167Y31.977Z-14.948
X-16.256Y32.011Z-15.063
X-16.355Y32.044Z-15.186
X-16.464Y32.075Z-15.315
X-16.576Y32.1Z-15.442
X-16.674Y32.113Z-15.552
X-16.757Y32.127Z-15.636
X-16.79Y32.14Z-15.662
X-16.973Y32.227Z-15.827
X-17.13Y32.329Z-16.009
X-17.259Y32.443Z-16.206
X-17.358Y32.567Z-16.415
X-17.424Y32.699Z-16.631
X-17.456Y32.837Z-16.851
X-17.455Y32.978Z-17.071
X-17.419Y33.121Z-17.287
X-17.35Y33.262Z-17.496
X-17.249Y33.399Z-17.695
X-13.519Y32.237Z-13.505
X-13.596Y32.026Z-13.639
X-13.695Y31.836Z-13.789
X-13.814Y31.671Z-13.953
X-13.951Y31.533Z-14.128
X-14.103Y31.424Z-14.311
X-14.268Y31.347Z-14.499
X-14.444Y31.302Z-14.688
X-14.626Y31.29Z-14.875
X-14.812Y31.313Z-15.058
X-14.999Y31.368Z-15.232
X-15.Y31.369Z-15.233
X-15.108Y31.41Z-15.332
X-15.186Y31.437Z-15.4
X-15.218Y31.447Z-15.43
X-15.328Y31.478Z-15.527
X-15.439Y31.503Z-15.625
X-15.555Y31.525Z-15.726
X-15.675Y31.541Z-15.828
X-15.8Y31.553Z-15.93
X-15.914Y31.56Z-16.037
X-16.061Y31.583Z-16.079
X-16.176Y31.604Z-16.126
X-16.41Y31.663Z-16.227
X-16.633Y31.754Z-16.33
X-16.839Y31.876Z-16.435
X-17.027Y32.025Z-16.539
X-17.192Y32.201Z-16.642
X-17.331Y32.399Z-16.74
X-17.443Y32.616Z-16.833
X-17.525Y32.849Z-16.919
X-17.576Y33.094Z-16.997
X-17.596Y33.346Z-17.064
G00X10.
Y12.703Z31.366
X-16.912
G01X-17.912F1200.
X-17.911Y12.605Z31.124
X-17.888Y12.533Z30.873
X-17.844Y12.488Z30.619
X-17.78Y12.47Z30.367
X-17.696Y12.48Z30.119
X-17.594Y12.517Z29.881
X-17.476Y12.581Z29.656
X-17.345Y12.671Z29.449
X-17.201Y12.786Z29.263
X-17.048Y12.923Z29.101
X-16.994Y12.973Z29.05
X-16.913Y13.005Z29.016
X-16.898Y13.007Z29.013
X-16.711Y13.079Z28.912
X-16.592Y13.101Z28.863
X-16.571Y13.109Z28.851
X-16.486Y13.15Z28.796
X-16.395Y13.189Z28.738
X-16.296Y13.228Z28.674
X-16.185Y13.272Z28.598
X-16.043Y13.324Z28.496
X-15.961Y13.351Z28.438
X-15.89Y13.374Z28.383
X-15.745Y13.416Z28.272
X-15.712Y13.426Z28.244
X-15.602Y13.453Z28.156
X-15.466Y13.488Z28.043
X-15.407Y13.5Z28.
X-15.344Y13.521Z27.936
X-15.217Y13.587Z27.749
X-15.077Y13.672Z27.514
X-15.Y13.722Z27.376
X-14.992Y13.727Z27.363
X-14.87Y13.822Z27.152
X-14.746Y13.946Z26.958
X-14.624Y14.099Z26.783
X-14.506Y14.276Z26.632
X-14.393Y14.476Z26.506
X-14.287Y14.694Z26.408
X-14.191Y14.928Z26.34
X-14.105Y15.172Z26.301
X-14.032Y15.423Z26.295
X-13.972Y15.676Z26.319
X-18.17Y12.435Z31.187
X-18.266Y12.528Z30.961
X-18.329Y12.631Z30.73
X-18.36Y12.744Z30.496
X-18.357Y12.865Z30.264
X-18.321Y12.991Z30.037
X-18.252Y13.12Z29.82
X-18.152Y13.25Z29.617
X-18.022Y13.379Z29.43
X-17.865Y13.504Z29.263
X-17.682Y13.624Z29.119
X-17.595Y13.677Z29.059
X-17.507Y13.716Z28.991
X-17.498Y13.717Z28.984
X-17.384Y13.766Z28.891
X-17.293Y13.805Z28.812
X-17.278Y13.811Z28.799
X-17.201Y13.848Z28.732
X-17.113Y13.895Z28.65
X-17.036Y13.927Z28.576
X-16.931Y13.979Z28.469
X-16.809Y14.035Z28.339
X-16.746Y14.062Z28.267
X-16.686Y14.09Z28.199
X-16.572Y14.137Z28.06
X-16.539Y14.153Z28.019
X-16.446Y14.189Z27.898
X-16.332Y14.235Z27.743
X-16.298Y14.245Z27.693
X-16.241Y14.27Z27.609
X-16.141Y14.321Z27.456
X-16.015Y14.393Z27.25
X-15.934Y14.444Z27.106
X-15.853Y14.497Z26.956
X-15.773Y14.554Z26.797
X-15.684Y14.623Z26.607
X-15.62Y14.678Z26.458
X-15.574Y14.719Z26.346
X-15.558Y14.735Z26.303
X-15.487Y14.806Z26.113
X-15.422Y14.879Z25.917
X-15.389Y14.919Z25.81
X-15.335Y14.994Z25.618
X-15.309Y15.034Z25.509
X-15.299Y15.052Z25.467
X-15.264Y15.11Z25.314
X-15.221Y15.199Z25.086
X-15.204Y15.243Z24.975
X-15.181Y15.306Z24.815
X-15.162Y15.38Z24.629
X-15.151Y15.439Z24.485
X-15.141Y15.517Z24.289
X-15.138Y15.578Z24.14
Y15.656Z23.948
X-15.139Y16.071Z22.948
X-15.138Y16.11Z22.852
X-15.139Y16.154Z22.748
X-15.138Y16.31Z22.369
X-15.139Y18.142Z17.948
X-15.138Y30.568Z-12.052
X-15.139Y30.651Z-12.252
Y30.733Z-12.44
X-15.144Y30.789Z-12.571
X-15.156Y30.858Z-12.731
X-15.173Y30.925Z-12.884
X-15.198Y30.992Z-13.037
X-15.208Y31.017Z-13.096
X-15.225Y31.052Z-13.173
X-15.259Y31.117Z-13.32
X-15.296Y31.176Z-13.452
X-15.305Y31.189Z-13.482
X-15.358Y31.262Z-13.643
X-15.414Y31.329Z-13.792
X-15.475Y31.395Z-13.936
X-15.56Y31.479Z-14.118
X-15.619Y31.532Z-14.23
X-15.7Y31.604Z-14.368
X-15.782Y31.671Z-14.496
X-15.869Y31.733Z-14.624
X-15.958Y31.789Z-14.751
X-16.014Y31.823Z-14.827
X-16.046Y31.839Z-14.871
X-16.132Y31.882Z-14.984
X-16.22Y31.918Z-15.095
X-16.318Y31.953Z-15.214
X-16.426Y31.987Z-15.339
X-16.538Y32.015Z-15.463
X-16.636Y32.029Z-15.571
X-16.721Y32.05Z-15.653
X-16.758Y32.067Z-15.682
X-16.942Y32.163Z-15.842
X-17.099Y32.271Z-16.021
X-17.228Y32.392Z-16.214
X-17.327Y32.522Z-16.418
X-17.393Y32.66Z-16.631
X-17.425Y32.803Z-16.848
X-17.423Y32.948Z-17.065
X-17.387Y33.093Z-17.279
X-17.318Y33.237Z-17.487
X-17.216Y33.375Z-17.685
X-13.536Y32.042Z-13.273
X-13.615Y31.841Z-13.421
X-13.714Y31.662Z-13.584
X-13.832Y31.509Z-13.76
X-13.968Y31.385Z-13.946
X-14.118Y31.29Z-14.138
X-14.281Y31.227Z-14.333
X-14.453Y31.197Z-14.528
X-14.631Y31.2Z-14.719
X-14.813Y31.237Z-14.904
X-14.996Y31.306Z-15.078
X-15.Y31.308Z-15.082
X-15.102Y31.357Z-15.177
X-15.208Y31.402Z-15.276
X-15.284Y31.43Z-15.344
X-15.315Y31.442Z-15.375
X-15.421Y31.475Z-15.472
X-15.528Y31.504Z-15.569
X-15.64Y31.527Z-15.671
X-15.758Y31.547Z-15.774
X-15.88Y31.562Z-15.878
X-15.99Y31.577Z-15.985
X-16.129Y31.604Z-16.031
X-16.237Y31.627Z-16.078
X-16.468Y31.694Z-16.182
X-16.686Y31.792Z-16.288
X-16.887Y31.92Z-16.396
X-17.068Y32.076Z-16.502
X-17.226Y32.257Z-16.605
X-17.359Y32.46Z-16.703
X-17.463Y32.682Z-16.795
X-17.538Y32.918Z-16.879
X-17.581Y33.165Z-16.954
X-17.592Y33.418Z-17.018
G00X10.
Y12.867Z31.371
X-16.924
G01X-17.924F1200.
X-17.932Y12.76Z31.133
X-17.918Y12.678Z30.885
X-17.882Y12.622Z30.632
X-17.825Y12.593Z30.378
X-17.748Y12.592Z30.128
X-17.652Y12.618Z29.886
X-17.539Y12.671Z29.656
X-17.411Y12.75Z29.442
X-17.27Y12.854Z29.247
X-17.119Y12.981Z29.076
X-17.064Y13.029Z29.021
X-16.985Y13.056Z28.977
X-16.971Y13.057Z28.974
X-16.792Y13.131Z28.876
X-16.676Y13.154Z28.824
X-16.656Y13.16Z28.811
X-16.574Y13.198Z28.753
X-16.484Y13.237Z28.691
X-16.471Y13.242Z28.683
X-16.388Y13.274Z28.627
X-16.28Y13.317Z28.547
X-16.141Y13.367Z28.442
X-16.062Y13.391Z28.383
X-15.994Y13.414Z28.327
X-15.853Y13.452Z28.214
X-15.819Y13.461Z28.184
X-15.712Y13.489Z28.094
X-15.578Y13.524Z27.98
X-15.522Y13.537Z27.938
X-15.46Y13.558Z27.873
X-15.335Y13.622Z27.69
X-15.197Y13.706Z27.459
X-15.113Y13.76Z27.308
X-15.016Y13.827Z27.127
X-15.Y13.839Z27.094
X-14.927Y13.893Z26.948
X-14.814Y13.99Z26.733
X-14.7Y14.118Z26.534
X-14.588Y14.272Z26.356
X-14.478Y14.452Z26.201
X-14.374Y14.654Z26.072
X-14.275Y14.875Z25.97
X-14.186Y15.11Z25.899
X-14.106Y15.355Z25.858
X-14.037Y15.608Z25.85
X-13.98Y15.862Z25.873
X-18.121Y12.307Z31.108
X-18.219Y12.409Z30.887
X-18.285Y12.521Z30.66
X-18.318Y12.642Z30.431
Y12.77Z30.203
X-18.284Y12.902Z29.979
X-18.217Y13.036Z29.765
X-18.118Y13.171Z29.563
X-17.989Y13.303Z29.378
X-17.832Y13.43Z29.212
X-17.65Y13.551Z29.068
X-17.566Y13.601Z29.01
X-17.481Y13.636Z28.944
X-17.472Y13.637Z28.936
X-17.352Y13.685Z28.838
X-17.246Y13.724Z28.745
X-17.171Y13.759Z28.678
X-17.083Y13.802Z28.597
X-17.006Y13.831Z28.523
X-16.903Y13.879Z28.417
X-16.783Y13.929Z28.288
X-16.721Y13.953Z28.217
X-16.662Y13.979Z28.15
X-16.551Y14.021Z28.013
X-16.518Y14.035Z27.972
X-16.428Y14.067Z27.854
X-16.317Y14.108Z27.701
X-16.285Y14.116Z27.652
X-16.229Y14.139Z27.57
X-16.128Y14.19Z27.416
X-16.002Y14.263Z27.21
X-15.92Y14.314Z27.067
X-15.839Y14.368Z26.916
X-15.758Y14.425Z26.756
X-15.668Y14.496Z26.567
X-15.604Y14.55Z26.416
X-15.557Y14.592Z26.305
X-15.469Y14.68Z26.07
X-15.404Y14.754Z25.874
X-15.371Y14.794Z25.767
X-15.317Y14.869Z25.574
X-15.29Y14.91Z25.465
X-15.28Y14.928Z25.423
X-15.245Y14.987Z25.269
X-15.201Y15.076Z25.04
X-15.184Y15.121Z24.928
X-15.161Y15.184Z24.768
X-15.141Y15.259Z24.582
X-15.13Y15.318Z24.436
X-15.12Y15.397Z24.24
X-15.117Y15.458Z24.091
X-15.116Y15.62Z23.699
Y30.449Z-12.101
Y30.532Z-12.301
X-15.117Y30.614Z-12.489
X-15.122Y30.671Z-12.622
X-15.134Y30.742Z-12.783
X-15.152Y30.809Z-12.936
X-15.176Y30.878Z-13.09
X-15.187Y30.903Z-13.149
X-15.204Y30.938Z-13.227
X-15.238Y31.004Z-13.375
X-15.275Y31.064Z-13.508
X-15.284Y31.077Z-13.537
X-15.337Y31.151Z-13.699
X-15.393Y31.219Z-13.85
X-15.455Y31.286Z-13.995
X-15.541Y31.37Z-14.178
X-15.6Y31.424Z-14.291
X-15.679Y31.496Z-14.425
X-15.759Y31.564Z-14.548
X-15.843Y31.628Z-14.67
X-15.93Y31.686Z-14.793
X-15.985Y31.722Z-14.866
X-16.016Y31.738Z-14.908
X-16.101Y31.783Z-15.017
X-16.188Y31.822Z-15.124
X-16.285Y31.86Z-15.24
X-16.392Y31.897Z-15.362
X-16.5Y31.929Z-15.484
X-16.594Y31.949Z-15.593
X-16.68Y31.977Z-15.674
X-16.723Y31.998Z-15.706
X-16.907Y32.101Z-15.861
X-17.066Y32.222Z-16.03
X-17.197Y32.359Z-16.21
X-17.298Y32.51Z-16.398
X-17.367Y32.673Z-16.591
X-17.402Y32.844Z-16.786
X-17.404Y33.02Z-16.979
X-17.373Y33.199Z-17.168
X-17.308Y33.377Z-17.348
X-17.211Y33.552Z-17.516
X-13.675Y31.854Z-12.8
X-13.744Y31.656Z-12.957
X-13.83Y31.481Z-13.132
X-13.931Y31.333Z-13.322
X-14.046Y31.214Z-13.525
X-14.172Y31.125Z-13.736
X-14.309Y31.069Z-13.952
X-14.453Y31.047Z-14.169
X-14.601Y31.058Z-14.384
X-14.752Y31.103Z-14.593
X-14.903Y31.18Z-14.793
X-15.Y31.241Z-14.919
X-15.002Y31.242Z-14.921
X-15.045Y31.265Z-14.967
X-15.205Y31.344Z-15.122
X-15.309Y31.393Z-15.222
X-15.381Y31.422Z-15.288
X-15.411Y31.435Z-15.32
X-15.514Y31.471Z-15.416
X-15.617Y31.502Z-15.514
X-15.726Y31.529Z-15.616
X-15.841Y31.551Z-15.72
X-15.959Y31.574Z-15.825
X-16.066Y31.595Z-15.933
X-16.198Y31.626Z-15.983
X-16.298Y31.651Z-16.029
X-16.525Y31.724Z-16.137
X-16.738Y31.829Z-16.247
X-16.934Y31.964Z-16.357
X-17.108Y32.126Z-16.465
X-17.26Y32.312Z-16.569
X-17.385Y32.52Z-16.668
X-17.482Y32.745Z-16.759
X-17.548Y32.984Z-16.842
X-17.584Y33.233Z-16.914
X-17.588Y33.487Z-16.975
G00X10.
Y13.003Z31.365
X-16.95
G01X-17.95F1200.
X-17.964Y12.89Z31.129
X-17.957Y12.801Z30.883
X-17.927Y12.738Z30.631
X-17.876Y12.701Z30.377
X-17.804Y12.691Z30.126
X-17.713Y12.708Z29.881
X-17.604Y12.753Z29.648
X-17.479Y12.824Z29.429
X-17.34Y12.92Z29.229
X-17.19Y13.039Z29.052
X-17.135Y13.086Z28.992
X-17.056Y13.111Z28.944
X-17.043Y13.112Z28.94
X-16.872Y13.179Z28.837
X-16.76Y13.206Z28.784
X-16.741Y13.212Z28.771
X-16.661Y13.246Z28.708
X-16.573Y13.284Z28.643
X-16.481Y13.319Z28.578
X-16.375Y13.36Z28.495
X-16.24Y13.407Z28.386
X-16.164Y13.43Z28.326
X-16.097Y13.451Z28.269
X-15.96Y13.487Z28.154
X-15.927Y13.496Z28.123
X-15.822Y13.525Z28.032
X-15.69Y13.561Z27.916
X-15.637Y13.573Z27.875
X-15.576Y13.595Z27.809
X-15.454Y13.657Z27.631
X-15.317Y13.739Z27.404
X-15.233Y13.794Z27.254
X-15.139Y13.859Z27.077
X-15.05Y13.923Z26.901
X-15.Y13.964Z26.792
X-14.958Y13.998Z26.701
X-14.853Y14.097Z26.483
X-14.747Y14.226Z26.281
X-14.642Y14.383Z26.1
X-14.539Y14.565Z25.942
X-14.441Y14.768Z25.81
X-14.349Y14.99Z25.707
X-14.264Y15.226Z25.633
X-14.188Y15.473Z25.591
X-14.123Y15.726Z25.581
X-14.069Y15.981Z25.603
X-18.094Y12.172Z31.014
X-18.193Y12.285Z30.799
X-18.259Y12.407Z30.577
X-18.293Y12.538Z30.353
X-18.292Y12.674Z30.13
X-18.258Y12.813Z29.911
X-18.191Y12.954Z29.701
X-18.092Y13.093Z29.503
X-17.963Y13.228Z29.32
X-17.805Y13.357Z29.156
X-17.622Y13.478Z29.013
X-17.541Y13.526Z28.958
X-17.458Y13.557Z28.894
X-17.449Y13.558Z28.886
X-17.324Y13.605Z28.781
X-17.218Y13.638Z28.688
X-17.056Y13.71Z28.54
X-17.047Y13.712Z28.531
X-16.982Y13.736Z28.465
X-16.88Y13.779Z28.361
X-16.763Y13.824Z28.233
X-16.701Y13.846Z28.163
X-16.644Y13.868Z28.097
X-16.536Y13.905Z27.961
X-16.504Y13.918Z27.921
X-16.417Y13.946Z27.804
X-16.31Y13.983Z27.655
X-16.279Y13.988Z27.607
X-16.226Y14.01Z27.527
X-16.124Y14.061Z27.372
X-15.997Y14.134Z27.166
X-15.914Y14.186Z27.023
X-15.833Y14.24Z26.872
X-15.751Y14.298Z26.712
X-15.661Y14.368Z26.522
X-15.597Y14.424Z26.371
X-15.55Y14.465Z26.26
X-15.461Y14.554Z26.025
X-15.395Y14.628Z25.829
X-15.362Y14.669Z25.72
X-15.307Y14.744Z25.528
X-15.28Y14.786Z25.418
X-15.27Y14.803Z25.376
X-15.234Y14.863Z25.221
X-15.19Y14.953Z24.992
X-15.173Y14.998Z24.88
X-15.15Y15.061Z24.719
X-15.129Y15.137Z24.534
X-15.118Y15.196Z24.387
X-15.108Y15.276Z24.19
X-15.105Y15.337Z24.041
X-15.104Y15.416Z23.849
Y30.328Z-12.151
Y30.411Z-12.351
Y30.494Z-12.539
X-15.109Y30.552Z-12.672
X-15.121Y30.624Z-12.835
X-15.138Y30.692Z-12.988
X-15.163Y30.761Z-13.142
X-15.174Y30.787Z-13.202
X-15.19Y30.823Z-13.281
X-15.225Y30.89Z-13.429
X-15.27Y30.963Z-13.592
X-15.323Y31.037Z-13.754
X-15.38Y31.106Z-13.906
X-15.439Y31.175Z-14.052
X-15.522Y31.26Z-14.237
X-15.581Y31.316Z-14.351
X-15.659Y31.389Z-14.482
X-15.696Y31.421Z-14.539
X-15.737Y31.457Z-14.599
X-15.819Y31.523Z-14.716
X-15.903Y31.583Z-14.834
X-15.957Y31.62Z-14.904
X-15.987Y31.637Z-14.945
X-16.069Y31.686Z-15.05
X-16.152Y31.729Z-15.156
X-16.245Y31.772Z-15.27
X-16.347Y31.814Z-15.391
X-16.452Y31.851Z-15.512
X-16.544Y31.876Z-15.621
X-16.632Y31.911Z-15.7
X-16.682Y31.934Z-15.735
X-16.87Y32.04Z-15.883
X-17.034Y32.166Z-16.043
X-17.171Y32.312Z-16.212
X-17.279Y32.474Z-16.387
X-17.355Y32.649Z-16.565
X-17.399Y32.836Z-16.743
X-17.41Y33.03Z-16.918
X-17.387Y33.228Z-17.087
X-17.332Y33.427Z-17.248
X-17.244Y33.624Z-17.397
X-13.957Y31.742Z-12.465
X-14.015Y31.546Z-12.628
X-14.086Y31.373Z-12.811
X-14.169Y31.228Z-13.012
X-14.262Y31.111Z-13.227
X-14.364Y31.026Z-13.453
X-14.472Y30.974Z-13.685
X-14.586Y30.956Z-13.92
X-14.704Y30.972Z-14.153
X-14.822Y31.021Z-14.381
X-14.94Y31.104Z-14.6
X-15.Y31.155Z-14.71
X-15.014Y31.167Z-14.737
X-15.111Y31.229Z-14.864
X-15.154Y31.252Z-14.911
X-15.409Y31.381Z-15.167
X-15.478Y31.412Z-15.233
X-15.508Y31.426Z-15.265
X-15.607Y31.465Z-15.361
X-15.706Y31.498Z-15.458
X-15.812Y31.528Z-15.561
X-15.923Y31.557Z-15.666
X-16.038Y31.588Z-15.773
X-16.141Y31.615Z-15.882
X-16.266Y31.648Z-15.935
X-16.36Y31.675Z-15.981
X-16.582Y31.756Z-16.093
X-16.789Y31.868Z-16.206
X-16.979Y32.009Z-16.318
X-17.148Y32.177Z-16.426
X-17.293Y32.369Z-16.53
X-17.411Y32.581Z-16.626
X-17.501Y32.81Z-16.715
X-17.56Y33.053Z-16.793
X-17.589Y33.304Z-16.86
X-17.586Y33.56Z-16.915
G00X10.
Y13.136Z31.354
X-16.976
G01X-17.976F1200.
X-17.997Y13.017Z31.122
X-17.996Y12.922Z30.879
X-17.972Y12.851Z30.628
X-17.927Y12.806Z30.374
X-17.86Y12.789Z30.122
X-17.774Y12.798Z29.875
X-17.669Y12.835Z29.639
X-17.547Y12.897Z29.416
X-17.41Y12.986Z29.211
X-17.262Y13.098Z29.027
X-17.205Y13.143Z28.964
X-17.128Y13.167Z28.912
X-17.115Z28.907
X-16.953Y13.225Z28.793
X-16.845Y13.254Z28.74
X-16.826Y13.261Z28.728
X-16.749Y13.294Z28.665
X-16.662Y13.328Z28.593
X-16.574Y13.361Z28.528
X-16.469Y13.401Z28.441
X-16.339Y13.445Z28.329
X-16.265Y13.466Z28.268
X-16.2Y13.485Z28.209
X-16.068Y13.521Z28.094
X-16.035Y13.531Z28.063
X-15.932Y13.56Z27.97
X-15.803Y13.597Z27.852
X-15.752Y13.609Z27.812
X-15.691Y13.631Z27.746
X-15.572Y13.692Z27.572
X-15.437Y13.773Z27.349
X-15.353Y13.827Z27.2
X-15.261Y13.89Z27.028
X-15.174Y13.954Z26.855
X-15.082Y14.028Z26.656
X-15.008Y14.092Z26.484
X-15.Y14.1Z26.464
X-14.96Y14.136Z26.367
X-14.865Y14.238Z26.146
X-14.768Y14.37Z25.941
X-14.672Y14.529Z25.757
X-14.578Y14.713Z25.597
X-14.488Y14.918Z25.462
X-14.403Y15.142Z25.356
X-14.325Y15.38Z25.281
X-14.254Y15.628Z25.237
X-14.193Y15.882Z25.226
X-14.142Y16.138Z25.247
X-18.513Y13.104Z31.192
X-18.538Y13.049Z30.937
X-18.535Y13.013Z30.678
X-18.503Y12.996Z30.419
X-18.444Y12.999Z30.164
X-18.358Y13.022Z29.918
X-18.247Y13.064Z29.685
X-18.113Y13.125Z29.468
X-17.958Y13.203Z29.273
X-17.785Y13.297Z29.101
X-17.596Y13.406Z28.956
X-17.518Y13.452Z28.904
X-17.437Y13.48Z28.841
X-17.429Z28.833
X-17.299Y13.525Z28.722
X-17.195Y13.553Z28.626
X-17.035Y13.619Z28.48
X-17.026Y13.621Z28.471
X-16.962Y13.642Z28.404
X-16.862Y13.68Z28.301
X-16.747Y13.721Z28.174
X-16.688Y13.739Z28.104
X-16.632Y13.759Z28.039
X-16.528Y13.79Z27.905
X-16.497Y13.802Z27.866
X-16.413Y13.827Z27.751
X-16.31Y13.858Z27.604
X-16.28Y13.861Z27.558
X-16.228Y13.881Z27.48
X-16.125Y13.932Z27.325
X-15.998Y14.006Z27.119
X-15.914Y14.058Z26.976
X-15.833Y14.113Z26.825
X-15.751Y14.171Z26.665
X-15.66Y14.242Z26.475
X-15.595Y14.297Z26.324
X-15.548Y14.339Z26.213
X-15.459Y14.428Z25.978
X-15.392Y14.503Z25.781
X-15.359Y14.544Z25.673
X-15.303Y14.619Z25.48
X-15.276Y14.662Z25.37
X-15.265Y14.679Z25.328
X-15.23Y14.739Z25.173
X-15.185Y14.83Z24.944
X-15.168Y14.875Z24.832
X-15.144Y14.939Z24.67
X-15.124Y15.014Z24.484
X-15.112Y15.074Z24.337
X-15.101Y15.154Z24.139
X-15.098Y15.216Z23.991
X-15.097Y15.295Z23.798
Y15.71Z22.798
Y15.749Z22.702
Y17.781Z17.798
Y30.207Z-12.202
Y30.29Z-12.401
X-15.094Y30.349Z-12.532
X-15.092Y30.376Z-12.588
X-15.09Y30.437Z-12.722
X-15.094Y30.512Z-12.885
X-15.105Y30.583Z-13.039
X-15.123Y30.656Z-13.194
X-15.132Y30.683Z-13.255
X-15.145Y30.721Z-13.335
X-15.175Y30.791Z-13.485
X-15.216Y30.868Z-13.65
X-15.265Y30.945Z-13.815
X-15.318Y31.017Z-13.969
X-15.377Y31.088Z-14.119
X-15.461Y31.175Z-14.306
X-15.522Y31.232Z-14.423
X-15.603Y31.303Z-14.551
X-15.64Y31.335Z-14.604
X-15.683Y31.37Z-14.662
X-15.766Y31.435Z-14.774
X-15.851Y31.496Z-14.886
X-15.906Y31.534Z-14.954
X-15.934Y31.551Z-14.993
X-16.016Y31.602Z-15.094
X-16.099Y31.648Z-15.197
X-16.191Y31.694Z-15.309
X-16.292Y31.74Z-15.426
X-16.396Y31.781Z-15.545
X-16.488Y31.809Z-15.655
X-16.58Y31.849Z-15.73
X-16.636Y31.875Z-15.769
X-16.827Y31.982Z-15.912
X-16.995Y32.111Z-16.065
X-17.136Y32.261Z-16.227
X-17.249Y32.428Z-16.394
X-17.331Y32.61Z-16.563
X-17.38Y32.803Z-16.732
X-17.397Y33.005Z-16.898
X-17.38Y33.212Z-17.057
X-17.33Y33.42Z-17.207
X-17.248Y33.627Z-17.346
X-14.091Y31.625Z-12.156
X-14.144Y31.429Z-12.321
X-14.208Y31.257Z-12.508
X-14.282Y31.113Z-12.713
X-14.365Y30.998Z-12.933
X-14.455Y30.914Z-13.164
X-14.552Y30.863Z-13.402
X-14.652Y30.847Z-13.643
X-14.754Y30.864Z-13.883
X-14.858Y30.915Z-14.118
X-14.96Y30.999Z-14.343
X-15.Y31.039Z-14.431
X-15.054Y31.093Z-14.548
X-15.126Y31.154Z-14.68
X-15.22Y31.215Z-14.807
X-15.262Y31.239Z-14.855
X-15.509Y31.368Z-15.113
X-15.575Y31.4Z-15.178
X-15.605Y31.415Z-15.211
X-15.7Y31.457Z-15.306
X-15.796Y31.493Z-15.403
X-15.897Y31.528Z-15.505
X-16.117Y31.604Z-15.722
X-16.216Y31.636Z-15.83
X-16.335Y31.672Z-15.888
X-16.42Y31.7Z-15.933
X-16.638Y31.787Z-16.049
X-16.84Y31.906Z-16.166
X-17.023Y32.053Z-16.281
X-17.185Y32.226Z-16.392
X-17.322Y32.422Z-16.497
X-17.432Y32.638Z-16.594
X-17.514Y32.871Z-16.683
X-17.566Y33.115Z-16.76
X-17.586Y33.368Z-16.825
X-17.576Y33.624Z-16.877
G00X10.
Y13.265Z31.341
X-17.003
G01X-18.003F1200.
X-18.03Y13.141Z31.112
X-18.035Y13.039Z30.871
X-18.018Y12.962Z30.622
X-17.978Y12.91Z30.369
X-17.916Y12.885Z30.116
X-17.834Y12.887Z29.867
X-17.733Y12.915Z29.628
X-17.614Y12.97Z29.401
X-17.48Y13.051Z29.191
X-17.333Y13.156Z29.002
X-17.276Y13.199Z28.936
X-17.199Y13.223Z28.879
X-17.187Z28.874
X-17.033Y13.275Z28.755
X-16.929Y13.299Z28.693
X-16.912Y13.306Z28.681
X-16.836Y13.339Z28.618
X-16.751Y13.373Z28.544
X-16.667Y13.401Z28.476
X-16.564Y13.44Z28.385
X-16.437Y13.481Z28.27
X-16.366Y13.5Z28.209
X-16.304Y13.519Z28.149
X-16.175Y13.556Z28.034
X-16.143Y13.566Z28.002
X-16.041Y13.596Z27.908
X-15.915Y13.634Z27.789
X-15.867Y13.646Z27.75
X-15.807Y13.668Z27.683
X-15.691Y13.728Z27.513
X-15.557Y13.807Z27.294
X-15.474Y13.86Z27.146
X-15.384Y13.922Z26.978
X-15.297Y13.984Z26.808
X-15.206Y14.058Z26.611
X-15.134Y14.12Z26.444
X-15.086Y14.164Z26.328
X-15.064Y14.185Z26.273
X-15.Y14.251Z26.098
X-14.993Y14.259Z26.079
X-14.906Y14.362Z25.855
X-14.818Y14.496Z25.648
X-14.73Y14.657Z25.461
X-14.644Y14.842Z25.298
X-14.561Y15.049Z25.161
X-14.482Y15.274Z25.053
X-14.41Y15.513Z24.976
X-14.344Y15.762Z24.93
X-14.287Y16.017Z24.918
X-14.239Y16.274Z24.938
X-18.079Y13.225Z31.303
X-18.138Y13.139Z31.063
X-18.171Y13.074Z30.812
X-18.179Y13.03Z30.554
X-18.16Y13.008Z30.294
X-18.115Z30.036
X-18.046Y13.031Z29.785
X-17.952Y13.076Z29.545
X-17.837Y13.141Z29.32
X-17.701Y13.227Z29.113
X-17.547Y13.332Z28.93
X-17.483Y13.376Z28.862
X-17.407Y13.4Z28.798
X-17.398Z28.79
X-17.266Y13.444Z28.671
X-17.16Y13.468Z28.576
X-17.008Y13.527Z28.424
X-16.999Y13.529Z28.415
X-16.935Y13.547Z28.35
X-16.837Y13.582Z28.247
X-16.723Y13.617Z28.123
X-16.661Y13.632Z28.056
X-16.605Y13.65Z27.993
X-16.494Y13.678Z27.869
X-16.462Y13.688Z27.832
X-16.369Y13.713Z27.728
X-16.252Y13.747Z27.599
X-16.212Y13.756Z27.563
X-16.154Y13.779Z27.493
X-16.047Y13.834Z27.337
X-15.918Y13.909Z27.129
X-15.835Y13.961Z26.985
X-15.751Y14.017Z26.83
X-15.668Y14.076Z26.669
X-15.578Y14.148Z26.477
X-15.511Y14.205Z26.324
X-15.464Y14.248Z26.211
X-15.445Y14.265Z26.165
X-15.373Y14.338Z25.974
X-15.306Y14.414Z25.774
X-15.271Y14.457Z25.662
X-15.216Y14.532Z25.47
X-15.187Y14.577Z25.356
X-15.141Y14.656Z25.156
X-15.096Y14.747Z24.925
X-15.078Y14.793Z24.811
X-15.055Y14.858Z24.647
X-15.034Y14.934Z24.46
X-15.023Y14.996Z24.31
X-15.011Y15.078Z24.109
X-15.008Y15.139Z23.96
X-15.007Y15.219Z23.767
Y15.673Z22.671
Y30.073Z-12.093
Y30.131Z-12.233
X-15.005Y30.215Z-12.433
X-15.001Y30.267Z-12.567
X-14.999Y30.293Z-12.623
X-14.996Y30.358Z-12.761
X-15.Y30.436Z-12.928
X-15.011Y30.508Z-13.083
X-15.03Y30.582Z-13.242
X-15.039Y30.611Z-13.304
X-15.053Y30.65Z-13.386
X-15.084Y30.721Z-13.54
X-15.117Y30.784Z-13.675
X-15.126Y30.799Z-13.708
X-15.177Y30.877Z-13.875
X-15.232Y30.95Z-14.033
X-15.294Y31.021Z-14.186
X-15.38Y31.11Z-14.377
X-15.444Y31.168Z-14.497
X-15.528Y31.236Z-14.622
X-15.566Y31.266Z-14.673
X-15.61Y31.3Z-14.729
X-15.696Y31.363Z-14.835
X-15.783Y31.423Z-14.943
X-15.839Y31.461Z-15.008
X-15.868Y31.479Z-15.046
X-15.952Y31.53Z-15.144
X-16.036Y31.578Z-15.244
X-16.129Y31.626Z-15.352
X-16.23Y31.674Z-15.466
X-16.335Y31.717Z-15.583
X-16.427Y31.749Z-15.692
X-16.524Y31.792Z-15.764
X-16.587Y31.821Z-15.805
X-16.782Y31.928Z-15.942
X-16.955Y32.059Z-16.088
X-17.103Y32.213Z-16.239
X-17.223Y32.386Z-16.394
X-17.313Y32.577Z-16.55
X-17.372Y32.78Z-16.703
X-17.399Y32.994Z-16.851
X-17.392Y33.214Z-16.993
X-17.353Y33.437Z-17.124
X-17.282Y33.658Z-17.244
X-14.224Y31.457Z-11.726
X-14.271Y31.262Z-11.893
X-14.326Y31.091Z-12.083
X-14.39Y30.947Z-12.292
X-14.46Y30.833Z-12.517
X-14.536Y30.75Z-12.753
X-14.616Y30.701Z-12.997
X-14.699Y30.686Z-13.245
X-14.783Y30.704Z-13.492
X-14.867Y30.757Z-13.734
X-14.95Y30.842Z-13.967
X-15.Y30.905Z-14.106
X-15.01Y30.917Z-14.133
X-15.076Y30.99Z-14.296
X-15.168Y31.081Z-14.496
X-15.238Y31.141Z-14.624
X-15.329Y31.201Z-14.75
X-15.37Y31.225Z-14.799
X-15.609Y31.354Z-15.059
X-15.673Y31.386Z-15.123
X-15.702Y31.403Z-15.157
X-15.793Y31.447Z-15.252
X-15.983Y31.531Z-15.45
X-16.088Y31.577Z-15.559
X-16.196Y31.621Z-15.67
X-16.291Y31.658Z-15.779
X-16.402Y31.697Z-15.841
X-16.48Y31.728Z-15.886
X-16.687Y31.828Z-16.011
X-16.874Y31.956Z-16.141
X-17.039Y32.11Z-16.273
X-17.179Y32.288Z-16.406
X-17.292Y32.485Z-16.535
X-17.375Y32.699Z-16.661
X-17.427Y32.926Z-16.779
X-17.447Y33.163Z-16.889
X-17.435Y33.405Z-16.989
X-17.391Y33.647Z-17.076
G00X10.
Y13.413Z31.317
X-17.051
G01X-18.051F1200.
X-18.081Y13.281Z31.093
X-18.089Y13.17Z30.856
X-18.074Y13.083Z30.61
X-18.036Y13.022Z30.358
X-17.977Y12.987Z30.106
X-17.898Y12.979Z29.857
X-17.799Y12.999Z29.615
X-17.682Y13.045Z29.386
X-17.55Y13.117Z29.172
X-17.404Y13.214Z28.978
X-17.346Y13.256Z28.907
X-17.27Y13.279Z28.846
X-17.259Z28.841
X-17.113Y13.327Z28.719
X-17.013Y13.348Z28.65
X-16.997Y13.353Z28.637
X-16.924Y13.381Z28.569
X-16.841Y13.415Z28.492
X-16.83Y13.418Z28.484
X-16.76Y13.441Z28.423
X-16.659Y13.476Z28.327
X-16.536Y13.515Z28.21
X-16.467Y13.534Z28.149
X-16.407Y13.554Z28.089
X-16.283Y13.59Z27.975
X-16.251Y13.601Z27.941
X-16.151Y13.631Z27.846
X-16.028Y13.671Z27.725
X-15.982Y13.682Z27.687
X-15.923Y13.705Z27.619
X-15.81Y13.763Z27.455
X-15.678Y13.84Z27.239
X-15.594Y13.893Z27.092
X-15.506Y13.953Z26.929
X-15.421Y14.015Z26.762
X-15.33Y14.087Z26.566
X-15.259Y14.148Z26.404
X-15.212Y14.192Z26.289
X-15.191Y14.211Z26.237
X-15.12Y14.285Z26.044
X-15.05Y14.365Z25.835
X-15.013Y14.411Z25.715
X-15.Y14.429Z25.67
X-14.958Y14.487Z25.52
X-14.891Y14.594Z25.291
X-14.822Y14.731Z25.079
X-14.752Y14.896Z24.888
X-14.683Y15.085Z24.721
X-14.616Y15.295Z24.58
X-14.552Y15.522Z24.468
X-14.492Y15.764Z24.388
X-14.437Y16.015Z24.34
X-14.389Y16.272Z24.325
X-14.347Y16.529Z24.344
G00X10.
Y1.687Z21.554
X-12.572
G01X-13.572F1200.
X-13.646Y1.886Z21.706
X-13.74Y2.062Z21.876
X-13.851Y2.213Z22.059
X-13.978Y2.334Z22.252
X-14.118Y2.426Z22.453
X-14.269Y2.485Z22.659
X-14.429Y2.511Z22.864
X-14.595Y2.503Z23.067
X-14.763Y2.462Z23.262
X-14.931Y2.388Z23.448
X-15.Y2.351Z23.522
X-15.07Y2.313Z23.598
X-15.132Y2.291Z23.645
X-15.21Y2.264Z23.699
X-15.353Y2.223Z23.797
X-15.492Y2.187Z23.896
X-15.561Y2.172Z23.942
X-15.633Y2.156Z23.994
X-15.777Y2.13Z24.092
X-15.919Y2.109Z24.191
X-16.065Y2.091Z24.29
X-16.215Y2.08Z24.388
X-16.366Y2.072Z24.487
X-16.522Y2.07Z24.586
X-16.688Y2.072Z24.683
X-16.819Y2.064Z24.717
X-17.034Y2.048Z24.793
X-17.236Y2.013Z24.826
X-17.436Y1.973Z24.873
X-17.681Y1.907Z24.937
X-17.913Y1.811Z25.01
X-18.129Y1.687Z25.092
X-18.323Y1.536Z25.181
X-18.493Y1.362Z25.276
X-18.637Y1.166Z25.374
X-18.751Y.954Z25.475
X-18.834Y.727Z25.577
X-18.884Y.491Z25.677
X-18.901Y.249Z25.775
G00X10.
Y-17.412Z21.732
X-17.692
G01X-18.692F1200.
X-18.636Y-17.616Z21.578
X-18.547Y-17.811Z21.429
X-18.427Y-17.994Z21.286
X-18.277Y-18.162Z21.152
X-18.101Y-18.311Z21.029
X-17.901Y-18.44Z20.92
X-17.681Y-18.546Z20.827
X-17.444Y-18.627Z20.75
X-17.195Y-18.682Z20.691
X-16.938Y-18.71Z20.652
X-16.827Y-18.716Z20.64
X-16.786Y-18.683Z20.583
X-16.741Y-18.656Z20.529
X-16.655Y-18.659Z20.506
X-16.46Y-18.621Z20.389
X-16.341Y-18.618Z20.359
X-16.182Y-18.585Z20.255
X-16.025Y-18.558Z20.154
X-15.874Y-18.535Z20.053
X-15.73Y-18.519Z19.951
X-15.68Y-18.515Z19.917
X-15.589Y-18.507Z19.85
X-15.45Y-18.5Z19.749
X-15.315Y-18.497Z19.648
X-15.182Y-18.499Z19.547
X-15.054Y-18.505Z19.444
X-15.Y-18.51Z19.376
X-14.928Y-18.516Z19.286
X-14.763Y-18.512Z19.083
X-14.599Y-18.473Z18.883
X-14.437Y-18.402Z18.69
X-14.281Y-18.298Z18.508
X-14.133Y-18.164Z18.338
X-13.996Y-18.002Z18.185
X-13.872Y-17.815Z18.051
X-13.763Y-17.605Z17.939
X-13.672Y-17.377Z17.849
X-13.599Y-17.135Z17.784
G00X10.
Y-31.858Z17.779
X-12.597
G01X-13.597F1200.
X-13.671Y-31.616Z17.845
X-13.763Y-31.388Z17.935
X-13.872Y-31.179Z18.049
X-13.996Y-30.993Z18.183
X-14.133Y-30.831Z18.337
X-14.281Y-30.698Z18.506
X-14.437Y-30.595Z18.69
X-14.599Y-30.525Z18.883
X-14.763Y-30.488Z19.083
X-14.928Y-30.484Z19.286
X-15.Y-30.491Z19.377
X-15.054Y-30.495Z19.444
X-15.182Y-30.502Z19.547
X-15.315Y-30.504Z19.648
X-15.449Y-30.501Z19.749
X-15.588Y-30.494Z19.85
X-15.729Y-30.482Z19.951
X-15.873Y-30.465Z20.053
X-16.025Y-30.443Z20.154
X-16.181Y-30.416Z20.255
X-16.343Y-30.383Z20.357
X-16.514Y-30.343Z20.46
X-16.627Y-30.322Z20.516
X-16.895Y-30.296Z20.607
X-17.127Y-30.29Z20.685
X-17.435Y-30.323Z20.765
X-17.682Y-30.363Z20.842
X-17.917Y-30.426Z20.939
X-18.135Y-30.513Z21.056
X-18.332Y-30.621Z21.189
X-18.505Y-30.748Z21.338
X-18.652Y-30.893Z21.499
X-18.77Y-31.053Z21.669
X-18.856Y-31.225Z21.846
X-18.909Y-31.407Z22.027
X-18.929Y-31.595Z22.208
G00X10.
Y-31.315Z-30.032
X-16.613
G01X-17.613F1200.
X-17.568Y-31.121Z-29.863
X-17.491Y-30.939Z-29.691
X-17.384Y-30.773Z-29.519
X-17.248Y-30.626Z-29.351
X-17.086Y-30.5Z-29.189
X-16.901Y-30.397Z-29.036
X-16.695Y-30.319Z-28.894
X-16.472Y-30.267Z-28.767
X-16.237Y-30.242Z-28.656
X-15.992Y-30.245Z-28.563
X-15.788Y-30.259Z-28.494
X-15.683Y-30.263Z-28.469
X-15.638Y-30.274Z-28.443
X-15.535Y-30.307Z-28.365
X-15.39Y-30.343Z-28.265
X-15.311Y-30.36Z-28.208
X-15.253Y-30.372Z-28.164
X-15.123Y-30.397Z-28.064
X-15.Y-30.417Z-27.965
X-14.998Z-27.964
X-14.795Y-30.465Z-27.806
X-14.593Y-30.546Z-27.661
X-14.394Y-30.657Z-27.531
X-14.204Y-30.796Z-27.419
X-14.024Y-30.962Z-27.325
X-13.859Y-31.151Z-27.252
X-13.71Y-31.36Z-27.201
X-13.581Y-31.586Z-27.173
X-13.473Y-31.824Z-27.168
X-13.389Y-32.071Z-27.187
X-17.215Y-31.166Z-30.658
X-17.317Y-31.114Z-30.422
X-17.39Y-31.074Z-30.174
X-17.433Y-31.049Z-29.918
X-17.445Y-31.037Z-29.656
X-17.426Y-31.04Z-29.396
X-17.376Y-31.057Z-29.139
X-17.296Y-31.087Z-28.892
X-17.187Y-31.132Z-28.658
X-17.052Y-31.188Z-28.442
X-16.893Y-31.257Z-28.246
X-16.851Y-31.275Z-28.201
X-16.79Y-31.303Z-28.131
X-16.752Y-31.317Z-28.089
X-16.678Y-31.345Z-28.001
X-16.573Y-31.381Z-27.871
X-16.496Y-31.406Z-27.77
X-16.463Y-31.412Z-27.728
X-16.357Y-31.441Z-27.581
X-16.255Y-31.462Z-27.431
X-16.162Y-31.479Z-27.286
X-16.129Y-31.483Z-27.233
X-16.08Y-31.491Z-27.151
X-16.001Y-31.498Z-27.015
X-15.922Y-31.501Z-26.876
X-15.838Y-31.498Z-26.72
X-15.759Y-31.492Z-26.563
X-15.689Y-31.486Z-26.411
X-15.633Y-31.481Z-26.278
X-15.582Y-31.477Z-26.148
X-15.526Y-31.473Z-25.987
X-15.477Y-31.469Z-25.825
X-15.443Y-31.466Z-25.695
X-15.42Y-31.464Z-25.603
X-15.379Y-31.462Z-25.402
X-15.355Y-31.46Z-25.251
X-15.339Y-31.459Z-25.132
X-15.323Z-24.976
X-15.314Z-24.814
X-15.311Z-24.699
Y-31.46Z-24.513
Z14.487
Y-31.461Z14.877
X-15.314Y-31.463Z15.056
X-15.321Y-31.465Z15.207
X-15.33Y-31.468Z15.355
X-15.347Y-31.471Z15.538
X-15.362Y-31.474Z15.671
X-15.387Y-31.478Z15.854
X-15.412Y-31.482Z16.003
X-15.44Y-31.487Z16.158
X-15.479Y-31.493Z16.337
X-15.512Y-31.498Z16.471
X-15.557Y-31.504Z16.646
X-15.604Y-31.51Z16.806
X-15.647Y-31.516Z16.943
X-15.713Y-31.524Z17.136
X-15.768Y-31.531Z17.279
X-15.826Y-31.539Z17.428
X-15.907Y-31.549Z17.616
X-15.972Y-31.557Z17.755
X-16.046Y-31.566Z17.909
X-16.144Y-31.577Z18.093
X-16.223Y-31.586Z18.233
X-16.31Y-31.597Z18.382
X-16.427Y-31.61Z18.567
X-16.524Y-31.617Z18.712
X-16.616Y-31.619Z18.851
X-16.739Y-31.618Z19.026
X-16.852Y-31.612Z19.179
X-16.952Y-31.601Z19.313
X-17.079Y-31.585Z19.475
X-17.21Y-31.564Z19.631
X-17.322Y-31.538Z19.763
X-17.454Y-31.507Z19.91
X-17.612Y-31.464Z20.074
X-17.674Y-31.448Z20.134
X-17.83Y-31.398Z20.283
X-17.902Y-31.383Z20.344
X-18.054Y-31.354Z20.468
X-18.244Y-31.321Z20.645
X-18.41Y-31.295Z20.845
X-18.55Y-31.277Z21.066
X-18.661Y-31.268Z21.303
X-18.741Y-31.267Z21.552
X-18.789Y-31.275Z21.809
X-18.804Y-31.291Z22.069
X-18.786Y-31.315Z22.329
X-18.735Y-31.347Z22.584
X-18.652Y-31.386Z22.829
X-13.776Y-31.874Z17.384
X-13.839Y-31.631Z17.457
X-13.918Y-31.402Z17.556
X-14.011Y-31.192Z17.681
X-14.116Y-31.003Z17.829
X-14.231Y-30.84Z17.998
X-14.354Y-30.704Z18.184
X-14.484Y-30.599Z18.386
X-14.618Y-30.526Z18.598
X-14.754Y-30.486Z18.818
X-14.889Y-30.481Z19.042
X-15.Y-30.49Z19.227
X-15.006Y-30.491Z19.238
X-15.131Y-30.501Z19.396
X-15.256Y-30.51Z19.501
X-15.384Y-30.514Z19.602
X-15.515Y-30.513Z19.707
X-15.65Y-30.507Z19.81
X-15.787Y-30.497Z19.913
X-15.928Y-30.481Z20.017
X-16.076Y-30.46Z20.121
X-16.228Y-30.434Z20.224
X-16.387Y-30.402Z20.329
X-16.554Y-30.362Z20.435
X-16.664Y-30.341Z20.491
X-16.923Y-30.314Z20.588
X-17.148Y-30.307Z20.669
X-17.448Y-30.336Z20.756
X-17.693Y-30.372Z20.838
X-17.926Y-30.433Z20.941
X-18.142Y-30.516Z21.063
X-18.337Y-30.622Z21.202
X-18.509Y-30.747Z21.355
X-18.653Y-30.89Z21.519
X-18.769Y-31.049Z21.692
X-18.853Y-31.22Z21.871
X-18.904Y-31.401Z22.053
X-18.922Y-31.588Z22.235
G00X10.
Y-31.343Z-30.048
X-16.601
G01X-17.601F1200.
X-17.56Y-31.147Z-29.879
X-17.488Y-30.964Z-29.707
X-17.385Y-30.797Z-29.535
X-17.253Y-30.648Z-29.365
X-17.095Y-30.52Z-29.2
X-16.914Y-30.416Z-29.043
X-16.711Y-30.337Z-28.897
X-16.492Y-30.284Z-28.764
X-16.26Y-30.259Z-28.647
X-16.018Y-30.261Z-28.547
X-15.822Y-30.274Z-28.475
X-15.72Y-30.28Z-28.448
X-15.676Y-30.29Z-28.421
X-15.576Y-30.323Z-28.342
X-15.436Y-30.358Z-28.24
X-15.359Y-30.376Z-28.181
X-15.303Y-30.388Z-28.137
X-15.177Y-30.412Z-28.034
X-15.056Y-30.431Z-27.931
X-15.Y-30.437Z-27.881
X-14.94Y-30.444Z-27.829
X-14.743Y-30.483Z-27.661
X-14.547Y-30.555Z-27.503
X-14.355Y-30.658Z-27.358
X-14.17Y-30.79Z-27.229
X-13.996Y-30.95Z-27.117
X-13.835Y-31.135Z-27.025
X-13.691Y-31.341Z-26.954
X-13.565Y-31.565Z-26.905
X-13.46Y-31.803Z-26.88
X-13.377Y-32.052Z-26.878
G00X10.
Y-16.926Z-27.188
X-12.392
G01X-13.392F1200.
X-13.476Y-17.173Z-27.169
X-13.583Y-17.411Z-27.173
X-13.712Y-17.637Z-27.201
X-13.86Y-17.847Z-27.252
X-14.025Y-18.036Z-27.325
X-14.205Y-18.202Z-27.419
X-14.395Y-18.342Z-27.531
X-14.593Y-18.453Z-27.661
X-14.795Y-18.534Z-27.806
X-14.998Y-18.583Z-27.964
X-15.Z-27.965
X-15.123Y-18.603Z-28.064
X-15.263Y-18.63Z-28.172
X-15.391Y-18.657Z-28.265
X-15.535Y-18.693Z-28.365
X-15.603Y-18.714Z-28.416
X-15.788Y-18.741Z-28.494
X-15.992Y-18.755Z-28.563
X-16.237Y-18.758Z-28.656
X-16.472Y-18.733Z-28.767
X-16.695Y-18.681Z-28.894
X-16.901Y-18.603Z-29.036
X-17.086Y-18.5Z-29.189
X-17.248Y-18.374Z-29.351
X-17.384Y-18.227Z-29.519
X-17.491Y-18.061Z-29.691
X-17.568Y-17.879Z-29.863
X-17.613Y-17.685Z-30.032
G00X10.
Y20.871Z-22.586
X-16.311
G01X-17.311F1200.
X-17.268Y20.971Z-22.348
X-17.197Y21.051Z-22.109
X-17.1Y21.111Z-21.874
X-16.977Y21.148Z-21.646
X-16.832Y21.162Z-21.429
X-16.666Y21.153Z-21.227
X-16.483Y21.122Z-21.043
X-16.285Y21.068Z-20.881
X-16.075Y20.992Z-20.743
X-15.859Y20.897Z-20.632
X-15.835Y20.886Z-20.621
X-15.683Y20.88Z-20.598
X-15.605Y20.826Z-20.55
X-15.506Y20.775Z-20.497
X-15.422Y20.734Z-20.451
X-15.314Y20.681Z-20.388
X-15.234Y20.642Z-20.339
X-15.143Y20.6Z-20.281
X-15.037Y20.551Z-20.209
X-15.Y20.535Z-20.183
X-14.92Y20.499Z-20.126
X-14.718Y20.397Z-19.994
X-14.518Y20.269Z-19.885
X-14.321Y20.118Z-19.801
X-14.132Y19.947Z-19.743
X-13.955Y19.757Z-19.712
X-13.791Y19.554Z-19.709
X-13.643Y19.339Z-19.734
X-13.515Y19.117Z-19.786
X-13.408Y18.891Z-19.864
X-13.325Y18.666Z-19.968
X-17.17Y20.939Z-22.917
X-17.273Y20.894Z-22.681
X-17.348Y20.83Z-22.439
X-17.393Y20.75Z-22.194
X-17.408Y20.654Z-21.951
X-17.392Y20.544Z-21.714
X-17.345Y20.422Z-21.487
X-17.269Y20.291Z-21.274
X-17.165Y20.151Z-21.079
X-17.034Y20.006Z-20.905
X-16.879Y19.859Z-20.754
X-16.8Y19.785Z-20.685
X-16.73Y19.734Z-20.623
X-16.649Y19.668Z-20.544
X-16.591Y19.626Z-20.486
X-16.497Y19.548Z-20.384
X-16.451Y19.516Z-20.333
X-16.369Y19.448Z-20.235
X-16.317Y19.411Z-20.171
X-16.288Y19.387Z-20.133
X-16.206Y19.323Z-20.022
X-16.132Y19.268Z-19.919
X-16.102Y19.246Z-19.875
X-16.007Y19.177Z-19.73
X-15.946Y19.134Z-19.632
X-15.919Y19.114Z-19.586
X-15.831Y19.054Z-19.435
X-15.749Y18.998Z-19.281
X-15.748Z-19.28
X-15.674Y18.941Z-19.127
X-15.607Y18.882Z-18.971
X-15.577Y18.854Z-18.898
X-15.507Y18.78Z-18.704
X-15.462Y18.724Z-18.56
X-15.42Y18.662Z-18.402
X-15.385Y18.6Z-18.245
X-15.367Y18.563Z-18.152
X-15.342Y18.496Z-17.988
X-15.324Y18.431Z-17.828
X-15.314Y18.366Z-17.671
X-15.311Y18.315Z-17.549
X-15.31Y18.258Z-17.413
X-15.311Y3.458Z18.317
Y3.258Z18.8
X-15.312Y3.162Z19.028
X-15.314Y3.095Z19.184
X-15.324Y3.018Z19.362
X-15.336Y2.959Z19.497
X-15.348Y2.907Z19.616
X-15.354Y2.885Z19.665
X-15.378Y2.812Z19.833
X-15.399Y2.756Z19.959
X-15.434Y2.673Z20.144
X-15.485Y2.577Z20.357
X-15.509Y2.535Z20.446
X-15.558Y2.457Z20.619
X-15.612Y2.38Z20.785
X-15.662Y2.314Z20.925
X-15.716Y2.249Z21.067
X-15.8Y2.155Z21.265
X-15.864Y2.089Z21.404
X-15.936Y2.018Z21.552
X-16.032Y1.93Z21.733
X-16.124Y1.853Z21.891
X-16.213Y1.782Z22.035
X-16.251Y1.753Z22.095
X-16.312Y1.707Z22.185
X-16.435Y1.62Z22.361
X-16.474Y1.594Z22.413
X-16.551Y1.546Z22.519
X-16.654Y1.487Z22.657
X-16.76Y1.432Z22.799
X-16.824Y1.402Z22.878
X-16.893Y1.371Z22.967
X-17.Y1.329Z23.101
X-17.102Y1.294Z23.227
X-17.242Y1.251Z23.39
X-17.357Y1.225Z23.52
X-17.466Y1.205Z23.643
X-17.616Y1.181Z23.8
X-17.739Y1.166Z23.921
X-17.815Y1.165Z24.001
X-17.866Y1.157Z24.046
X-17.958Y1.149Z24.126
X-18.055Y1.134Z24.204
X-18.246Y1.092Z24.378
X-18.414Y1.035Z24.57
X-18.556Y.963Z24.778
X-18.668Y.878Z24.998
X-18.75Y.779Z25.226
X-18.8Y.671Z25.459
X-18.816Y.553Z25.692
X-18.799Y.429Z25.922
X-18.749Y.3Z26.144
X-18.667Y.169Z26.355
X-13.815Y1.816Z21.195
X-13.88Y2.013Z21.355
X-13.961Y2.186Z21.533
X-14.055Y2.333Z21.728
X-14.163Y2.451Z21.935
X-14.281Y2.537Z22.152
X-14.407Y2.591Z22.375
X-14.54Y2.611Z22.599
X-14.678Y2.598Z22.821
X-14.817Y2.551Z23.038
X-14.956Y2.471Z23.245
X-15.Y2.44Z23.309
X-15.047Y2.407Z23.378
X-15.185Y2.332Z23.528
X-15.244Y2.308Z23.573
X-15.322Y2.279Z23.629
X-15.461Y2.234Z23.726
X-15.596Y2.194Z23.824
X-15.664Y2.176Z23.872
X-15.735Y2.159Z23.925
X-15.875Y2.129Z24.024
X-16.013Y2.105Z24.122
X-16.157Y2.085Z24.224
X-16.302Y2.07Z24.323
X-16.449Y2.06Z24.422
X-16.602Y2.054Z24.524
X-16.763Y2.052Z24.622
X-16.891Y2.043Z24.66
X-17.095Y2.022Z24.736
X-17.289Y1.984Z24.773
X-17.482Y1.943Z24.823
X-17.725Y1.873Z24.891
X-17.954Y1.774Z24.968
X-18.166Y1.646Z25.053
X-18.357Y1.492Z25.144
X-18.524Y1.314Z25.239
X-18.663Y1.115Z25.337
X-18.773Y.9Z25.436
X-18.852Y.671Z25.535
X-18.897Y.432Z25.631
X-18.909Y.187Z25.724
G00X10.
Y-17.582Z22.717
X-17.47
G01X-18.47F1200.
X-18.556Y-17.626Z22.473
X-18.61Y-17.661Z22.22
X-18.631Y-17.688Z21.961
X-18.62Y-17.705Z21.7
X-18.576Y-17.713Z21.442
X-18.5Y-17.711Z21.192
X-18.393Y-17.698Z20.953
X-18.258Y-17.677Z20.73
X-18.096Y-17.646Z20.527
X-17.91Y-17.606Z20.347
X-17.837Y-17.589Z20.284
X-17.759Y-17.567Z20.212
X-17.663Y-17.539Z20.12
X-17.612Y-17.536Z20.074
X-17.529Y-17.51Z19.986
X-17.454Y-17.493Z19.91
X-17.346Y-17.468Z19.791
X-17.323Y-17.461Z19.764
X-17.209Y-17.436Z19.632
X-17.079Y-17.415Z19.474
X-16.916Y-17.396Z19.267
X-16.852Y-17.389Z19.179
X-16.739Y-17.382Z19.026
X-16.616Y-17.381Z18.851
X-16.523Y-17.384Z18.712
X-16.426Y-17.39Z18.566
X-16.31Y-17.403Z18.381
X-16.222Y-17.414Z18.233
X-16.144Y-17.423Z18.093
X-16.046Y-17.434Z17.908
X-15.972Y-17.444Z17.755
X-15.907Y-17.451Z17.616
X-15.825Y-17.461Z17.427
X-15.767Y-17.469Z17.279
X-15.693Y-17.479Z17.08
X-15.647Y-17.484Z16.943
X-15.604Y-17.49Z16.807
X-15.556Y-17.496Z16.646
X-15.512Y-17.502Z16.472
X-15.479Y-17.507Z16.337
X-15.439Y-17.513Z16.151
X-15.412Y-17.518Z16.004
X-15.387Y-17.522Z15.854
X-15.362Y-17.526Z15.671
X-15.347Y-17.529Z15.539
X-15.33Y-17.532Z15.355
X-15.321Y-17.535Z15.208
X-15.314Y-17.537Z15.056
X-15.311Y-17.539Z14.877
Y-17.54Z14.487
Z-24.513
Y-17.541Z-24.699
X-15.314Z-24.814
X-15.323Z-24.976
X-15.339Z-25.132
X-15.355Y-17.54Z-25.251
X-15.379Y-17.539Z-25.402
X-15.412Y-17.536Z-25.565
X-15.443Y-17.534Z-25.695
X-15.477Y-17.531Z-25.825
X-15.526Y-17.527Z-25.987
X-15.582Y-17.523Z-26.148
X-15.64Y-17.518Z-26.297
X-15.689Y-17.514Z-26.41
X-15.759Y-17.508Z-26.563
X-15.838Y-17.502Z-26.72
X-15.922Y-17.499Z-26.876
X-16.001Y-17.502Z-27.015
X-16.08Y-17.51Z-27.151
X-16.162Y-17.522Z-27.286
X-16.255Y-17.538Z-27.431
X-16.357Y-17.559Z-27.581
X-16.47Y-17.587Z-27.736
X-16.574Y-17.616Z-27.871
X-16.679Y-17.654Z-28.001
X-16.731Y-17.673Z-28.064
X-16.853Y-17.723Z-28.202
X-16.893Y-17.743Z-28.246
X-17.047Y-17.821Z-28.442
X-17.178Y-17.888Z-28.658
X-17.282Y-17.941Z-28.892
X-17.358Y-17.981Z-29.14
X-17.404Y-18.006Z-29.396
X-17.42Y-18.015Z-29.657
X-17.405Y-18.01Z-29.918
X-17.359Y-17.99Z-30.175
X-17.284Y-17.955Z-30.423
X-17.181Y-17.905Z-30.658
G00X10.
Y20.728Z-22.613
X-16.305
G01X-17.305F1200.
X-17.271Y20.839Z-22.379
X-17.21Y20.93Z-22.142
X-17.122Y21.001Z-21.906
X-17.008Y21.049Z-21.675
X-16.871Y21.074Z-21.454
X-16.713Y21.075Z-21.245
X-16.536Y21.053Z-21.053
X-16.344Y21.007Z-20.882
X-16.14Y20.939Z-20.732
X-15.928Y20.85Z-20.609
X-15.905Y20.84Z-20.597
X-15.759Y20.832Z-20.572
X-15.682Y20.78Z-20.522
X-15.586Y20.729Z-20.467
X-15.505Y20.689Z-20.42
X-15.399Y20.636Z-20.355
X-15.322Y20.599Z-20.305
X-15.233Y20.557Z-20.245
X-15.13Y20.51Z-20.171
X-15.016Y20.46Z-20.086
X-15.Y20.453Z-20.073
X-14.922Y20.422Z-20.013
X-14.724Y20.329Z-19.871
X-14.526Y20.208Z-19.749
X-14.332Y20.062Z-19.651
X-14.146Y19.894Z-19.577
X-13.97Y19.706Z-19.529
X-13.808Y19.502Z-19.508
X-13.662Y19.285Z-19.515
X-13.535Y19.059Z-19.548
X-13.429Y18.827Z-19.608
X-13.345Y18.595Z-19.693
X-17.12Y21.009Z-22.88
X-17.227Y20.957Z-22.648
X-17.305Y20.888Z-22.408
X-17.353Y20.803Z-22.165
X-17.37Y20.705Z-21.923
X-17.355Y20.594Z-21.686
X-17.31Y20.472Z-21.459
X-17.233Y20.342Z-21.245
X-17.128Y20.206Z-21.048
X-16.995Y20.066Z-20.872
X-16.837Y19.925Z-20.718
X-16.754Y19.858Z-20.648
X-16.684Y19.808Z-20.586
X-16.603Y19.745Z-20.508
X-16.544Y19.705Z-20.45
X-16.449Y19.631Z-20.35
X-16.403Y19.601Z-20.298
X-16.321Y19.536Z-20.202
X-16.269Y19.502Z-20.138
X-16.239Y19.479Z-20.102
X-16.157Y19.419Z-19.993
X-16.082Y19.367Z-19.891
X-16.053Y19.347Z-19.848
X-15.958Y19.282Z-19.705
X-15.897Y19.242Z-19.61
X-15.784Y19.168Z-19.417
X-15.7Y19.113Z-19.261
X-15.625Y19.055Z-19.107
X-15.557Y18.997Z-18.95
X-15.527Y18.968Z-18.874
X-15.456Y18.893Z-18.677
X-15.41Y18.836Z-18.532
X-15.397Y18.819Z-18.485
X-15.367Y18.774Z-18.372
X-15.331Y18.711Z-18.213
X-15.313Y18.673Z-18.117
X-15.287Y18.606Z-17.95
X-15.269Y18.541Z-17.788
X-15.259Y18.476Z-17.63
X-15.255Y18.424Z-17.505
Y18.368Z-17.368
Y4.568Z15.949
Y3.368Z18.846
X-15.256Y3.272Z19.074
X-15.259Y3.204Z19.232
X-15.269Y3.128Z19.41
X-15.281Y3.067Z19.549
X-15.292Y3.016Z19.668
X-15.298Y2.994Z19.717
X-15.323Y2.92Z19.887
X-15.344Y2.863Z20.015
X-15.38Y2.78Z20.201
X-15.431Y2.683Z20.416
X-15.455Y2.641Z20.508
X-15.505Y2.563Z20.681
X-15.56Y2.486Z20.848
X-15.611Y2.419Z20.991
X-15.664Y2.354Z21.133
X-15.749Y2.26Z21.333
X-15.814Y2.193Z21.475
X-15.887Y2.122Z21.625
X-15.984Y2.034Z21.807
X-16.077Y1.957Z21.966
X-16.167Y1.885Z22.112
X-16.206Y1.856Z22.172
X-16.267Y1.809Z22.265
X-16.39Y1.722Z22.437
X-16.429Y1.696Z22.488
X-16.505Y1.648Z22.59
X-16.607Y1.588Z22.722
X-16.713Y1.532Z22.86
X-16.776Y1.501Z22.936
X-16.845Y1.47Z23.022
X-16.952Y1.426Z23.151
X-17.055Y1.389Z23.273
X-17.195Y1.345Z23.43
X-17.31Y1.316Z23.557
X-17.42Y1.294Z23.676
X-17.571Y1.268Z23.828
X-17.695Y1.251Z23.947
X-17.775Y1.246Z24.024
X-17.833Y1.233Z24.073
X-17.929Y1.22Z24.152
X-18.031Y1.199Z24.23
X-18.225Y1.15Z24.398
X-18.396Y1.086Z24.585
X-18.54Y1.009Z24.789
X-18.655Y.919Z25.007
X-18.739Y.818Z25.233
X-18.79Y.709Z25.465
X-18.808Y.592Z25.698
X-18.792Y.47Z25.929
X-18.743Y.345Z26.154
X-18.661Y.219Z26.368
X-13.874Y1.961Z20.825
X-13.935Y2.158Z20.986
X-14.01Y2.33Z21.168
X-14.098Y2.476Z21.366
X-14.196Y2.593Z21.579
X-14.305Y2.679Z21.801
X-14.421Y2.731Z22.029
X-14.543Y2.75Z22.26
X-14.668Y2.736Z22.489
X-14.795Y2.687Z22.712
X-14.922Y2.605Z22.927
X-15.Y2.544Z23.057
X-15.037Y2.516Z23.118
X-15.074Y2.487Z23.178
X-15.163Y2.425Z23.308
X-15.3Y2.351Z23.459
X-15.434Y2.296Z23.56
X-15.568Y2.247Z23.656
X-15.701Y2.204Z23.754
X-15.767Y2.184Z23.803
X-15.838Y2.164Z23.857
X-15.973Y2.131Z23.955
X-16.107Y2.103Z24.053
X-16.248Y2.08Z24.158
X-16.39Y2.062Z24.258
X-16.531Y2.049Z24.357
X-16.683Y2.04Z24.463
X-16.839Y2.034Z24.562
X-16.962Y2.021Z24.603
X-17.155Y1.995Z24.679
X-17.342Y1.956Z24.72
X-17.528Y1.912Z24.773
X-17.768Y1.84Z24.846
X-17.995Y1.737Z24.928
X-18.203Y1.605Z25.016
X-18.39Y1.448Z25.11
X-18.552Y1.267Z25.206
X-18.687Y1.066Z25.305
X-18.792Y.848Z25.404
X-18.866Y.616Z25.501
X-18.906Y.376Z25.595
X-18.914Y.13Z25.685
G00X10.
Y-16.863Z22.22
X-16.18
G01X-17.18F1200.
X-17.305Y-17.044Z22.079
X-17.4Y-17.235Z21.927
X-17.462Y-17.432Z21.766
X-17.49Y-17.631Z21.599
X-17.484Y-17.83Z21.429
X-17.444Y-18.024Z21.258
X-17.371Y-18.211Z21.09
X-17.266Y-18.387Z20.928
X-17.131Y-18.55Z20.774
X-16.967Y-18.696Z20.631
X-16.86Y-18.697Z20.618
X-16.819Y-18.664Z20.561
X-16.773Y-18.637Z20.507
X-16.69Y-18.639Z20.483
X-16.5Y-18.603Z20.362
X-16.385Y-18.599Z20.33
X-16.229Y-18.566Z20.224
X-16.077Y-18.54Z20.121
X-15.929Y-18.519Z20.017
X-15.788Y-18.504Z19.913
X-15.74Y-18.5Z19.878
X-15.651Y-18.493Z19.811
X-15.516Y-18.487Z19.707
X-15.385Y-18.486Z19.602
X-15.256Y-18.491Z19.501
X-15.132Y-18.499Z19.396
X-15.007Y-18.509Z19.237
X-15.Y-18.51Z19.226
X-14.89Y-18.519Z19.042
X-14.754Y-18.514Z18.818
X-14.618Y-18.474Z18.598
X-14.484Y-18.401Z18.386
X-14.354Y-18.296Z18.184
X-14.23Y-18.16Z17.998
X-14.115Y-17.997Z17.829
X-14.01Y-17.808Z17.681
X-13.917Y-17.598Z17.557
X-13.838Y-17.369Z17.457
X-13.774Y-17.126Z17.385
G00X10.
Y-31.882Z17.34
X-12.856
G01X-13.856F1200.
X-13.92Y-31.639Z17.412
X-13.998Y-31.41Z17.511
X-14.091Y-31.2Z17.636
X-14.196Y-31.011Z17.784
X-14.311Y-30.847Z17.952
X-14.434Y-30.712Z18.139
X-14.564Y-30.607Z18.34
X-14.698Y-30.533Z18.552
X-14.834Y-30.493Z18.772
X-14.97Y-30.487Z18.996
X-15.Y-30.49Z19.047
X-15.085Y-30.497Z19.189
X-15.209Y-30.508Z19.349
X-15.329Y-30.518Z19.454
X-15.453Y-30.524Z19.557
X-15.581Y-30.525Z19.665
X-15.712Y-30.521Z19.771
X-15.845Y-30.512Z19.875
X-15.983Y-30.497Z19.982
X-16.127Y-30.477Z20.089
X-16.275Y-30.452Z20.193
X-16.43Y-30.421Z20.3
X-16.594Y-30.381Z20.41
X-16.7Y-30.36Z20.467
X-16.952Y-30.333Z20.57
X-17.169Y-30.325Z20.654
X-17.46Y-30.349Z20.746
X-17.704Y-30.382Z20.835
X-17.935Y-30.439Z20.944
X-18.149Y-30.52Z21.072
X-18.342Y-30.622Z21.215
X-18.511Y-30.745Z21.372
X-18.653Y-30.887Z21.54
X-18.766Y-31.043Z21.717
X-18.848Y-31.213Z21.898
X-18.898Y-31.394Z22.081
X-18.913Y-31.581Z22.263
G00X10.
Y-31.365Z-30.08
X-16.576
G01X-17.576F1200.
X-17.541Y-31.169Z-29.911
X-17.474Y-30.985Z-29.736
X-17.377Y-30.818Z-29.561
X-17.252Y-30.668Z-29.387
X-17.099Y-30.54Z-29.217
X-16.923Y-30.435Z-29.055
X-16.726Y-30.355Z-28.903
X-16.511Y-30.302Z-28.763
X-16.282Y-30.276Z-28.639
X-16.043Y-30.277Z-28.532
X-15.855Y-30.289Z-28.456
X-15.757Y-30.296Z-28.427
X-15.714Y-30.307Z-28.399
X-15.617Y-30.339Z-28.32
X-15.481Y-30.374Z-28.215
X-15.406Y-30.392Z-28.154
X-15.353Y-30.403Z-28.11
X-15.231Y-30.427Z-28.004
X-15.115Y-30.445Z-27.899
X-15.002Y-30.457Z-27.794
X-15.Z-27.792
X-14.949Y-30.461Z-27.745
X-14.755Y-30.491Z-27.572
X-14.562Y-30.555Z-27.407
X-14.373Y-30.65Z-27.254
X-14.191Y-30.776Z-27.114
X-14.019Y-30.93Z-26.992
X-13.86Y-31.11Z-26.888
X-13.716Y-31.312Z-26.804
X-13.591Y-31.533Z-26.742
X-13.487Y-31.77Z-26.703
X-13.404Y-32.018Z-26.687
X-17.141Y-30.992Z-30.651
X-17.248Y-30.953Z-30.416
X-17.326Y-30.926Z-30.167
X-17.373Y-30.912Z-29.911
X-17.388Y-30.91Z-29.649
X-17.372Y-30.921Z-29.388
X-17.324Y-30.945Z-29.132
X-17.245Y-30.98Z-28.885
X-17.137Y-31.027Z-28.652
X-17.002Y-31.085Z-28.435
X-16.842Y-31.153Z-28.24
X-16.795Y-31.172Z-28.19
X-16.733Y-31.201Z-28.123
X-16.696Y-31.215Z-28.081
X-16.622Y-31.242Z-27.995
X-16.518Y-31.278Z-27.868
X-16.442Y-31.304Z-27.77
X-16.41Y-31.311Z-27.728
X-16.306Y-31.341Z-27.584
X-16.206Y-31.364Z-27.439
X-16.115Y-31.382Z-27.297
X-16.082Y-31.386Z-27.244
X-16.035Y-31.394Z-27.164
X-15.957Y-31.402Z-27.032
X-15.88Y-31.406Z-26.895
X-15.797Y-31.404Z-26.743
X-15.718Y-31.398Z-26.587
X-15.647Y-31.391Z-26.433
X-15.591Y-31.386Z-26.298
X-15.539Y-31.381Z-26.166
X-15.482Y-31.377Z-26.004
X-15.433Y-31.372Z-25.841
X-15.398Y-31.369Z-25.709
X-15.374Y-31.367Z-25.615
X-15.332Y-31.363Z-25.412
X-15.308Y-31.361Z-25.259
X-15.292Y-31.36Z-25.138
X-15.276Y-31.359Z-24.98
X-15.266Y-31.358Z-24.818
X-15.263Z-24.699
X-15.261Y-31.354Z-24.513
Z14.487
Y-31.355Z14.878
X-15.264Y-31.357Z15.057
X-15.271Y-31.359Z15.21
X-15.28Y-31.362Z15.359
X-15.297Y-31.365Z15.544
X-15.313Y-31.368Z15.678
X-15.338Y-31.372Z15.862
X-15.363Y-31.375Z16.013
X-15.392Y-31.38Z16.17
X-15.431Y-31.385Z16.349
X-15.464Y-31.39Z16.486
X-15.509Y-31.396Z16.661
X-15.557Y-31.401Z16.823
X-15.6Y-31.407Z16.961
X-15.667Y-31.415Z17.155
X-15.722Y-31.422Z17.3
X-15.781Y-31.429Z17.45
X-15.863Y-31.439Z17.639
X-15.928Y-31.446Z17.779
X-16.004Y-31.455Z17.935
X-16.101Y-31.466Z18.12
X-16.181Y-31.475Z18.262
X-16.27Y-31.485Z18.412
X-16.386Y-31.497Z18.596
X-16.48Y-31.503Z18.738
X-16.571Y-31.504Z18.874
X-16.691Y-31.501Z19.045
X-16.802Y-31.493Z19.194
X-16.901Y-31.483Z19.325
X-17.026Y-31.467Z19.482
X-17.155Y-31.446Z19.634
X-17.268Y-31.422Z19.763
X-17.399Y-31.391Z19.905
X-17.556Y-31.349Z20.064
X-17.618Y-31.333Z20.125
X-17.777Y-31.282Z20.271
X-17.856Y-31.264Z20.339
X-18.014Y-31.234Z20.464
X-18.206Y-31.197Z20.638
X-18.374Y-31.166Z20.836
X-18.516Y-31.142Z21.055
X-18.628Y-31.123Z21.291
X-18.709Y-31.111Z21.539
X-18.758Y-31.106Z21.796
X-18.774Y-31.109Z22.057
X-18.756Y-31.118Z22.318
X-18.706Y-31.134Z22.574
X-18.622Y-31.157Z22.821
X-13.893Y-31.885Z17.068
X-13.954Y-31.641Z17.141
X-14.029Y-31.412Z17.243
X-14.117Y-31.201Z17.37
X-14.216Y-31.012Z17.521
X-14.325Y-30.848Z17.693
X-14.442Y-30.712Z17.884
X-14.564Y-30.606Z18.089
X-14.69Y-30.532Z18.306
X-14.818Y-30.492Z18.531
X-14.945Y-30.485Z18.76
X-15.Y-30.49Z18.86
X-15.05Y-30.494Z18.95
X-15.164Y-30.504Z19.141
X-15.286Y-30.514Z19.301
X-15.403Y-30.524Z19.408
X-15.523Y-30.533Z19.511
X-15.647Y-30.535Z19.623
X-15.774Y-30.533Z19.731
X-15.903Y-30.526Z19.837
X-16.037Y-30.512Z19.946
X-16.179Y-30.494Z20.055
X-16.323Y-30.47Z20.162
X-16.474Y-30.439Z20.271
X-16.634Y-30.4Z20.384
X-16.736Y-30.378Z20.443
X-16.98Y-30.351Z20.551
X-17.19Y-30.342Z20.639
X-17.473Y-30.362Z20.737
X-17.715Y-30.391Z20.832
X-17.943Y-30.445Z20.948
X-18.155Y-30.522Z21.081
X-18.345Y-30.622Z21.229
X-18.512Y-30.743Z21.391
X-18.652Y-30.882Z21.563
X-18.762Y-31.037Z21.742
X-18.842Y-31.206Z21.925
X-18.889Y-31.385Z22.11
X-18.902Y-31.572Z22.292
G00X10.
Y-31.392Z-30.1
X-16.558
G01X-17.558F1200.
X-17.528Y-31.194Z-29.931
X-17.466Y-31.009Z-29.757
X-17.373Y-30.84Z-29.58
X-17.252Y-30.689Z-29.403
X-17.105Y-30.56Z-29.231
X-16.933Y-30.454Z-29.064
X-16.74Y-30.373Z-28.907
X-16.529Y-30.319Z-28.762
X-16.304Y-30.292Z-28.631
X-16.069Y-30.294Z-28.517
X-15.889Y-30.305Z-28.438
X-15.795Y-30.312Z-28.405
X-15.753Y-30.324Z-28.377
X-15.658Y-30.355Z-28.297
X-15.527Y-30.389Z-28.19
X-15.454Y-30.407Z-28.127
X-15.403Y-30.418Z-28.082
X-15.285Y-30.441Z-27.974
X-15.173Y-30.458Z-27.866
X-15.064Y-30.469Z-27.759
X-15.013Y-30.472Z-27.71
X-15.Z-27.696
X-14.96Y-30.474Z-27.655
X-14.777Y-30.499Z-27.47
X-14.594Y-30.557Z-27.291
X-14.415Y-30.648Z-27.124
X-14.243Y-30.77Z-26.969
X-14.08Y-30.92Z-26.83
X-13.929Y-31.097Z-26.71
X-13.793Y-31.297Z-26.61
X-13.675Y-31.516Z-26.532
X-13.575Y-31.752Z-26.477
X-13.497Y-32.Z-26.446
G00X10.
Y-16.948Z-26.878
X-12.377
G01X-13.377F1200.
X-13.46Y-17.197Z-26.88
X-13.565Y-17.435Z-26.906
X-13.691Y-17.659Z-26.954
X-13.835Y-17.865Z-27.025
X-13.996Y-18.05Z-27.117
X-14.17Y-18.21Z-27.229
X-14.355Y-18.342Z-27.358
X-14.547Y-18.445Z-27.503
X-14.743Y-18.517Z-27.661
X-14.94Y-18.556Z-27.829
X-15.Y-18.563Z-27.882
X-15.056Y-18.569Z-27.931
X-15.177Y-18.588Z-28.034
X-15.313Y-18.614Z-28.145
X-15.436Y-18.642Z-28.24
X-15.575Y-18.677Z-28.343
X-15.642Y-18.698Z-28.394
X-15.822Y-18.726Z-28.475
X-16.017Y-18.739Z-28.547
X-16.259Y-18.742Z-28.647
X-16.492Y-18.716Z-28.764
X-16.711Y-18.664Z-28.897
X-16.913Y-18.585Z-29.043
X-17.095Y-18.48Z-29.2
X-17.253Y-18.353Z-29.365
X-17.384Y-18.204Z-29.535
X-17.487Y-18.036Z-29.708
X-17.56Y-17.853Z-29.88
X-17.601Y-17.657Z-30.048
G00X10.
Y20.616Z-22.649
X-16.281
G01X-17.281F1200.
X-17.259Y20.733Z-22.416
X-17.209Y20.831Z-22.179
X-17.132Y20.908Z-21.941
X-17.029Y20.963Z-21.707
X-16.902Y20.995Z-21.48
X-16.754Y21.003Z-21.265
X-16.586Y20.988Z-21.065
X-16.402Y20.948Z-20.884
X-16.204Y20.886Z-20.724
X-15.996Y20.802Z-20.588
X-15.975Y20.793Z-20.576
X-15.835Y20.785Z-20.544
X-15.76Y20.734Z-20.493
X-15.666Y20.684Z-20.436
X-15.587Y20.645Z-20.388
X-15.484Y20.593Z-20.32
X-15.41Y20.557Z-20.27
X-15.323Y20.516Z-20.207
X-15.251Y20.483Z-20.153
X-15.223Y20.47Z-20.131
X-15.113Y20.422Z-20.044
X-15.022Y20.386Z-19.97
X-15.Y20.377Z-19.951
X-14.983Y20.37Z-19.937
X-14.793Y20.28Z-19.782
X-14.603Y20.162Z-19.647
X-14.416Y20.017Z-19.533
X-14.237Y19.85Z-19.444
X-14.067Y19.661Z-19.379
X-13.91Y19.455Z-19.342
X-13.769Y19.235Z-19.331
X-13.646Y19.005Z-19.348
X-13.542Y18.769Z-19.392
X-13.461Y18.53Z-19.462
X-17.11Y21.081Z-22.835
X-17.217Y21.021Z-22.604
X-17.294Y20.946Z-22.365
X-17.341Y20.857Z-22.124
X-17.355Y20.756Z-21.883
X-17.338Y20.643Z-21.647
X-17.288Y20.522Z-21.421
X-17.208Y20.394Z-21.207
X-17.098Y20.261Z-21.01
X-16.961Y20.126Z-20.834
X-16.798Y19.991Z-20.68
X-16.784Y19.981Z-20.669
X-16.711Y19.93Z-20.608
X-16.641Y19.883Z-20.546
X-16.559Y19.822Z-20.469
X-16.5Y19.785Z-20.41
X-16.405Y19.714Z-20.312
X-16.358Y19.686Z-20.26
X-16.276Y19.625Z-20.166
X-16.224Y19.593Z-20.103
X-16.195Y19.572Z-20.067
X-16.112Y19.516Z-19.959
X-16.038Y19.468Z-19.859
X-16.009Y19.449Z-19.817
X-15.914Y19.389Z-19.677
X-15.854Y19.351Z-19.584
X-15.743Y19.283Z-19.395
X-15.66Y19.23Z-19.241
X-15.659Y19.229Z-19.239
X-15.583Y19.172Z-19.083
X-15.514Y19.113Z-18.924
X-15.483Y19.083Z-18.846
X-15.411Y19.008Z-18.647
X-15.365Y18.951Z-18.5
X-15.352Y18.933Z-18.453
X-15.321Y18.888Z-18.339
X-15.285Y18.825Z-18.178
X-15.267Y18.787Z-18.08
X-15.24Y18.719Z-17.91
X-15.222Y18.654Z-17.747
X-15.211Y18.589Z-17.586
X-15.208Y18.537Z-17.458
X-15.207Y18.377Z-17.07
Y4.681Z15.996
Y3.481Z18.892
X-15.208Y3.385Z19.121
X-15.211Y3.317Z19.28
X-15.221Y3.24Z19.46
X-15.233Y3.179Z19.6
X-15.245Y3.128Z19.719
X-15.251Y3.105Z19.77
X-15.276Y3.031Z19.941
X-15.297Y2.974Z20.071
X-15.334Y2.891Z20.258
X-15.385Y2.794Z20.474
X-15.41Y2.751Z20.568
X-15.46Y2.673Z20.743
X-15.516Y2.596Z20.911
X-15.567Y2.529Z21.056
X-15.621Y2.464Z21.198
X-15.707Y2.369Z21.4
X-15.773Y2.302Z21.543
X-15.847Y2.23Z21.696
X-15.944Y2.143Z21.878
X-16.038Y2.065Z22.039
X-16.129Y1.993Z22.187
X-16.167Y1.964Z22.247
X-16.23Y1.917Z22.341
X-16.352Y1.83Z22.51
X-16.39Y1.802Z22.559
X-16.465Y1.755Z22.657
X-16.566Y1.693Z22.785
X-16.671Y1.636Z22.917
X-16.733Y1.605Z22.991
X-16.802Y1.573Z23.073
X-16.909Y1.527Z23.198
X-17.012Y1.488Z23.316
X-17.151Y1.443Z23.468
X-17.267Y1.411Z23.591
X-17.379Y1.386Z23.707
X-17.529Y1.358Z23.854
X-17.653Y1.337Z23.971
X-17.736Y1.329Z24.046
X-17.802Y1.311Z24.098
X-17.902Y1.291Z24.176
X-18.008Y1.266Z24.253
X-18.205Y1.209Z24.416
X-18.379Y1.139Z24.599
X-18.525Y1.056Z24.799
X-18.642Y.962Z25.013
X-18.728Y.859Z25.238
X-18.782Y.749Z25.469
X-18.801Y.633Z25.703
X-18.787Y.513Z25.935
X-18.739Y.391Z26.161
X-18.658Y.27Z26.379
X-13.936Y2.054Z20.583
X-13.996Y2.251Z20.745
X-14.068Y2.424Z20.928
X-14.153Y2.569Z21.128
X-14.249Y2.686Z21.342
X-14.354Y2.771Z21.566
X-14.466Y2.823Z21.796
X-14.584Y2.842Z22.029
X-14.705Y2.827Z22.26
X-14.828Y2.778Z22.486
X-14.949Y2.695Z22.703
X-15.Y2.654Z22.791
X-15.042Y2.62Z22.865
X-15.155Y2.532Z23.052
X-15.193Y2.504Z23.112
X-15.279Y2.444Z23.238
X-15.414Y2.369Z23.389
X-15.546Y2.315Z23.492
X-15.676Y2.263Z23.587
X-15.805Y2.216Z23.684
X-15.87Y2.194Z23.734
X-15.94Y2.172Z23.79
X-16.071Y2.135Z23.887
X-16.2Y2.105Z23.985
X-16.34Y2.077Z24.092
X-16.477Y2.056Z24.193
X-16.614Y2.04Z24.292
X-16.763Y2.028Z24.401
X-16.914Y2.015Z24.501
X-17.033Y1.999Z24.546
X-17.216Y1.969Z24.622
X-17.395Y1.927Z24.667
X-17.574Y1.883Z24.722
X-17.812Y1.807Z24.801
X-18.035Y1.701Z24.887
X-18.24Y1.567Z24.978
X-18.423Y1.406Z25.074
X-18.582Y1.222Z25.171
X-18.712Y1.018Z25.27
X-18.813Y.797Z25.367
X-18.883Y.563Z25.461
X-18.919Y.32Z25.552
X-18.922Y.073Z25.636
G00X10.
Y-16.885Z22.241
X-16.221
G01X-17.221F1200.
X-17.345Y-17.067Z22.099
X-17.437Y-17.257Z21.945
X-17.498Y-17.452Z21.782
X-17.525Y-17.649Z21.611
X-17.517Y-17.844Z21.437
X-17.476Y-18.033Z21.261
X-17.402Y-18.215Z21.088
X-17.296Y-18.385Z20.92
X-17.16Y-18.541Z20.76
X-16.997Y-18.68Z20.61
X-16.893Y-18.678Z20.596
X-16.851Y-18.646Z20.539
X-16.804Y-18.618Z20.484
X-16.724Z20.46
X-16.54Y-18.585Z20.336
X-16.429Y-18.58Z20.302
X-16.276Y-18.548Z20.193
X-16.128Y-18.523Z20.088
X-15.984Y-18.503Z19.982
X-15.846Y-18.489Z19.875
X-15.799Y-18.485Z19.84
X-15.713Y-18.48Z19.771
X-15.582Y-18.476Z19.665
X-15.455Y-18.477Z19.557
X-15.33Y-18.483Z19.454
X-15.21Y-18.493Z19.348
X-15.086Y-18.503Z19.189
X-15.Y-18.51Z19.046
X-14.97Y-18.513Z18.996
X-14.835Y-18.507Z18.772
X-14.699Y-18.467Z18.552
X-14.564Y-18.393Z18.34
X-14.434Y-18.288Z18.139
X-14.311Y-18.153Z17.952
X-14.195Y-17.989Z17.784
X-14.09Y-17.8Z17.636
X-13.998Y-17.59Z17.512
X-13.919Y-17.361Z17.412
X-13.855Y-17.118Z17.34
G00X10.
Y-31.887Z16.807
X-12.912
G01X-13.912F1200.
X-13.971Y-31.643Z16.882
X-14.044Y-31.414Z16.985
X-14.129Y-31.203Z17.114
X-14.225Y-31.013Z17.267
X-14.33Y-30.849Z17.441
X-14.442Y-30.712Z17.634
X-14.56Y-30.606Z17.842
X-14.681Y-30.532Z18.062
X-14.803Y-30.491Z18.289
X-14.925Y-30.484Z18.521
X-15.Y-30.49Z18.666
X-15.027Y-30.492Z18.717
X-15.13Y-30.501Z18.904
X-15.242Y-30.51Z19.092
X-15.363Y-30.52Z19.253
X-15.476Y-30.53Z19.361
X-15.592Y-30.54Z19.466
X-15.713Y-30.545Z19.58
X-15.836Y-30.544Z19.691
X-15.961Y-30.539Z19.798
X-16.092Y-30.527Z19.91
X-16.23Y-30.509Z20.022
X-16.37Y-30.487Z20.131
X-16.517Y-30.457Z20.242
X-16.674Y-30.418Z20.359
X-16.773Y-30.397Z20.418
X-17.009Y-30.369Z20.533
X-17.211Y-30.36Z20.624
X-17.485Y-30.374Z20.727
X-17.725Y-30.4Z20.83
X-17.951Y-30.45Z20.951
X-18.16Y-30.525Z21.09
X-18.348Y-30.621Z21.244
X-18.511Y-30.739Z21.411
X-18.649Y-30.876Z21.586
X-18.756Y-31.03Z21.769
X-18.833Y-31.197Z21.954
X-18.878Y-31.376Z22.14
X-18.889Y-31.563Z22.323
G00X10.
Y-31.413Z-30.119
X-16.542
G01X-17.542F1200.
X-17.516Y-31.214Z-29.951
X-17.458Y-31.028Z-29.777
X-17.37Y-30.858Z-29.599
X-17.253Y-30.706Z-29.42
X-17.11Y-30.576Z-29.244
X-16.942Y-30.47Z-29.073
X-16.754Y-30.389Z-28.911
X-16.547Y-30.334Z-28.76
X-16.326Y-30.308Z-28.623
X-16.094Y-30.31Z-28.502
X-15.922Y-30.321Z-28.42
X-15.832Y-30.328Z-28.384
X-15.791Y-30.339Z-28.355
X-15.699Y-30.37Z-28.273
X-15.572Y-30.404Z-28.165
X-15.501Y-30.422Z-28.099
X-15.453Y-30.432Z-28.054
X-15.339Y-30.454Z-27.943
X-15.231Y-30.47Z-27.833
X-15.127Y-30.48Z-27.724
X-15.078Y-30.482Z-27.675
X-15.027Y-30.484Z-27.619
X-15.Y-30.483Z-27.59
X-14.929Y-30.482Z-27.514
X-14.749Y-30.496Z-27.324
X-14.571Y-30.544Z-27.139
X-14.396Y-30.625Z-26.962
X-14.227Y-30.737Z-26.797
X-14.068Y-30.879Z-26.645
X-13.921Y-31.049Z-26.511
X-13.789Y-31.243Z-26.395
X-13.674Y-31.458Z-26.3
X-13.578Y-31.69Z-26.228
X-13.502Y-31.936Z-26.179
X-17.11Y-30.809Z-30.633
X-17.218Y-30.784Z-30.396
X-17.295Y-30.77Z-30.146
X-17.342Y-30.767Z-29.889
X-17.357Y-30.776Z-29.628
X-17.339Y-30.796Z-29.368
X-17.289Y-30.827Z-29.113
X-17.208Y-30.868Z-28.867
X-17.097Y-30.919Z-28.636
X-16.959Y-30.979Z-28.422
X-16.795Y-31.047Z-28.23
X-16.741Y-31.069Z-28.175
X-16.68Y-31.096Z-28.11
X-16.57Y-31.137Z-27.985
X-16.467Y-31.174Z-27.861
X-16.393Y-31.2Z-27.766
X-16.361Y-31.208Z-27.725
X-16.26Y-31.239Z-27.585
X-16.162Y-31.263Z-27.443
X-16.072Y-31.282Z-27.305
X-16.04Y-31.287Z-27.253
X-15.993Y-31.295Z-27.175
X-15.917Y-31.303Z-27.045
X-15.842Y-31.308Z-26.912
X-15.761Y-31.307Z-26.763
X-15.683Y-31.301Z-26.608
X-15.611Y-31.294Z-26.453
X-15.554Y-31.288Z-26.317
X-15.501Y-31.283Z-26.182
X-15.444Y-31.278Z-26.019
X-15.394Y-31.273Z-25.855
X-15.358Y-31.269Z-25.721
X-15.334Y-31.267Z-25.627
X-15.292Y-31.262Z-25.421
X-15.267Y-31.26Z-25.267
X-15.25Y-31.257Z-25.143
X-15.234Y-31.256Z-24.985
X-15.224Y-31.255Z-24.821
X-15.22Y-31.254Z-24.7
X-15.218Y-31.246Z-24.512
Z14.487
Y-31.247Z14.878
X-15.22Y-31.249Z15.058
X-15.228Y-31.251Z15.213
X-15.237Y-31.253Z15.363
X-15.254Y-31.256Z15.548
X-15.27Y-31.258Z15.685
X-15.295Y-31.262Z15.869
X-15.321Y-31.265Z16.022
X-15.35Y-31.27Z16.181
X-15.389Y-31.275Z16.359
X-15.422Y-31.279Z16.498
X-15.468Y-31.285Z16.674
X-15.517Y-31.29Z16.837
X-15.56Y-31.296Z16.978
X-15.627Y-31.303Z17.171
X-15.683Y-31.31Z17.318
X-15.743Y-31.317Z17.47
X-15.824Y-31.326Z17.659
X-15.891Y-31.333Z17.801
X-15.967Y-31.342Z17.958
X-16.065Y-31.352Z18.143
X-16.146Y-31.36Z18.287
X-16.235Y-31.37Z18.439
X-16.35Y-31.382Z18.621
X-16.443Y-31.386Z18.76
X-16.532Z18.893
X-16.65Y-31.381Z19.058
X-16.758Y-31.372Z19.204
X-16.855Y-31.361Z19.332
X-16.979Y-31.346Z19.483
X-17.107Y-31.326Z19.632
X-17.218Y-31.303Z19.758
X-17.349Y-31.273Z19.896
X-17.504Y-31.232Z20.05
X-17.567Y-31.215Z20.109
X-17.729Y-31.165Z20.254
X-17.815Y-31.145Z20.328
X-17.978Y-31.112Z20.455
X-18.172Y-31.074Z20.627
X-18.341Y-31.038Z20.823
X-18.484Y-31.007Z21.04
X-18.597Y-30.98Z21.274
X-18.68Y-30.958Z21.521
X-18.729Y-30.942Z21.778
X-18.746Y-30.931Z22.039
X-18.728Y-30.927Z22.3
X-18.677Y-30.928Z22.556
X-18.594Y-30.936Z22.804
X-13.954Y-31.89Z16.553
X-14.011Y-31.646Z16.629
X-14.081Y-31.417Z16.733
X-14.162Y-31.205Z16.864
X-14.253Y-31.015Z17.019
X-14.353Y-30.851Z17.196
X-14.46Y-30.714Z17.392
X-14.571Y-30.607Z17.603
X-14.686Y-30.532Z17.826
X-14.801Y-30.491Z18.057
X-14.916Y-30.483Z18.292
X-15.Y-30.49Z18.465
X-15.007Z18.479
X-15.109Y-30.499Z18.675
X-15.21Y-30.507Z18.859
X-15.321Y-30.517Z19.044
X-15.44Y-30.527Z19.206
X-15.55Y-30.536Z19.314
X-15.661Y-30.546Z19.42
X-15.779Y-30.553Z19.538
X-15.899Y-30.555Z19.651
X-16.019Y-30.551Z19.759
X-16.147Y-30.541Z19.874
X-16.282Y-30.524Z19.989
X-16.417Y-30.503Z20.099
X-16.561Y-30.474Z20.213
X-16.714Y-30.435Z20.333
X-16.809Y-30.415Z20.394
X-17.037Y-30.388Z20.515
X-17.232Y-30.377Z20.609
X-17.498Y-30.387Z20.718
X-17.735Y-30.409Z20.827
X-17.958Y-30.455Z20.956
X-18.163Y-30.525Z21.101
X-18.348Y-30.618Z21.262
X-18.508Y-30.733Z21.434
X-18.642Y-30.866Z21.615
X-18.747Y-31.017Z21.801
X-18.82Y-31.182Z21.991
X-18.862Y-31.358Z22.179
X-18.87Y-31.543Z22.364
G00X10.
Y-31.421Z-30.156
X-16.514
G01X-17.514F1200.
X-17.493Y-31.223Z-29.986
X-17.441Y-31.038Z-29.809
X-17.358Y-30.868Z-29.627
X-17.248Y-30.718Z-29.444
X-17.11Y-30.589Z-29.263
X-16.949Y-30.483Z-29.086
X-16.765Y-30.403Z-28.918
X-16.564Y-30.349Z-28.76
X-16.347Y-30.324Z-28.615
X-16.119Y-30.326Z-28.487
X-15.955Y-30.338Z-28.402
X-15.869Y-30.344Z-28.363
X-15.83Y-30.355Z-28.332
X-15.74Y-30.385Z-28.25
X-15.617Y-30.418Z-28.14
X-15.549Y-30.436Z-28.071
X-15.503Y-30.446Z-28.027
X-15.394Y-30.467Z-27.913
X-15.29Y-30.482Z-27.8
X-15.189Y-30.49Z-27.689
X-15.143Y-30.492Z-27.64
X-15.093Z-27.582
X-15.Y-30.49Z-27.477
X-14.999Y-30.489Z-27.476
X-14.825Y-30.501Z-27.282
X-14.651Y-30.547Z-27.092
X-14.481Y-30.625Z-26.909
X-14.317Y-30.736Z-26.738
X-14.163Y-30.876Z-26.58
X-14.02Y-31.044Z-26.439
X-13.892Y-31.236Z-26.316
X-13.78Y-31.45Z-26.215
X-13.687Y-31.682Z-26.136
X-13.614Y-31.927Z-26.082
G00X10.
Y-16.986Z-26.58
X-12.38
G01X-13.38F1200.
X-13.46Y-17.234Z-26.602
X-13.561Y-17.471Z-26.647
X-13.683Y-17.692Z-26.715
X-13.823Y-17.894Z-26.805
X-13.979Y-18.073Z-26.915
X-14.148Y-18.226Z-27.043
X-14.327Y-18.351Z-27.188
X-14.513Y-18.445Z-27.346
X-14.703Y-18.507Z-27.514
X-14.893Y-18.536Z-27.691
X-15.Y-18.543Z-27.792
X-15.002Z-27.794
X-15.115Y-18.555Z-27.899
X-15.231Y-18.573Z-28.004
X-15.362Y-18.599Z-28.118
X-15.481Y-18.626Z-28.215
X-15.616Y-18.661Z-28.32
X-15.681Y-18.681Z-28.372
X-15.855Y-18.711Z-28.457
X-16.043Y-18.723Z-28.532
X-16.281Y-18.725Z-28.639
X-16.51Y-18.699Z-28.764
X-16.725Y-18.646Z-28.903
X-16.922Y-18.566Z-29.055
X-17.099Y-18.461Z-29.217
X-17.251Y-18.333Z-29.387
X-17.377Y-18.184Z-29.561
X-17.474Y-18.016Z-29.737
X-17.541Y-17.832Z-29.911
X-17.576Y-17.637Z-30.081
G00X10.
Y20.534Z-22.668
X-16.278
G01X-17.278F1200.
X-17.264Y20.654Z-22.437
X-17.223Y20.756Z-22.199
X-17.154Y20.837Z-21.96
X-17.059Y20.896Z-21.723
X-16.941Y20.931Z-21.493
X-16.799Y20.943Z-21.273
X-16.638Y20.931Z-21.067
X-16.46Y20.895Z-20.879
X-16.268Y20.835Z-20.712
X-16.065Y20.754Z-20.568
X-16.044Y20.745Z-20.555
X-15.91Y20.737Z-20.518
X-15.838Y20.689Z-20.463
X-15.746Y20.64Z-20.404
X-15.67Y20.602Z-20.355
X-15.569Y20.55Z-20.284
X-15.499Y20.517Z-20.234
X-15.413Y20.475Z-20.168
X-15.343Y20.444Z-20.114
X-15.316Y20.431Z-20.09
X-15.21Y20.385Z-20.002
X-15.121Y20.35Z-19.926
X-15.084Y20.336Z-19.892
X-15.Y20.306Z-19.815
X-14.966Y20.294Z-19.784
X-14.779Y20.213Z-19.62
X-14.592Y20.102Z-19.474
X-14.41Y19.963Z-19.347
X-14.235Y19.799Z-19.243
X-14.07Y19.613Z-19.162
X-13.917Y19.408Z-19.106
X-13.781Y19.187Z-19.077
X-13.662Y18.954Z-19.074
X-13.563Y18.713Z-19.098
X-13.486Y18.468Z-19.148
X-17.1Y21.149Z-22.789
X-17.207Y21.082Z-22.559
X-17.283Y21.001Z-22.322
X-17.328Y20.908Z-22.082
X-17.34Y20.804Z-21.842
X-17.32Y20.691Z-21.607
X-17.267Y20.57Z-21.381
X-17.183Y20.444Z-21.168
X-17.069Y20.315Z-20.971
X-16.927Y20.185Z-20.793
X-16.76Y20.057Z-20.639
X-16.746Y20.047Z-20.628
X-16.67Y20.003Z-20.564
X-16.601Y19.957Z-20.503
X-16.519Y19.9Z-20.427
X-16.459Y19.864Z-20.368
X-16.365Y19.798Z-20.271
X-16.317Y19.772Z-20.219
X-16.236Y19.715Z-20.126
X-16.183Y19.685Z-20.064
X-16.155Y19.665Z-20.028
X-16.072Y19.613Z-19.922
X-15.999Y19.569Z-19.823
X-15.97Y19.551Z-19.782
X-15.877Y19.496Z-19.644
X-15.818Y19.462Z-19.553
X-15.792Y19.448Z-19.509
X-15.709Y19.4Z-19.368
X-15.626Y19.348Z-19.215
X-15.625Z-19.212
X-15.549Y19.29Z-19.055
X-15.479Y19.23Z-18.895
X-15.447Y19.2Z-18.815
X-15.375Y19.124Z-18.614
X-15.327Y19.067Z-18.465
X-15.315Y19.049Z-18.418
X-15.284Y19.005Z-18.302
X-15.248Y18.942Z-18.14
X-15.229Y18.902Z-18.04
X-15.201Y18.835Z-17.868
X-15.183Y18.77Z-17.703
X-15.173Y18.704Z-17.541
X-15.169Y18.652Z-17.411
X-15.168Y18.596Z-17.273
Y17.797Z-15.341
Y3.797Z18.458
Y3.597Z18.94
X-15.169Y3.501Z19.169
X-15.172Y3.433Z19.33
X-15.183Y3.356Z19.51
X-15.195Y3.294Z19.653
X-15.207Y3.243Z19.772
X-15.213Y3.22Z19.824
X-15.238Y3.146Z19.995
X-15.26Y3.088Z20.127
X-15.297Y3.005Z20.315
X-15.348Y2.908Z20.532
X-15.374Y2.865Z20.628
X-15.424Y2.786Z20.803
X-15.48Y2.709Z20.973
X-15.532Y2.642Z21.12
X-15.587Y2.577Z21.262
X-15.673Y2.482Z21.465
X-15.74Y2.415Z21.61
X-15.815Y2.342Z21.764
X-15.922Y2.247Z21.964
X-16.007Y2.178Z22.109
X-16.099Y2.105Z22.259
X-16.138Y2.077Z22.318
X-16.201Y2.029Z22.414
X-16.322Y1.942Z22.58
X-16.359Y1.914Z22.627
X-16.433Y1.866Z22.722
X-16.532Y1.803Z22.845
X-16.636Y1.744Z22.971
X-16.696Y1.712Z23.043
X-16.765Y1.679Z23.122
X-16.871Y1.631Z23.243
X-16.974Y1.591Z23.356
X-17.112Y1.542Z23.503
X-17.227Y1.507Z23.623
X-17.34Y1.48Z23.735
X-17.49Y1.449Z23.878
X-17.615Y1.425Z23.992
X-17.699Y1.413Z24.065
X-17.773Y1.39Z24.12
X-17.877Y1.364Z24.199
X-17.987Y1.334Z24.276
X-18.186Y1.269Z24.433
X-18.361Y1.193Z24.612
X-18.509Y1.105Z24.809
X-18.628Y1.008Z25.021
X-18.715Y.902Z25.244
X-18.77Y.791Z25.474
X-18.79Y.676Z25.708
X-18.777Y.558Z25.941
X-18.73Y.44Z26.17
X-18.649Y.325Z26.39
X-13.999Y2.177Z20.274
X-14.055Y2.374Z20.437
X-14.125Y2.546Z20.622
X-14.205Y2.691Z20.824
X-14.296Y2.807Z21.04
X-14.395Y2.891Z21.267
X-14.501Y2.943Z21.501
X-14.612Y2.961Z21.737
X-14.725Y2.944Z21.972
X-14.84Y2.894Z22.202
X-14.954Y2.811Z22.422
X-15.Y2.771Z22.509
X-15.071Y2.709Z22.643
X-15.163Y2.635Z22.803
X-15.273Y2.549Z22.985
X-15.311Y2.521Z23.046
X-15.395Y2.462Z23.168
X-15.529Y2.388Z23.319
X-15.582Y2.366Z23.361
X-15.658Y2.333Z23.423
X-15.784Y2.282Z23.518
X-15.909Y2.231Z23.615
X-15.974Y2.207Z23.666
X-16.042Y2.182Z23.722
X-16.17Y2.143Z23.82
X-16.294Y2.109Z23.917
X-16.432Y2.077Z24.027
X-16.565Y2.052Z24.127
X-16.697Y2.033Z24.227
X-16.844Y2.016Z24.339
X-16.99Y1.996Z24.44
X-17.105Y1.976Z24.489
X-17.277Y1.943Z24.564
X-17.448Y1.9Z24.614
X-17.621Y1.854Z24.672
X-17.855Y1.774Z24.756
X-18.074Y1.665Z24.847
X-18.275Y1.527Z24.942
X-18.454Y1.363Z25.041
X-18.607Y1.176Z25.141
X-18.733Y.969Z25.24
X-18.828Y.746Z25.337
X-18.892Y.51Z25.431
X-18.924Y.266Z25.519
X-18.922Y.017Z25.6
G00X10.
Y-17.785Z22.711
X-17.374
G01X-18.374F1200.
X-18.465Y-17.815Z22.468
X-18.524Y-17.837Z22.214
X-18.55Y-17.852Z21.954
X-18.543Y-17.858Z21.692
X-18.504Y-17.855Z21.434
X-18.432Y-17.844Z21.182
X-18.329Y-17.825Z20.943
X-18.196Y-17.797Z20.719
X-18.037Y-17.762Z20.515
X-17.853Y-17.721Z20.333
X-17.782Y-17.704Z20.272
X-17.706Y-17.683Z20.203
X-17.613Y-17.656Z20.117
X-17.564Y-17.652Z20.072
X-17.473Y-17.625Z19.98
X-17.399Y-17.609Z19.905
X-17.292Y-17.584Z19.79
X-17.269Y-17.577Z19.764
X-17.155Y-17.554Z19.634
X-17.026Y-17.533Z19.481
X-16.865Y-17.514Z19.28
X-16.802Y-17.506Z19.194
X-16.691Y-17.499Z19.044
X-16.571Y-17.496Z18.874
X-16.48Y-17.497Z18.738
X-16.385Y-17.502Z18.595
X-16.269Y-17.514Z18.412
X-16.181Y-17.525Z18.262
X-16.101Y-17.533Z18.12
X-16.003Y-17.544Z17.934
X-15.928Y-17.553Z17.779
X-15.863Y-17.561Z17.639
X-15.781Y-17.57Z17.449
X-15.722Y-17.577Z17.3
X-15.647Y-17.587Z17.098
X-15.601Y-17.592Z16.961
X-15.557Y-17.598Z16.823
X-15.509Y-17.604Z16.661
X-15.464Y-17.609Z16.486
X-15.431Y-17.614Z16.349
X-15.391Y-17.62Z16.163
X-15.363Y-17.624Z16.013
X-15.338Y-17.628Z15.862
X-15.313Y-17.632Z15.678
X-15.297Y-17.635Z15.544
X-15.28Y-17.638Z15.359
X-15.271Y-17.64Z15.21
X-15.264Y-17.642Z15.057
X-15.262Y-17.644Z14.878
Y-17.646Z14.688
Z14.487
Z-24.313
Y-17.645Z-24.513
X-15.263Y-17.642Z-24.699
X-15.266Z-24.818
X-15.276Y-17.641Z-24.98
X-15.292Y-17.64Z-25.138
X-15.308Y-17.639Z-25.259
X-15.332Y-17.637Z-25.412
X-15.366Y-17.634Z-25.577
X-15.398Y-17.631Z-25.709
X-15.433Y-17.628Z-25.841
X-15.482Y-17.624Z-26.004
X-15.539Y-17.619Z-26.166
X-15.598Y-17.614Z-26.317
X-15.647Y-17.609Z-26.433
X-15.718Y-17.603Z-26.587
X-15.797Y-17.597Z-26.743
X-15.879Y-17.595Z-26.895
X-15.957Y-17.598Z-27.032
X-16.034Y-17.607Z-27.164
X-16.115Y-17.619Z-27.297
X-16.206Y-17.636Z-27.439
X-16.306Y-17.659Z-27.584
X-16.416Y-17.689Z-27.736
X-16.519Y-17.72Z-27.868
X-16.622Y-17.758Z-27.995
X-16.675Y-17.777Z-28.057
X-16.795Y-17.826Z-28.19
X-16.841Y-17.848Z-28.24
X-16.999Y-17.923Z-28.435
X-17.131Y-17.989Z-28.651
X-17.236Y-18.043Z-28.885
X-17.311Y-18.085Z-29.132
X-17.356Y-18.115Z-29.387
X-17.37Y-18.132Z-29.648
X-17.353Y-18.136Z-29.909
X-17.304Y-18.125Z-30.166
X-17.225Y-18.102Z-30.414
X-17.117Y-18.066Z-30.65
G00X10.
Y20.44Z-22.693
X-16.257
G01X-17.257F1200.
X-17.253Y20.565Z-22.464
X-17.222Y20.671Z-22.227
X-17.164Y20.757Z-21.986
X-17.08Y20.82Z-21.747
X-16.97Y20.861Z-21.513
X-16.839Y20.877Z-21.287
X-16.686Y20.87Z-21.075
X-16.516Y20.838Z-20.879
X-16.331Y20.783Z-20.703
X-16.133Y20.705Z-20.549
X-16.114Y20.697Z-20.536
X-15.986Y20.688Z-20.493
X-15.915Y20.644Z-20.434
X-15.826Y20.596Z-20.371
X-15.753Y20.56Z-20.321
X-15.654Y20.508Z-20.247
X-15.587Y20.477Z-20.197
X-15.503Y20.436Z-20.128
X-15.436Y20.406Z-20.074
X-15.409Y20.393Z-20.049
X-15.307Y20.35Z-19.959
X-15.221Y20.317Z-19.881
X-15.185Y20.303Z-19.847
X-15.07Y20.264Z-19.737
X-15.006Y20.243Z-19.672
X-15.Y20.241Z-19.666
X-14.962Y20.229Z-19.629
X-14.775Y20.157Z-19.46
X-14.589Y20.055Z-19.307
X-14.407Y19.924Z-19.173
X-14.231Y19.767Z-19.059
X-14.065Y19.586Z-18.968
X-13.912Y19.385Z-18.902
X-13.773Y19.167Z-18.861
X-13.652Y18.935Z-18.846
X-13.551Y18.695Z-18.858
X-13.471Y18.448Z-18.896
X-17.082Y21.125Z-22.786
X-17.187Y21.067Z-22.554
X-17.261Y20.996Z-22.314
X-17.304Y20.912Z-22.069
X-17.315Y20.817Z-21.826
X-17.292Y20.714Z-21.587
X-17.238Y20.602Z-21.356
X-17.152Y20.486Z-21.138
X-17.036Y20.365Z-20.937
X-16.893Y20.244Z-20.755
X-16.724Y20.123Z-20.597
X-16.71Y20.113Z-20.585
X-16.633Y20.075Z-20.519
X-16.563Y20.031Z-20.458
X-16.482Y19.977Z-20.382
X-16.422Y19.944Z-20.323
X-16.328Y19.882Z-20.227
X-16.28Y19.858Z-20.175
X-16.2Y19.805Z-20.083
X-16.147Y19.777Z-20.021
X-16.119Y19.759Z-19.986
X-16.037Y19.711Z-19.881
X-15.966Y19.671Z-19.783
X-15.937Y19.655Z-19.743
X-15.846Y19.605Z-19.607
X-15.788Y19.573Z-19.518
X-15.762Y19.561Z-19.475
X-15.681Y19.518Z-19.337
X-15.598Y19.467Z-19.182
X-15.521Y19.409Z-19.024
X-15.451Y19.349Z-18.863
X-15.419Y19.319Z-18.781
X-15.346Y19.242Z-18.578
X-15.298Y19.185Z-18.427
X-15.285Y19.167Z-18.38
X-15.254Y19.122Z-18.264
X-15.218Y19.059Z-18.101
X-15.198Y19.02Z-17.998
X-15.171Y18.952Z-17.824
X-15.153Y18.887Z-17.659
X-15.142Y18.822Z-17.495
X-15.138Y18.769Z-17.363
X-15.139Y18.714Z-17.224
Y17.915Z-15.293
Y3.915Z18.507
Y3.619Z19.218
X-15.142Y3.55Z19.38
X-15.153Y3.474Z19.561
X-15.165Y3.411Z19.705
X-15.177Y3.361Z19.824
X-15.183Y3.338Z19.877
X-15.209Y3.263Z20.049
X-15.231Y3.205Z20.183
X-15.268Y3.122Z20.372
X-15.32Y3.026Z20.59
X-15.346Y2.982Z20.687
X-15.397Y2.903Z20.863
X-15.453Y2.826Z21.033
X-15.506Y2.758Z21.181
X-15.561Y2.694Z21.324
X-15.648Y2.599Z21.528
X-15.715Y2.531Z21.675
X-15.791Y2.459Z21.83
X-15.899Y2.363Z22.03
X-15.984Y2.294Z22.176
X-16.078Y2.221Z22.327
X-16.116Y2.193Z22.387
X-16.18Y2.145Z22.483
X-16.3Y2.058Z22.647
X-16.336Y2.029Z22.692
X-16.408Y1.981Z22.783
X-16.505Y1.916Z22.901
X-16.666Y1.823Z23.091
X-16.838Y1.739Z23.284
X-16.941Y1.696Z23.393
X-17.077Y1.645Z23.535
X-17.192Y1.607Z23.651
X-17.305Y1.577Z23.76
X-17.454Y1.542Z23.899
X-17.58Y1.516Z24.01
X-17.665Y1.499Z24.082
X-17.746Y1.471Z24.141
X-17.854Y1.438Z24.219
X-17.968Y1.403Z24.296
X-18.168Y1.331Z24.449
X-18.344Y1.248Z24.624
X-18.493Y1.156Z24.818
X-18.613Y1.055Z25.027
X-18.701Y.948Z25.249
X-18.757Y.837Z25.479
X-18.779Y.722Z25.713
X-18.767Y.607Z25.948
X-18.72Y.493Z26.179
X-18.641Y.383Z26.402
X-14.086Y2.279Z20.011
X-14.141Y2.475Z20.175
X-14.207Y2.647Z20.361
X-14.284Y2.792Z20.565
X-14.369Y2.907Z20.783
X-14.463Y2.991Z21.013
X-14.563Y3.042Z21.249
X-14.667Y3.059Z21.489
X-14.774Y3.042Z21.727
X-14.882Y2.991Z21.96
X-14.988Y2.907Z22.183
X-15.Y2.896Z22.207
X-15.076Y2.824Z22.365
X-15.178Y2.735Z22.558
X-15.283Y2.65Z22.741
X-15.392Y2.566Z22.919
X-15.429Y2.538Z22.979
X-15.511Y2.481Z23.098
X-15.644Y2.407Z23.249
X-15.694Y2.385Z23.29
X-15.77Y2.351Z23.355
X-15.892Y2.301Z23.45
X-16.014Y2.25Z23.547
X-16.077Y2.223Z23.598
X-16.145Y2.195Z23.656
X-16.268Y2.152Z23.752
X-16.388Y2.115Z23.849
X-16.524Y2.079Z23.961
X-16.653Y2.051Z24.062
X-16.78Y2.029Z24.162
X-16.924Y2.003Z24.277
X-17.066Y1.977Z24.38
X-17.176Y1.954Z24.432
X-17.337Y1.917Z24.507
X-17.502Y1.873Z24.56
X-17.667Y1.825Z24.621
X-17.898Y1.742Z24.711
X-18.113Y1.629Z24.807
X-18.31Y1.487Z24.906
X-18.484Y1.319Z25.007
X-18.632Y1.129Z25.108
X-18.752Y.919Z25.207
X-18.843Y.693Z25.303
X-18.902Y.455Z25.394
X-18.928Y.209Z25.478
X-18.921Y-.042Z25.554
G00X10.
Y-16.991Z22.345
X-16.244
G01X-17.244F1200.
X-17.368Y-17.165Z22.194
X-17.461Y-17.346Z22.029
X-17.521Y-17.53Z21.854
X-17.549Y-17.715Z21.671
X-17.542Y-17.898Z21.484
X-17.502Y-18.074Z21.295
X-17.428Y-18.242Z21.108
X-17.323Y-18.398Z20.926
X-17.188Y-18.539Z20.752
X-17.026Y-18.664Z20.59
X-16.927Y-18.659Z20.574
X-16.884Y-18.628Z20.517
X-16.836Y-18.601Z20.461
X-16.758Y-18.598Z20.436
X-16.58Y-18.568Z20.31
X-16.472Y-18.562Z20.273
X-16.324Y-18.53Z20.162
X-16.18Y-18.507Z20.055
X-16.039Y-18.488Z19.946
X-15.903Y-18.475Z19.837
X-15.858Y-18.472Z19.801
X-15.775Y-18.467Z19.731
X-15.648Y-18.465Z19.622
X-15.524Y-18.468Z19.511
X-15.404Y-18.477Z19.407
X-15.287Y-18.486Z19.3
X-15.165Y-18.496Z19.14
X-15.051Y-18.506Z18.95
X-15.Y-18.51Z18.858
X-14.946Y-18.515Z18.759
X-14.819Y-18.508Z18.531
X-14.691Y-18.468Z18.306
X-14.565Y-18.394Z18.089
X-14.443Y-18.288Z17.884
X-14.326Y-18.152Z17.693
X-14.217Y-17.988Z17.521
X-14.117Y-17.799Z17.37
X-14.029Y-17.588Z17.242
X-13.954Y-17.359Z17.141
X-13.893Y-17.115Z17.067
G00X10.
Y-31.897Z16.515
X-13.035
G01X-14.035F1200.
X-14.092Y-31.653Z16.59
X-14.162Y-31.424Z16.694
X-14.243Y-31.212Z16.825
X-14.335Y-31.022Z16.98
X-14.435Y-30.858Z17.157
X-14.542Y-30.721Z17.353
X-14.653Y-30.614Z17.564
X-14.768Y-30.539Z17.787
X-14.884Y-30.497Z18.018
X-14.999Y-30.49Z18.252
X-15.Z18.254
X-15.089Y-30.497Z18.437
X-15.19Y-30.506Z18.632
X-15.29Y-30.514Z18.813
X-15.399Y-30.523Z18.995
X-15.518Y-30.533Z19.158
X-15.624Y-30.542Z19.268
X-15.731Y-30.551Z19.374
X-15.845Y-30.56Z19.495
X-15.961Y-30.564Z19.61
X-16.077Y-30.562Z19.72
X-16.202Y-30.553Z19.838
X-16.333Y-30.538Z19.955
X-16.465Y-30.518Z20.067
X-16.604Y-30.49Z20.183
X-16.754Y-30.452Z20.307
X-16.846Y-30.434Z20.369
X-17.066Y-30.406Z20.496
X-17.253Y-30.395Z20.594
X-17.51Y-30.4Z20.708
X-17.744Y-30.417Z20.825
X-17.964Y-30.46Z20.96
X-18.166Y-30.527Z21.112
X-18.347Y-30.616Z21.278
X-18.504Y-30.728Z21.455
X-18.635Y-30.859Z21.64
X-18.736Y-31.007Z21.83
X-18.806Y-31.171Z22.022
X-18.845Y-31.346Z22.212
X-18.851Y-31.531Z22.398
G00X10.
Y-31.437Z-30.178
X-16.494
G01X-17.494F1200.
X-17.476Y-31.238Z-30.009
X-17.428Y-31.052Z-29.832
X-17.351Y-30.882Z-29.648
X-17.245Y-30.731Z-29.463
X-17.112Y-30.602Z-29.278
X-16.955Y-30.497Z-29.097
X-16.777Y-30.417Z-28.923
X-16.58Y-30.364Z-28.759
X-16.368Y-30.339Z-28.608
X-16.145Y-30.342Z-28.472
X-15.989Y-30.354Z-28.385
X-15.906Y-30.361Z-28.342
X-15.868Y-30.371Z-28.31
X-15.781Y-30.4Z-28.226
X-15.663Y-30.432Z-28.114
X-15.597Y-30.45Z-28.044
X-15.553Y-30.459Z-27.999
X-15.448Y-30.48Z-27.882
X-15.348Y-30.493Z-27.767
X-15.252Y-30.5Z-27.654
X-15.208Y-30.501Z-27.605
X-15.16Z-27.545
X-15.07Y-30.495Z-27.439
X-15.Y-30.49Z-27.355
X-14.981Y-30.488Z-27.333
X-14.813Y-30.492Z-27.133
X-14.644Y-30.53Z-26.937
X-14.478Y-30.601Z-26.748
X-14.318Y-30.704Z-26.568
X-14.166Y-30.838Z-26.402
X-14.026Y-31.Z-26.252
X-13.899Y-31.187Z-26.12
X-13.788Y-31.396Z-26.01
X-13.695Y-31.624Z-25.921
X-13.621Y-31.867Z-25.857
X-17.086Y-30.808Z-30.625
X-17.19Y-30.767Z-30.389
X-17.264Y-30.737Z-30.14
X-17.307Y-30.72Z-29.882
X-17.318Y-30.716Z-29.621
X-17.298Y-30.724Z-29.36
X-17.246Y-30.744Z-29.104
X-17.164Y-30.777Z-28.858
X-17.053Y-30.821Z-28.626
X-16.914Y-30.876Z-28.411
X-16.75Y-30.941Z-28.217
X-16.691Y-30.964Z-28.156
X-16.632Y-30.99Z-28.092
X-16.596Y-31.004Z-28.053
X-16.522Y-31.031Z-27.971
X-16.42Y-31.067Z-27.85
X-16.349Y-31.094Z-27.758
X-16.317Y-31.103Z-27.718
X-16.218Y-31.135Z-27.582
X-16.122Y-31.16Z-27.444
X-16.034Y-31.18Z-27.309
X-15.956Y-31.194Z-27.183
X-15.882Y-31.203Z-27.057
X-15.808Y-31.208Z-26.926
X-15.73Z-26.781
X-15.652Y-31.202Z-26.627
X-15.58Y-31.195Z-26.471
X-15.521Y-31.188Z-26.333
X-15.468Y-31.183Z-26.196
X-15.411Y-31.177Z-26.033
X-15.36Y-31.172Z-25.868
X-15.324Y-31.168Z-25.732
X-15.3Y-31.165Z-25.637
X-15.257Y-31.159Z-25.43
X-15.231Y-31.156Z-25.274
X-15.214Y-31.153Z-25.148
X-15.198Y-31.151Z-24.988
X-15.188Y-31.149Z-24.823
X-15.184Y-31.147Z-24.7
X-15.181Y-31.136Z-24.513
Z14.487
Y-31.137Z14.878
X-15.184Y-31.138Z15.059
X-15.191Y-31.14Z15.215
X-15.2Y-31.142Z15.367
X-15.218Y-31.144Z15.552
X-15.234Y-31.147Z15.69
X-15.259Y-31.15Z15.875
X-15.285Y-31.153Z16.029
X-15.315Y-31.157Z16.19
X-15.354Y-31.162Z16.369
X-15.388Y-31.166Z16.509
X-15.434Y-31.171Z16.686
X-15.483Y-31.176Z16.85
X-15.527Y-31.182Z16.992
X-15.594Y-31.189Z17.186
X-15.65Y-31.195Z17.334
X-15.711Y-31.202Z17.487
X-15.793Y-31.21Z17.676
X-15.86Y-31.217Z17.82
X-15.937Y-31.226Z17.978
X-16.035Y-31.235Z18.164
X-16.117Y-31.243Z18.309
X-16.208Y-31.253Z18.462
X-16.322Y-31.263Z18.642
X-16.412Y-31.266Z18.778
X-16.499Y-31.265Z18.907
X-16.614Y-31.258Z19.068
X-16.72Y-31.249Z19.209
X-16.816Y-31.237Z19.334
X-16.938Y-31.222Z19.481
X-17.063Y-31.204Z19.625
X-17.175Y-31.182Z19.747
X-17.305Y-31.153Z19.881
X-17.457Y-31.113Z20.03
X-17.521Y-31.097Z20.089
X-17.684Y-31.047Z20.233
X-17.779Y-31.024Z20.31
X-17.947Y-30.99Z20.439
X-18.141Y-30.949Z20.61
X-18.311Y-30.91Z20.805
X-18.454Y-30.872Z21.021
X-18.568Y-30.838Z21.254
X-18.65Y-30.806Z21.5
X-18.7Y-30.779Z21.756
X-18.715Y-30.756Z22.016
X-18.697Y-30.738Z22.276
X-18.646Y-30.725Z22.532
X-18.562Y-30.717Z22.78
X-14.036Y-31.897Z16.065
X-14.089Y-31.653Z16.142
X-14.154Y-31.423Z16.249
X-14.229Y-31.211Z16.382
X-14.313Y-31.02Z16.541
X-14.405Y-30.855Z16.722
X-14.502Y-30.717Z16.922
X-14.604Y-30.61Z17.137
X-14.708Y-30.534Z17.365
X-14.813Y-30.492Z17.601
X-14.917Y-30.483Z17.841
X-15.Y-30.49Z18.034
X-15.001Z18.036
X-15.082Y-30.497Z18.213
X-15.171Y-30.504Z18.396
X-15.272Y-30.513Z18.59
X-15.37Y-30.521Z18.767
X-15.478Y-30.53Z18.947
X-15.595Y-30.539Z19.11
X-15.697Y-30.548Z19.221
X-15.8Y-30.557Z19.328
X-15.912Y-30.566Z19.452
X-16.023Y-30.572Z19.57
X-16.135Z19.681
X-16.257Y-30.565Z19.801
X-16.385Y-30.552Z19.921
X-16.512Y-30.533Z20.034
X-16.648Y-30.506Z20.153
X-16.794Y-30.47Z20.281
X-16.882Y-30.452Z20.345
X-17.094Y-30.424Z20.478
X-17.274Y-30.412Z20.579
X-17.523Y-30.413Z20.699
X-17.753Y-30.426Z20.823
X-17.969Y-30.465Z20.965
X-18.167Y-30.528Z21.123
X-18.345Y-30.614Z21.295
X-18.498Y-30.723Z21.477
X-18.625Y-30.851Z21.667
X-18.722Y-30.998Z21.86
X-18.789Y-31.159Z22.055
X-18.825Y-31.334Z22.246
X-18.828Y-31.518Z22.432
G00X10.
Y-31.453Z-30.201
X-16.469
G01X-17.469F1200.
X-17.456Y-31.253Z-30.033
X-17.412Y-31.066Z-29.855
X-17.339Y-30.896Z-29.671
X-17.238Y-30.745Z-29.483
X-17.111Y-30.615Z-29.294
X-16.96Y-30.51Z-29.109
X-16.787Y-30.431Z-28.929
X-16.596Y-30.378Z-28.759
X-16.389Y-30.354Z-28.6
X-16.17Y-30.359Z-28.457
X-16.022Y-30.371Z-28.367
X-15.943Y-30.378Z-28.321
X-15.906Y-30.388Z-28.288
X-15.822Y-30.414Z-28.203
X-15.708Y-30.446Z-28.089
X-15.644Y-30.463Z-28.016
X-15.603Y-30.472Z-27.97
X-15.502Y-30.491Z-27.851
X-15.406Y-30.504Z-27.733
X-15.314Y-30.509Z-27.618
X-15.273Z-27.569
X-15.226Y-30.508Z-27.509
X-15.056Y-30.495Z-27.295
X-15.Y-30.49Z-27.221
X-14.971Y-30.488Z-27.183
X-14.813Y-30.491Z-26.975
X-14.654Y-30.529Z-26.771
X-14.497Y-30.601Z-26.574
X-14.346Y-30.704Z-26.387
X-14.203Y-30.838Z-26.214
X-14.07Y-31.Z-26.057
X-13.95Y-31.188Z-25.92
X-13.844Y-31.397Z-25.804
X-13.755Y-31.625Z-25.712
X-13.683Y-31.868Z-25.645
G00X10.
Y-16.989Z-26.479
X-12.482
G01X-13.482F1200.
X-13.56Y-17.237Z-26.507
X-13.659Y-17.473Z-26.559
X-13.778Y-17.694Z-26.634
X-13.915Y-17.895Z-26.731
X-14.067Y-18.073Z-26.848
X-14.232Y-18.224Z-26.983
X-14.407Y-18.347Z-27.134
X-14.588Y-18.44Z-27.298
X-14.774Y-18.499Z-27.473
X-14.96Y-18.526Z-27.655
X-15.Y-18.528Z-27.695
X-15.064Y-18.531Z-27.759
X-15.173Y-18.542Z-27.866
X-15.285Y-18.559Z-27.974
X-15.411Y-18.584Z-28.09
X-15.526Y-18.611Z-28.19
X-15.657Y-18.646Z-28.297
X-15.72Y-18.665Z-28.35
X-15.888Y-18.695Z-28.439
X-16.068Y-18.707Z-28.518
X-16.303Y-18.709Z-28.632
X-16.528Y-18.682Z-28.762
X-16.739Y-18.628Z-28.907
X-16.932Y-18.547Z-29.065
X-17.104Y-18.442Z-29.231
X-17.252Y-18.312Z-29.404
X-17.373Y-18.162Z-29.58
X-17.465Y-17.993Z-29.757
X-17.527Y-17.808Z-29.932
X-17.558Y-17.61Z-30.1
G00X10.
Y20.365Z-22.71
X-16.248
G01X-17.248F1200.
X-17.253Y20.492Z-22.482
X-17.231Y20.601Z-22.245
X-17.181Y20.69Z-22.004
X-17.105Y20.756Z-21.762
X-17.005Y20.799Z-21.525
X-16.881Y20.819Z-21.295
X-16.736Y20.814Z-21.077
X-16.573Y20.784Z-20.875
X-16.393Y20.731Z-20.692
X-16.202Y20.656Z-20.531
X-16.183Y20.648Z-20.517
X-16.062Y20.639Z-20.469
X-15.993Y20.596Z-20.407
X-15.906Y20.553Z-20.338
X-15.836Y20.519Z-20.286
X-15.739Y20.468Z-20.209
X-15.675Y20.439Z-20.159
X-15.593Y20.398Z-20.087
X-15.529Y20.37Z-20.032
X-15.502Y20.357Z-20.006
X-15.403Y20.316Z-19.915
X-15.32Y20.284Z-19.835
X-15.286Y20.272Z-19.801
X-15.175Y20.234Z-19.689
X-15.112Y20.213Z-19.622
X-15.07Y20.199Z-19.581
X-15.Y20.174Z-19.505
X-14.971Y20.163Z-19.473
X-14.799Y20.085Z-19.292
X-14.627Y19.977Z-19.127
X-14.458Y19.84Z-18.981
X-14.295Y19.678Z-18.857
X-14.14Y19.492Z-18.756
X-13.998Y19.287Z-18.681
X-13.868Y19.064Z-18.632
X-13.755Y18.829Z-18.611
X-13.66Y18.586Z-18.617
X-13.585Y18.338Z-18.651
X-16.998Y20.906Z-22.865
X-17.103Y20.89Z-22.626
X-17.179Y20.859Z-22.378
X-17.224Y20.813Z-22.124
X-17.237Y20.754Z-21.869
X-17.219Y20.683Z-21.618
X-17.17Y20.6Z-21.375
X-17.09Y20.508Z-21.144
X-16.98Y20.408Z-20.929
X-16.844Y20.3Z-20.733
X-16.682Y20.189Z-20.56
X-16.669Y20.18Z-20.547
X-16.591Y20.147Z-20.477
X-16.525Y20.105Z-20.413
X-16.446Y20.054Z-20.335
X-16.387Y20.023Z-20.276
X-16.295Y19.965Z-20.179
X-16.248Y19.943Z-20.127
X-16.168Y19.894Z-20.036
X-16.116Y19.87Z-19.974
X-16.089Y19.852Z-19.94
X-16.008Y19.809Z-19.836
X-15.909Y19.758Z-19.7
X-15.82Y19.713Z-19.567
X-15.765Y19.685Z-19.479
X-15.739Y19.675Z-19.437
X-15.661Y19.636Z-19.303
X-15.579Y19.587Z-19.148
X-15.502Y19.529Z-18.989
X-15.431Y19.469Z-18.827
X-15.398Y19.437Z-18.743
X-15.325Y19.361Z-18.539
X-15.277Y19.304Z-18.387
X-15.264Y19.286Z-18.34
X-15.233Y19.241Z-18.223
X-15.196Y19.178Z-18.058
X-15.177Y19.138Z-17.955
X-15.149Y19.07Z-17.779
X-15.131Y19.006Z-17.612
X-15.128Y18.992Z-17.577
X-15.12Y18.941Z-17.448
X-15.117Y18.888Z-17.314
X-15.116Y18.833Z-17.175
Y18.482Z-16.324
Y3.901Z18.876
X-15.117Y3.739Z19.268
X-15.121Y3.67Z19.431
X-15.132Y3.593Z19.612
X-15.144Y3.531Z19.758
X-15.157Y3.481Z19.877
X-15.163Y3.457Z19.93
X-15.189Y3.383Z20.103
X-15.211Y3.324Z20.238
X-15.249Y3.241Z20.427
X-15.301Y3.145Z20.646
X-15.327Y3.101Z20.744
X-15.379Y3.022Z20.921
X-15.404Y2.988Z20.998
X-15.435Y2.945Z21.092
X-15.489Y2.877Z21.241
X-15.544Y2.813Z21.384
X-15.631Y2.718Z21.589
X-15.699Y2.651Z21.736
X-15.776Y2.578Z21.892
X-15.885Y2.483Z22.094
X-15.971Y2.414Z22.24
X-16.065Y2.341Z22.392
X-16.104Y2.313Z22.451
X-16.168Y2.265Z22.548
X-16.286Y2.177Z22.709
X-16.321Y2.148Z22.752
X-16.391Y2.1Z22.84
X-16.484Y2.033Z22.953
X-16.642Y1.936Z23.136
X-16.811Y1.849Z23.321
X-16.913Y1.803Z23.427
X-17.046Y1.75Z23.564
X-17.161Y1.709Z23.676
X-17.274Y1.675Z23.782
X-17.421Y1.638Z23.918
X-17.547Y1.608Z24.025
X-17.633Y1.586Z24.097
X-17.721Y1.553Z24.159
X-17.833Y1.514Z24.238
X-17.95Y1.473Z24.315
X-18.149Y1.393Z24.465
X-18.324Y1.304Z24.637
X-18.473Y1.207Z24.83
X-18.592Y1.103Z25.038
X-18.68Y.994Z25.259
X-18.734Y.882Z25.489
X-18.755Y.769Z25.724
X-18.742Y.657Z25.96
X-18.695Y.547Z26.193
X-18.615Y.442Z26.418
X-14.126Y2.475Z19.529
X-14.177Y2.671Z19.695
X-14.238Y2.842Z19.883
X-14.308Y2.987Z20.089
X-14.386Y3.101Z20.311
X-14.471Y3.184Z20.544
X-14.561Y3.234Z20.785
X-14.655Y3.251Z21.028
X-14.75Y3.233Z21.271
X-14.846Y3.181Z21.509
X-14.941Y3.096Z21.738
X-15.Y3.033Z21.877
X-15.035Y2.995Z21.961
X-15.112Y2.918Z22.131
X-15.199Y2.837Z22.308
X-15.313Y2.737Z22.523
X-15.404Y2.664Z22.679
X-15.51Y2.583Z22.853
X-15.548Y2.554Z22.913
X-15.627Y2.5Z23.028
X-15.758Y2.425Z23.179
X-15.807Y2.404Z23.219
X-15.882Y2.37Z23.286
X-16.Y2.32Z23.381
X-16.118Y2.269Z23.479
X-16.181Y2.241Z23.531
X-16.247Y2.211Z23.59
X-16.367Y2.165Z23.686
X-16.482Y2.124Z23.781
X-16.616Y2.083Z23.896
X-16.74Y2.052Z23.997
X-16.863Y2.024Z24.097
X-17.005Y1.99Z24.215
X-17.141Y1.958Z24.319
X-17.247Y1.931Z24.375
X-17.398Y1.892Z24.449
X-17.555Y1.846Z24.507
X-17.713Y1.797Z24.57
X-17.94Y1.71Z24.667
X-18.152Y1.593Z24.768
X-18.343Y1.448Z24.871
X-18.512Y1.277Z24.975
X-18.655Y1.084Z25.079
X-18.77Y.872Z25.179
X-18.854Y.644Z25.276
X-18.907Y.404Z25.366
X-18.928Y.157Z25.448
X-18.916Y-.094Z25.522
G00X10.
Y-17.005Z22.365
X-16.204
G01X-17.204F1200.
X-17.334Y-17.176Z22.216
X-17.433Y-17.354Z22.052
X-17.5Y-17.536Z21.876
X-17.535Y-17.717Z21.69
Y-17.896Z21.499
X-17.503Y-18.069Z21.306
X-17.437Y-18.233Z21.113
X-17.339Y-18.385Z20.924
X-17.211Y-18.524Z20.743
X-17.055Y-18.645Z20.572
X-16.96Y-18.642Z20.55
X-16.916Y-18.611Z20.494
X-16.868Y-18.584Z20.437
X-16.793Y-18.58Z20.411
X-16.62Y-18.55Z20.284
X-16.516Y-18.544Z20.243
X-16.393Y-18.518Z20.148
X-16.371Y-18.514Z20.13
X-16.231Y-18.491Z20.022
X-16.093Y-18.473Z19.91
X-15.961Y-18.462Z19.798
X-15.918Y-18.459Z19.761
X-15.838Y-18.456Z19.691
X-15.715Z19.58
X-15.594Y-18.461Z19.465
X-15.478Y-18.47Z19.36
X-15.365Y-18.48Z19.252
X-15.244Y-18.49Z19.091
X-15.131Y-18.499Z18.904
X-15.028Y-18.508Z18.717
X-15.Y-18.51Z18.662
X-14.926Y-18.516Z18.52
X-14.804Y-18.509Z18.288
X-14.682Y-18.468Z18.061
X-14.561Y-18.394Z17.841
X-14.443Y-18.288Z17.633
X-14.331Y-18.151Z17.44
X-14.226Y-17.987Z17.266
X-14.13Y-17.797Z17.113
X-14.045Y-17.586Z16.984
X-13.972Y-17.357Z16.881
X-13.913Y-17.113Z16.807
G00X10.
Y-31.902Z15.832
X-13.099
G01X-14.099F1200.
X-14.15Y-31.658Z15.91
X-14.212Y-31.428Z16.018
X-14.284Y-31.215Z16.153
X-14.363Y-31.025Z16.313
X-14.45Y-30.859Z16.496
X-14.542Y-30.721Z16.698
X-14.638Y-30.612Z16.916
X-14.736Y-30.536Z17.147
X-14.834Y-30.493Z17.385
X-14.932Y-30.484Z17.628
X-15.Y-30.49Z17.801
X-15.002Z17.806
X-15.085Y-30.497Z18.
X-15.165Y-30.504Z18.174
X-15.253Y-30.511Z18.354
X-15.354Y-30.519Z18.547
X-15.451Y-30.527Z18.721
X-15.557Y-30.536Z18.898
X-15.672Y-30.546Z19.063
X-15.771Y-30.554Z19.174
X-15.87Y-30.562Z19.282
X-15.978Y-30.572Z19.409
X-16.085Y-30.58Z19.529
X-16.193Y-30.581Z19.641
X-16.312Y-30.576Z19.764
X-16.436Y-30.565Z19.887
X-16.56Y-30.547Z20.002
X-16.692Y-30.522Z20.123
X-16.834Y-30.487Z20.255
X-16.919Y-30.471Z20.32
X-17.123Y-30.443Z20.46
X-17.295Y-30.429Z20.564
X-17.535Y-30.425Z20.689
X-17.761Y-30.434Z20.821
X-17.973Y-30.469Z20.97
X-18.167Y-30.528Z21.135
X-18.341Y-30.611Z21.313
X-18.49Y-30.717Z21.5
X-18.612Y-30.843Z21.694
X-18.706Y-30.987Z21.891
X-18.769Y-31.148Z22.088
X-18.801Y-31.321Z22.281
Y-31.505Z22.467
G00X10.
Y-31.465Z-30.226
X-16.444
G01X-17.444F1200.
X-17.434Y-31.264Z-30.058
X-17.395Y-31.077Z-29.88
X-17.327Y-30.906Z-29.694
X-17.231Y-30.755Z-29.503
X-17.109Y-30.626Z-29.311
X-16.963Y-30.521Z-29.12
X-16.796Y-30.443Z-28.935
X-16.61Y-30.392Z-28.759
X-16.409Y-30.369Z-28.593
X-16.195Y-30.375Z-28.442
X-15.981Y-30.396Z-28.3
X-15.945Y-30.405Z-28.266
X-15.863Y-30.429Z-28.179
X-15.754Y-30.459Z-28.063
X-15.692Y-30.476Z-27.987
X-15.653Y-30.484Z-27.942
X-15.557Y-30.503Z-27.82
X-15.465Y-30.514Z-27.7
X-15.377Y-30.517Z-27.582
X-15.337Y-30.516Z-27.533
X-15.293Y-30.514Z-27.472
X-15.13Y-30.501Z-27.256
X-15.049Y-30.494Z-27.143
X-15.Y-30.49Z-27.06
X-14.962Y-30.487Z-26.996
X-14.829Y-30.493Z-26.771
X-14.695Y-30.533Z-26.55
X-14.563Y-30.606Z-26.336
X-14.435Y-30.712Z-26.134
X-14.313Y-30.848Z-25.947
X-14.199Y-31.011Z-25.777
X-14.095Y-31.2Z-25.629
X-14.004Y-31.411Z-25.503
X-13.926Y-31.64Z-25.404
X-13.863Y-31.883Z-25.331
X-16.974Y-30.999Z-30.63
X-17.076Y-30.915Z-30.405
X-17.15Y-30.844Z-30.164
X-17.196Y-30.788Z-29.913
X-17.211Y-30.746Z-29.655
X-17.196Y-30.721Z-29.395
X-17.151Y-30.712Z-29.137
X-17.077Y-30.719Z-28.886
X-16.975Y-30.743Z-28.647
X-16.847Y-30.783Z-28.422
X-16.695Y-30.839Z-28.217
X-16.635Y-30.862Z-28.145
X-16.581Y-30.886Z-28.078
X-16.479Y-30.923Z-27.954
X-16.379Y-30.959Z-27.835
X-16.309Y-30.987Z-27.747
X-16.277Y-30.996Z-27.708
X-16.18Y-31.029Z-27.576
X-16.087Y-31.056Z-27.442
X-16.001Y-31.076Z-27.311
X-15.924Y-31.091Z-27.188
X-15.852Y-31.101Z-27.065
X-15.78Y-31.107Z-26.937
X-15.704Z-26.796
X-15.627Y-31.101Z-26.644
X-15.554Y-31.093Z-26.487
X-15.495Y-31.087Z-26.347
X-15.441Y-31.081Z-26.209
