%
O0100
(SONCHU POSTPROCESSOR A.I.C TAICHUNG)
G40G49G90G80
G17G00G54X0.Y0.
/G05.1 Q1
(TOOL: D10_ER35)
M03S2999
G43Z0.H1
M8
G00X-13.98Y.48
Z28.387
G01X-14.98F5998. 
X-16.
Y1.032Z28.537F2999.
Y1.207Z28.593
Y1.377Z28.665
Y1.736Z28.836
G03X-16.Y6.421I0.J-31.01
G01Y7.129Z30.952
Y9.448Z31.998
Y9.897Z32.228
Y10.367Z32.412
G02X-16.Y14.826I0.J1.557
G01Y14.916Z31.695
Y15.207Z31.649
Y15.582Z31.564
Y16.305Z31.309
Y16.981Z30.945
Y17.372Z30.665
Y17.735Z30.349
Y18.074Z29.988
Y18.376Z29.595
Y18.722Z29.014
Y18.898Z28.627
Y19.039Z28.227
Y19.498Z26.777
Y19.798Z25.949
Y20.615Z23.96
Y34.621Z-9.846
Y35.218Z-11.268
Y35.527Z-11.939
Y35.714Z-12.295
Y35.875Z-12.663
Y36.087Z-13.347
Y36.197Z-14.055
Y36.205Z-14.771
Y36.11Z-15.481
Y36.011Z-15.874
Y35.879Z-16.259
Y35.717Z-16.633
Y35.523Z-16.992
Y35.055Z-17.654
Y34.781Z-17.955
Y34.715Z-18.033
Y34.562Z-18.298
Y34.246Z-18.746
Y33.884Z-19.156
Y33.583Z-19.436
Y33.261Z-19.69
Y32.919Z-19.917
Y32.559Z-20.114
Y31.066Z-20.782
Y30.304Z-21.115
Y28.249Z-21.994
Y25.432Z-23.135
Y22.998Z-24.08
Y22.615Z-24.199
Y21.915Z-24.334
Y21.203Z-24.366
Y20.495Z-24.297
Y20.146Z-24.224
Y19.888Z-24.153
Y19.798
Y19.081Z-24.094
Y18.38Z-23.932
Y17.653Z-23.643
Y16.981Z-23.243
Y16.463Z-22.822
Y16.007Z-22.336
Y15.595Z-21.752
Y15.272Z-21.115
Y15.027Z-20.4
Y14.762Z-19.692
Y14.181Z-18.298
Y-.452Z17.066
Y-1.027Z18.326
Y-1.735Z19.687
Y-1.9Z20.041
Y-2.037Z20.407
Y-2.142Z20.771
Y-2.218Z21.143
Y-2.285Z21.859
Y-2.247Z22.577
Y-2.106Z23.283
Y-1.864Z23.96
Y-1.47Z24.684
Y-1.257Z24.983
Y-1.21Z25.063
G02X-16.Y1.377I0.J4.928
G01X-15.765Y1.877Z29.072
X-15.53Y2.308Z29.553
X-15.295Y2.658Z30.095
X-15.06Y2.919Z30.685
X-14.826Y3.085Z31.309
Y-14.009Z21.143
X-14.98F5998.
X-16.
Y-13.852Z20.334F2999.
Y-13.803Z20.137
Y-13.735Z19.946
Y-13.629Z19.686
Y-13.522Z19.426
Y-13.368Z18.883
Y-13.277Z18.326
Y-13.253Z17.619
Y-13.318Z16.916
Y-13.42Z15.509
Y-13.447Z14.805
Y-13.449Z14.1
Y-13.412Z-24.637
Y-13.439Z-25.342
Y-13.414Z-26.046
Y-13.365Z-26.749
Y-13.402Z-27.396
Y-13.524Z-28.032
Y-13.723Z-28.637
Y-14.009Z-29.229
Y-14.218Z-29.566
Y-14.465Z-29.9
Y-14.739Z-30.212
Y-15.038Z-30.5
Y-15.36Z-30.762
Y-15.715Z-31.003
Y-16.09Z-31.213
Y-16.48Z-31.395
Y-16.826Z-31.653
Y-17.215Z-31.893
Y-17.625Z-32.095
Y-17.838Z-32.177
Y-18.051Z-32.26
Y-18.491Z-32.384
Y-19.063Z-32.482
Y-19.643Z-32.513
Y-22.46Z-32.572
Y-25.277Z-32.588
Y-28.095Z-32.548
Y-29.305Z-32.513
Y-29.911Z-32.485
Y-30.509Z-32.384
Y-30.912Z-32.272
Y-31.273Z-32.139
Y-31.622Z-31.979
Y-31.958Z-31.792
Y-32.279Z-31.58
Y-32.528Z-31.388
Y-33.001Z-31.166
Y-33.375Z-30.946
Y-33.729Z-30.694
Y-34.316Z-30.154
Y-34.782Z-29.566
Y-35.156Z-28.912
Y-35.422Z-28.223
Y-35.517Z-27.861
Y-35.584Z-27.494
Y-35.624Z-27.123
Y-35.635Z-26.749
Y-35.586Z-26.046
Y-35.561Z-25.342
Y-35.588Z-24.637
Y-35.553Z14.805
Y-35.58Z15.509
Y-35.682Z16.916
Y-35.747Z17.619
Y-35.723Z18.326
Y-35.668Z18.706
Y-35.579Z19.097
Y-35.315Z19.835
Y-34.939Z20.523
Y-34.459Z21.143
Y-34.077Z21.519
Y-33.729Z21.8
Y-33.41Z22.017
Y-33.241Z22.117
Y-33.173Z22.188
G02X-16.Y-28.811I0.J4.214
G03X-16.Y-21.052I0.J4.316
G01Y-20.348Z24.521
G02X-16.Y-15.806I0.J.301
G01Y-15.724Z22.097
Y-15.456Z21.93
Y-15.137Z21.698
Y-14.541Z21.143
Y-14.259Z20.804
Y-14.009Z20.442
Y-13.735Z19.946
X-15.765Y-13.34Z19.436
X-15.53Y-12.869Z18.994
X-15.295Y-12.335Z18.632
X-15.06Y-11.751Z18.358
X-14.826Y-11.131Z18.178
Y-12.801Z21.545
X-15.98F5998.
X-17.
Y-13.099Z20.633F2999.
Y-13.171Z20.346
Y-13.2Z20.052
Y-13.187Z19.757
Y-13.146Z19.413
Y-13.104Z19.052
Y-13.101Z18.689
Y-13.126Z18.326
Y-13.317Z16.922
Y-13.42Z15.509
Y-13.447Z14.805
Y-13.449Z14.1
Y-13.412Z-24.638
Y-13.439Z-25.344
Y-13.413Z-26.051
Y-13.299Z-26.749
G02X-17.Y-16.826I0.J-4.942
G01Y-17.711Z-32.384
Y-18.188Z-32.475
Y-18.672Z-32.519
Y-21.051Z-32.598
Y-22.46Z-32.618
Y-25.277Z-32.634
Y-28.095Z-32.594
Y-30.209Z-32.522
Y-30.562Z-32.504
Y-30.912Z-32.46
Y-31.289Z-32.384
Y-31.934Z-32.226
Y-32.567Z-32.03
Y-33.169Z-31.75
Y-33.729Z-31.392
Y-34.224Z-30.975
Y-34.659Z-30.497
Y-34.979Z-30.048
Y-35.247Z-29.566
Y-35.514Z-28.895
Y-35.681Z-28.191
Y-35.725Z-27.832
Y-35.744Z-27.471
Y-35.736Z-27.109
Y-35.701Z-26.749
Y-35.587Z-26.051
Y-35.561Z-25.344
Y-35.588Z-24.638
Y-35.553Z14.805
Y-35.58Z15.509
Y-35.683Z16.922
Y-35.874Z18.326
Y-35.898Z18.689
Y-35.896Z19.052
Y-35.811Z19.774
Y-35.622Z20.476
Y-35.332Z21.143
Y-35.034Z21.638
Y-34.681Z22.095
Y-34.232Z22.547
Y-33.729Z22.939
Y-33.304Z23.197
Y-32.765Z23.449
Y-32.375Z23.587
Y-32.262Z23.669
Y-31.801Z23.96
Y-31.366Z24.175
Y-30.912Z24.346
Y-30.221Z24.515
Y-29.868Z24.562
Y-29.513Z24.584
Y-28.095Z24.527
Y-26.686Z24.479
Y-25.277Z24.455
Y-23.869Z24.451
Y-22.46Z24.479
Y-21.051Z24.521
Y-19.643Z24.592
Y-19.005Z24.554
Y-18.377Z24.435
Y-17.776Z24.238
Y-17.193Z23.96
Y-16.826Z23.734
Y-16.653Z23.611
Y-16.557Z23.564
Y-16.456Z23.531
Y-16.064Z23.378
Y-15.691Z23.195
Y-15.325Z22.975
Y-14.975Z22.722
Y-14.608Z22.399
Y-14.292Z22.063
Y-14.009Z21.699
Y-13.668Z21.143
Y-13.371Z20.456
Y-13.187Z19.757
X-16.765Y-13.012Z19.136
X-16.53Y-12.743Z18.55
X-16.295Y-12.385Z18.013
X-16.06Y-11.947Z17.539
X-15.826Y-11.441Z17.139
Y-3.947Z19.533
X-15.98F5998.
X-17.
Y-3.68Z19.691F2999.
Y-3.417Z19.877
Y-3.186Z20.101
Y-2.993Z20.359
Y-2.843Z20.644
Y-2.739Z20.949
Y-2.684Z21.267
Y-2.68Z21.589
Y-2.726Z21.908
Y-2.74Z21.968
G02X-17.Y-2.447I0.J4.947
G01Y-2.273Z25.119
G02X-17.Y-1.011I0.J4.521
G01Y-.952Z26.777
Y-.544Z27.347
Y-.247Z27.673
Y.077Z27.972
Y.401Z28.222
Y.743Z28.445
Y1.076Z28.625
Y1.421Z28.779
Y2.895Z29.314
Y4.682Z29.989
Y7.129Z31.003
Y9.364Z32.01
Y10.189Z32.412
Y10.756Z32.637
Y11.346Z32.791
Y12.049Z32.877
Y12.756Z32.862
Y13.455Z32.747
Y13.541Z32.726
Y13.809Z32.739
Y14.163Z32.743
Y14.588Z32.714
G02X-17.Y18.876I0.J-.569
G01Y19.054Z28.179
Y19.498Z26.777
Y19.798Z25.949
Y20.615Z23.96
Y34.621Z-9.846
Y35.225Z-11.288
Y35.557Z-11.997
Y35.969Z-12.663
G02X-17.Y34.518I0.J-4.406
G01Y33.884Z-19.462
Y33.558Z-19.671
Y33.217Z-19.854
Y31.066Z-20.833
Y30.421Z-21.115
Y28.249Z-22.044
Y25.432Z-23.185
Y23.495Z-23.932
Y22.615Z-24.261
Y21.949Z-24.487
Y21.591Z-24.57
Y20.516Z-24.735
Y19.798Z-24.76
Y19.119Z-24.689
Y18.456Z-24.524
Y17.823Z-24.27
Y17.23Z-23.932
G02X-17.Y15.196I0.J2.781
G01Y15.022Z-20.384
Y14.758Z-19.681
Y14.181Z-18.298
Y-.452Z17.066
Y-1.027Z18.326
Y-1.385Z19.037
Y-1.767Z19.736
Y-2.18Z20.419
Y-2.362Z20.774
Y-2.515Z21.143
Y-2.645Z21.551
Y-2.726Z21.908
X-16.765Y-2.965Z22.507
X-16.53Y-3.296Z23.062
X-16.295Y-3.708Z23.558
X-16.06Y-4.194Z23.983
X-15.826Y-4.74Z24.327
Y-4.35Z18.728
X-16.98F5998.
X-18.
Y-3.825Z18.991F2999.
G03X-18.Y-2.731I0.J-.933
G01Y-2.822Z21.538
Y-2.857Z21.633
Y-2.974Z21.948
Y-3.122Z22.612
Y-3.177Z23.285
Y-3.141Z23.96
Y-2.995Z24.692
Y-2.74Z25.394
Y-2.552Z25.768
Y-2.333Z26.125
Y-2.085Z26.462
Y-1.809Z26.777
Y-1.389Z27.17
Y-.927Z27.511
Y-.778Z27.604
Y-.645Z27.703
Y-.43Z27.889
Y.077Z28.252
Y.407Z28.441
Y.751Z28.604
Y1.106Z28.74
Y1.469Z28.85
Y2.895Z29.364
Y4.617Z30.012
Y7.129Z31.053
Y8.529Z31.684
Y10.098Z32.412
Y10.711Z32.709
Y11.346Z32.956
Y12.04Z33.12
Y12.393Z33.163
Y12.571Z33.176
Y13.45Z33.328
Y14.163Z33.347
Y14.878Z33.263
Y15.573Z33.076
Y16.234Z32.79
Y16.846Z32.412
G02X-18.Y18.752I0.J-2.944
G01Y18.88Z28.876
Y19.057Z28.168
Y19.498Z26.777
Y19.798Z25.949
Y20.615Z23.96
Y34.621Z-9.846
Y35.235Z-11.311
Y35.396Z-11.677
Y35.495Z-11.851
G02X-18.Y33.884I0.J-3.749
G01Y31.066Z-20.875
Y30.524Z-21.115
Y28.249Z-22.088
Y25.432Z-23.228
Y23.596Z-23.932
Y21.912Z-24.558
Y21.244Z-24.788
G02X-18.Y14.999I0.J-1.295
G01Y14.958Z-20.194
Y14.893Z-20.018
Y14.753Z-19.671
Y14.181Z-18.298
Y-.452Z17.066
Y-1.027Z18.326
Y-1.399Z19.064
Y-1.827Z19.84
Y-2.03Z20.169
Y-2.259Z20.48
Y-2.471Z20.804
Y-2.657Z21.143
Y-2.74Z21.318
Y-2.822Z21.538
X-17.765Y-3.138Z22.1
X-17.53Y-3.539Z22.606
X-17.295Y-4.014Z23.043
X-17.06Y-4.551Z23.4
X-16.826Y-5.138Z23.669
Y-11.594Z21.948
X-16.98F5998.
X-18.
Y-12.285Z21.331F2999.
Y-12.529Z21.072
Y-12.725Z20.775
Y-12.866Z20.448
Y-12.948Z20.102
Y-12.97Z19.747
Y-12.96Z19.39
Y-12.977Z19.032
Y-13.022Z18.654
Y-13.086Z18.326
Y-13.173Z17.981
Y-13.232Z17.63
Y-13.317Z16.925
Y-13.369Z16.217
Y-13.42Z15.509
Y-13.447Z14.805
Y-13.449Z14.1
Y-13.412Z-24.641
Y-13.439Z-25.349
Y-13.433Z-25.705
Y-13.425Z-25.884
Y-13.385Z-26.058
G02X-18.Y-16.911I0.J-4.731
G01Y-17.587Z-32.503
Y-18.273Z-32.537
Y-21.051Z-32.637
Y-22.46Z-32.659
Y-25.277Z-32.675
Y-28.095Z-32.634
Y-30.912Z-32.53
Y-31.505Z-32.492
Y-32.089Z-32.384
G02X-18.Y-35.615I0.J1.215
G01Y-35.575Z-25.884
Y-35.567Z-25.705
Y-35.561Z-25.349
Y-35.588Z-24.641
Y-35.553Z14.805
Y-35.58Z15.509
Y-35.683Z16.925
Y-35.768Z17.63
Y-35.827Z17.981
G02X-18.Y-33.729I0.J4.792
G01Y-33.115Z23.96
Y-32.579Z24.165
Y-32.022Z24.307
Y-31.739Z24.353
Y-31.467Z24.447
Y-30.912Z24.589
Y-30.21Z24.674
Y-29.856Z24.679
Y-29.503Z24.659
Y-28.799Z24.605
Y-28.095Z24.574
Y-26.686Z24.525
Y-25.277Z24.501
Y-23.869Z24.497
Y-22.46Z24.525
Y-21.051Z24.567
Y-19.643Z24.638
Y-18.928Z24.665
Y-18.216Z24.602
Y-17.854Z24.529
Y-17.499Z24.429
Y-17.335Z24.374
Y-16.826Z24.275
G02X-18.Y-13.262I0.J-1.122
G01Y-13.066Z20.456
Y-12.97Z19.747
X-17.765Y-12.784Z19.129
X-17.53Y-12.504Z18.548
X-17.295Y-12.137Z18.017
X-17.06Y-11.691Z17.551
X-16.826Y-11.177Z17.16
Y-10.789Z20.741
X-17.98F5998.
X-19.
Y-11.646Z20.404F2999.
Y-11.955Z20.251
Y-12.234Z20.048
Y-12.476Z19.802
Y-12.672Z19.519
Y-12.819Z19.206
Y-12.91Z18.874
Y-12.945Z18.69
Y-13.041Z18.326
Y-13.157Z17.988
Y-13.203Z17.815
Y-13.231Z17.638
Y-13.316Z16.929
Y-13.368Z16.219
Y-13.42Z15.509
Y-13.447Z14.805
Y-13.449Z14.1
Y-13.412Z-24.641
Y-13.439Z-25.349
Y-13.433Z-25.705
Y-13.425Z-25.884
Y-13.385Z-26.058
G02X-19.Y-16.911I0.J-4.731
G01Y-17.587Z-32.503
Y-18.273Z-32.537
Y-21.051Z-32.637
Y-22.46Z-32.659
Y-25.277Z-32.675
Y-28.095Z-32.634
Y-30.912Z-32.53
Y-31.505Z-32.492
Y-32.089Z-32.384
G02X-19.Y-35.615I0.J1.215
G01Y-35.575Z-25.884
Y-35.567Z-25.705
Y-35.561Z-25.349
Y-35.588Z-24.641
Y-35.553Z14.805
Y-35.58Z15.509
Y-35.684Z16.928
Y-35.769Z17.637
Y-35.838Z17.988
G02X-19.Y-31.644I0.J4.643
G01Y-30.912Z24.762
Y-30.559Z24.765
Y-29.503Z24.696
Y-28.095Z24.621
Y-26.686Z24.572
Y-25.277Z24.547
Y-23.869Z24.543
Y-22.46Z24.571
Y-21.051Z24.613
Y-18.233Z24.765
Y-17.527Z24.724
Y-16.826Z24.637
G02X-19.Y-12.91I0.J-.977
G01X-18.765Y-12.929Z18.229
X-18.53Y-12.846Z17.589
X-18.295Y-12.664Z16.97
X-18.06Y-12.388Z16.387
X-17.826Y-12.023Z15.854
Y-4.752Z19.131
X-17.98F5998.
X-19.
Y-4.152Z19.43F2999.
G03X-19.Y-3.049I0.J-.93
G01Y-3.132Z21.942
Y-3.205Z22.149
G02X-19.Y-3.414I0.J4.881
G01Y-3.341Z24.529
G02X-19.Y-2.286I0.J5.005
G01Y-1.808Z27.279
Y-1.264Z27.709
Y-.944Z27.91
Y-.61Z28.087
Y.077Z28.419
Y1.489Z28.908
Y2.895Z29.414
Y4.551Z30.036
Y5.712Z30.513
Y7.129Z31.103
Y8.529Z31.735
Y9.986Z32.412
Y11.346Z33.079
Y11.678Z33.221
Y12.02Z33.338
Y12.718Z33.559
Y13.435Z33.686
Y14.163Z33.706
G02X-19.Y18.895I0.J-.233
G01Y18.92Z28.69
Y18.963Z28.513
Y19.059Z28.162
Y19.498Z26.777
Y19.798Z25.949
Y20.615Z23.96
Y34.621Z-9.846
Y35.235Z-11.311
Y35.396Z-11.677
Y35.495Z-11.851
G02X-19.Y33.884I0.J-3.749
G01Y31.066Z-20.875
Y30.524Z-21.115
Y28.249Z-22.088
Y25.432Z-23.228
Y23.596Z-23.932
Y21.912Z-24.558
Y21.244Z-24.788
G02X-19.Y14.999I0.J-1.295
G01Y14.958Z-20.194
Y14.893Z-20.018
Y14.753Z-19.671
Y14.181Z-18.298
Y-.452Z17.066
Y-1.027Z18.326
Y-1.397Z19.06
Y-1.818Z19.824
Y-2.025Z20.16
Y-2.288Z20.454
Y-2.527Z20.767
Y-2.74Z21.097
Y-2.937Z21.467
Y-3.084Z21.803
Y-3.132Z21.942
X-18.765Y-3.438Z22.51
X-18.53Y-3.829Z23.024
X-18.295Y-4.295Z23.47
X-18.06Y-4.826Z23.837
X-17.826Y-5.407Z24.117
Y-5.155Z18.326
X-18.98F5998.
X-20.
Y-4.82Z18.318F2999.
G03X-20.Y-2.831I0.J.039
G01Y-2.975Z21.353
Y-3.037Z21.466
G02X-20.Y-3.54I0.J4.572
G01Y-3.561Z23.592
G02X-20.Y-.3I0.J4.993
G03X-20.Y9.892I0.J-25.167
G01Y12.032Z33.459
G02X-20.Y18.933I0.J1.939
G01Y18.965Z28.509
Y19.06Z28.157
Y19.498Z26.777
Y19.798Z25.949
Y20.615Z23.96
Y34.621Z-9.846
Y35.235Z-11.311
Y35.396Z-11.677
Y35.495Z-11.851
G02X-20.Y33.884I0.J-3.749
G01Y31.066Z-20.875
Y30.524Z-21.115
Y28.249Z-22.088
Y25.432Z-23.228
Y23.596Z-23.932
Y21.912Z-24.558
Y21.244Z-24.788
G02X-20.Y14.999I0.J-1.295
G01Y14.958Z-20.194
Y14.893Z-20.018
Y14.753Z-19.671
Y14.181Z-18.298
Y-.452Z17.066
Y-1.027Z18.326
Y-1.391Z19.048
Y-1.79Z19.775
Y-1.886Z19.94
Y-1.942Z20.019
Y-2.011Z20.083
Y-2.276Z20.354
Y-2.519Z20.644
Y-2.74Z20.951
Y-2.86Z21.143
Y-2.975Z21.353
X-19.765Y-3.37Z21.863
X-19.53Y-3.84Z22.306
X-19.295Y-4.373Z22.669
X-19.06Y-4.957Z22.945
X-18.826Y-5.576Z23.126
Y-11.191Z22.35
X-18.98F5998.
X-20.
Y-11.601Z22.004F2999.
Y-12.011Z21.657
Y-12.262Z21.403
Y-12.465Z21.11
Y-12.615Z20.786
Y-12.706Z20.441
Y-12.736Z20.085
Y-12.735Z19.728
G02X-20.Y-13.215I0.J-5.201
G01Y-13.316Z16.935
Y-13.368Z16.222
Y-13.42Z15.509
Y-13.447Z14.805
Y-13.449Z14.1
Y-13.412Z-24.641
Y-13.439Z-25.349
Y-13.433Z-25.705
Y-13.425Z-25.884
Y-13.385Z-26.058
G02X-20.Y-16.911I0.J-4.731
G01Y-17.587Z-32.503
Y-18.273Z-32.537
Y-21.051Z-32.637
Y-22.46Z-32.659
Y-25.277Z-32.675
Y-28.095Z-32.634
Y-30.912Z-32.53
Y-31.505Z-32.492
Y-32.089Z-32.384
G02X-20.Y-35.615I0.J1.215
G01Y-35.575Z-25.884
Y-35.567Z-25.705
Y-35.561Z-25.349
Y-35.588Z-24.641
Y-35.553Z14.805
Y-35.58Z15.509
Y-35.684Z16.935
Y-35.77Z17.649
Y-35.785Z17.739
G02X-20.Y-30.912I0.J4.489
G03X-20.Y-21.051I0.J6.526
G01Y-19.643Z24.731
Y-18.235Z24.821
Y-17.529Z24.846
G02X-20.Y-12.736I0.J-.176
G01X-19.765Y-12.587Z19.457
X-19.53Y-12.342Z18.86
X-19.295Y-12.006Z18.309
X-19.06Y-11.589Z17.817
X-18.826Y-11.099Z17.396
Y-10.789Z21.948
X-19.98F5998.
X-21.
Y-11.507Z21.633F2999.
Y-11.806Z21.472
Y-12.074Z21.263
Y-12.304Z21.013
Y-12.489Z20.728
Y-12.625Z20.417
Y-12.708Z20.087
Y-12.735Z19.748
Z19.728
G02X-21.Y-13.215I0.J-5.201
G01Y-13.316Z16.935
Y-13.368Z16.222
Y-13.42Z15.509
Y-13.447Z14.805
Y-13.449Z14.1
Y-13.412Z-24.641
Y-13.439Z-25.349
Y-13.433Z-25.705
Y-13.425Z-25.884
Y-13.385Z-26.058
G02X-21.Y-16.911I0.J-4.731
G01Y-17.587Z-32.503
Y-18.273Z-32.537
Y-21.051Z-32.637
Y-22.46Z-32.659
Y-25.277Z-32.675
Y-28.095Z-32.634
Y-30.912Z-32.53
Y-31.505Z-32.492
Y-32.089Z-32.384
G02X-21.Y-35.615I0.J1.215
G01Y-35.575Z-25.884
Y-35.567Z-25.705
Y-35.561Z-25.349
Y-35.588Z-24.641
Y-35.553Z14.805
Y-35.58Z15.509
Y-35.684Z16.935
Y-35.77Z17.649
Y-35.785Z17.739
G02X-21.Y-30.912I0.J4.489
G03X-21.Y-21.051I0.J6.526
G01Y-19.643Z24.731
Y-18.235Z24.821
Y-17.529Z24.846
G02X-21.Y-12.735I0.J-.175
G01X-20.765Y-12.631Z19.111
X-20.53Y-12.43Z18.498
X-20.295Y-12.135Z17.924
X-20.06Y-11.754Z17.404
X-19.826Y-11.296Z16.949
Y-5.155Z18.728
X-19.98F5998.
X-21.
Y-4.528Z19.246F2999.
Y-3.901Z19.763
Y-3.674Z19.982
Y-3.483Z20.233
Y-3.333Z20.511
Y-3.227Z20.809
Y-3.168Z21.119
Y-3.158Z21.435
Y-3.196Z21.748
Y-3.282Z22.052
Y-3.317Z22.146
G02X-21.Y-3.475I0.J4.953
G01Y-3.311Z25.245
G02X-21.Y-1.464I0.J4.839
G01Y-1.077Z27.984
Y-.668Z28.195
Y-.3Z28.346
Y1.49Z28.952
Y2.895Z29.453
Y4.498Z30.055
Y5.712Z30.552
Y7.129Z31.143
Y8.529Z31.775
Y9.892Z32.412
Y12.032Z33.459
G02X-21.Y18.933I0.J1.939
G01Y18.965Z28.509
Y19.06Z28.157
Y19.498Z26.777
Y19.798Z25.949
Y20.615Z23.96
Y34.621Z-9.846
Y35.235Z-11.311
Y35.396Z-11.677
Y35.495Z-11.851
G02X-21.Y33.884I0.J-3.749
G01Y31.066Z-20.875
Y30.524Z-21.115
Y28.249Z-22.088
Y25.432Z-23.228
Y23.596Z-23.932
Y21.912Z-24.558
Y21.244Z-24.788
G02X-21.Y14.999I0.J-1.295
G01Y14.958Z-20.194
Y14.893Z-20.018
Y14.753Z-19.671
Y14.181Z-18.298
Y-.452Z17.066
Y-1.027Z18.326
Y-1.391Z19.048
Y-1.79Z19.775
Y-1.886Z19.94
Y-1.942Z20.019
G02X-21.Y-3.282I0.J3.363
G01X-20.765Y-3.597Z22.615
X-20.53Y-3.996Z23.123
X-20.295Y-4.47Z23.561
X-20.06Y-5.006Z23.92
X-19.826Y-5.592Z24.19
Y-5.155Z18.728
X-20.98F5998.
X-22.
Y-4.382Z18.993F2999.
G03X-22.Y-3.066I0.J-.676
G01Y-3.181Z21.782
Y-3.189Z21.801
G02X-22.Y-3.561I0.J4.727
G01Y-3.554Z23.96
G02X-22.Y-2.252I0.J5.085
X-22.Y-.3I0.J3.709
G03X-22.Y9.892I0.J-25.167
G01Y12.032Z33.459
G02X-22.Y18.933I0.J1.939
G01Y18.965Z28.509
Y19.06Z28.157
Y19.498Z26.777
Y19.798Z25.949
Y20.615Z23.96
Y34.621Z-9.846
Y35.235Z-11.311
Y35.396Z-11.677
Y35.495Z-11.851
G02X-22.Y33.884I0.J-3.749
G01Y31.066Z-20.875
Y30.524Z-21.115
Y28.249Z-22.088
Y25.432Z-23.228
Y23.596Z-23.932
Y21.912Z-24.558
Y21.244Z-24.788
G02X-22.Y14.999I0.J-1.295
G01Y14.958Z-20.194
Y14.893Z-20.018
Y14.753Z-19.671
Y14.181Z-18.298
Y-.452Z17.066
Y-1.027Z18.326
Y-1.391Z19.048
Y-1.79Z19.775
Y-1.886Z19.94
Y-1.942Z20.019
Y-2.011Z20.083
Y-2.276Z20.354
Y-2.519Z20.644
Y-2.74Z20.951
Y-2.86Z21.143
Y-3.037Z21.466
Y-3.181Z21.782
X-21.765Y-3.537Z22.32
X-21.53Y-3.972Z22.796
X-21.295Y-4.477Z23.198
X-21.06Y-5.039Z23.516
X-20.826Y-5.643Z23.742
Y-11.594Z22.753
X-20.98F5998.
X-22.
Y-11.946Z22.328F2999.
Y-12.297Z21.904
Y-12.479Z21.647
Y-12.619Z21.366
Y-12.714Z21.066
Y-12.763Z20.756
Z20.441
Y-12.736Z20.085
G02X-22.Y-13.215I0.J-5.125
G01Y-13.316Z16.935
Y-13.368Z16.222
Y-13.42Z15.509
Y-13.447Z14.805
Y-13.449Z14.1
Y-13.412Z-24.641
Y-13.439Z-25.349
Y-13.433Z-25.705
Y-13.425Z-25.884
Y-13.385Z-26.058
G02X-22.Y-16.911I0.J-4.731
G01Y-17.587Z-32.503
Y-18.273Z-32.537
Y-21.051Z-32.637
Y-22.46Z-32.659
Y-25.277Z-32.675
Y-28.095Z-32.634
Y-30.912Z-32.53
Y-31.505Z-32.492
Y-32.089Z-32.384
G02X-22.Y-35.615I0.J1.215
G01Y-35.575Z-25.884
Y-35.567Z-25.705
Y-35.561Z-25.349
Y-35.588Z-24.641
Y-35.553Z14.805
Y-35.58Z15.509
Y-35.684Z16.935
Y-35.77Z17.649
Y-35.785Z17.739
G02X-22.Y-30.912I0.J4.489
G03X-22.Y-21.051I0.J6.526
G01Y-19.643Z24.731
Y-18.235Z24.821
Y-17.529Z24.846
G02X-22.Y-12.763I0.J-.177
G01X-21.765Y-12.568Z19.826
X-21.53Y-12.279Z19.249
X-21.295Y-11.904Z18.724
X-21.06Y-11.451Z18.264
X-20.826Y-10.932Z17.881
Y-10.789Z21.948
X-21.98F5998.
X-23.
Y-11.507Z21.633F2999.
Y-11.806Z21.472
Y-12.074Z21.263
Y-12.304Z21.013
Y-12.489Z20.728
Y-12.625Z20.417
Y-12.708Z20.087
Y-12.735Z19.748
Z19.728
G02X-23.Y-13.215I0.J-5.201
G01Y-13.316Z16.935
Y-13.368Z16.222
Y-13.42Z15.509
Y-13.447Z14.805
Y-13.449Z14.1
Y-13.412Z-24.641
Y-13.439Z-25.349
Y-13.433Z-25.705
Y-13.425Z-25.884
Y-13.385Z-26.058
G02X-23.Y-16.911I0.J-4.731
G01Y-17.587Z-32.503
Y-18.273Z-32.537
Y-21.051Z-32.637
Y-22.46Z-32.659
Y-25.277Z-32.675
Y-28.095Z-32.634
Y-30.912Z-32.53
Y-31.505Z-32.492
Y-32.089Z-32.384
G02X-23.Y-35.615I0.J1.215
G01Y-35.575Z-25.884
Y-35.567Z-25.705
Y-35.561Z-25.349
Y-35.588Z-24.641
Y-35.553Z14.805
Y-35.58Z15.509
Y-35.684Z16.935
Y-35.77Z17.649
Y-35.785Z17.739
G02X-23.Y-30.912I0.J4.489
G03X-23.Y-21.051I0.J6.526
G01Y-19.643Z24.731
Y-18.235Z24.821
Y-17.529Z24.846
G02X-23.Y-12.735I0.J-.175
G01X-22.765Y-12.631Z19.111
X-22.53Y-12.43Z18.498
X-22.295Y-12.135Z17.924
X-22.06Y-11.754Z17.404
X-21.826Y-11.296Z16.949
Y-5.155Z18.728
X-21.98F5998.
X-23.
Y-4.528Z19.246F2999.
Y-3.901Z19.763
Y-3.674Z19.982
Y-3.483Z20.233
Y-3.333Z20.511
Y-3.227Z20.809
Y-3.168Z21.119
Y-3.158Z21.435
Y-3.196Z21.748
Y-3.282Z22.052
Y-3.317Z22.146
G02X-23.Y-3.475I0.J4.953
G01Y-3.311Z25.245
G02X-23.Y-1.464I0.J4.839
G01Y-1.077Z27.984
Y-.668Z28.195
Y-.3Z28.346
Y1.49Z28.952
Y2.895Z29.453
Y4.498Z30.055
Y5.712Z30.552
Y7.129Z31.143
Y8.529Z31.775
Y9.892Z32.412
Y12.032Z33.459
G02X-23.Y18.933I0.J1.939
G01Y18.965Z28.509
Y19.06Z28.157
Y19.498Z26.777
Y19.798Z25.949
Y20.615Z23.96
Y34.621Z-9.846
Y35.235Z-11.311
Y35.396Z-11.677
Y35.495Z-11.851
G02X-23.Y33.884I0.J-3.749
G01Y31.066Z-20.875
Y30.524Z-21.115
Y28.249Z-22.088
Y25.432Z-23.228
Y23.596Z-23.932
Y21.912Z-24.558
Y21.244Z-24.788
G02X-23.Y14.999I0.J-1.295
G01Y14.958Z-20.194
Y14.893Z-20.018
Y14.753Z-19.671
Y14.181Z-18.298
Y-.452Z17.066
Y-1.027Z18.326
Y-1.391Z19.048
Y-1.79Z19.775
Y-1.886Z19.94
Y-1.942Z20.019
G02X-23.Y-3.282I0.J3.363
G01X-22.765Y-3.597Z22.615
X-22.53Y-3.996Z23.123
X-22.295Y-4.47Z23.561
X-22.06Y-5.006Z23.92
X-21.826Y-5.592Z24.19
Y-5.155Z18.728
X-22.98F5998.
X-24.
Y-4.382Z18.993F2999.
G03X-24.Y-3.066I0.J-.676
G01Y-3.181Z21.782
Y-3.189Z21.801
G02X-24.Y-3.561I0.J4.727
G01Y-3.554Z23.96
G02X-24.Y-2.252I0.J5.085
X-24.Y-.3I0.J3.709
G03X-24.Y9.892I0.J-25.167
G01Y12.032Z33.459
G02X-24.Y18.933I0.J1.939
G01Y18.965Z28.509
Y19.06Z28.157
Y19.498Z26.777
Y19.798Z25.949
Y20.615Z23.96
Y34.621Z-9.846
Y35.235Z-11.311
Y35.396Z-11.677
Y35.495Z-11.851
G02X-24.Y33.884I0.J-3.749
G01Y31.066Z-20.875
Y30.524Z-21.115
Y28.249Z-22.088
Y25.432Z-23.228
Y23.596Z-23.932
Y21.912Z-24.558
Y21.244Z-24.788
G02X-24.Y14.999I0.J-1.295
G01Y14.958Z-20.194
Y14.893Z-20.018
Y14.753Z-19.671
Y14.181Z-18.298
Y-.452Z17.066
Y-1.027Z18.326
Y-1.391Z19.048
Y-1.79Z19.775
Y-1.886Z19.94
Y-1.942Z20.019
Y-2.011Z20.083
Y-2.276Z20.354
Y-2.519Z20.644
Y-2.74Z20.951
Y-2.86Z21.143
Y-3.037Z21.466
Y-3.181Z21.782
X-23.765Y-3.537Z22.32
X-23.53Y-3.972Z22.796
X-23.295Y-4.477Z23.198
X-23.06Y-5.039Z23.516
X-22.826Y-5.643Z23.742
Y-11.594Z22.753
X-22.98F5998.
X-24.
Y-11.946Z22.328F2999.
Y-12.297Z21.904
Y-12.479Z21.647
Y-12.619Z21.366
Y-12.714Z21.066
Y-12.763Z20.756
Z20.441
Y-12.736Z20.085
G02X-24.Y-13.215I0.J-5.125
G01Y-13.316Z16.935
Y-13.368Z16.222
Y-13.42Z15.509
Y-13.447Z14.805
Y-13.449Z14.1
Y-13.412Z-24.641
Y-13.439Z-25.349
Y-13.433Z-25.705
Y-13.425Z-25.884
Y-13.385Z-26.058
G02X-24.Y-16.911I0.J-4.731
G01Y-17.587Z-32.503
Y-18.273Z-32.537
Y-21.051Z-32.637
Y-22.46Z-32.659
Y-25.277Z-32.675
Y-28.095Z-32.634
Y-30.912Z-32.53
Y-31.505Z-32.492
Y-32.089Z-32.384
G02X-24.Y-35.615I0.J1.215
G01Y-35.575Z-25.884
Y-35.567Z-25.705
Y-35.561Z-25.349
Y-35.588Z-24.641
Y-35.553Z14.805
Y-35.58Z15.509
Y-35.684Z16.935
Y-35.77Z17.649
Y-35.785Z17.739
G02X-24.Y-30.912I0.J4.489
G03X-24.Y-21.051I0.J6.526
G01Y-19.643Z24.731
Y-18.235Z24.821
Y-17.529Z24.846
G02X-24.Y-12.763I0.J-.177
G01X-23.765Y-12.568Z19.826
X-23.53Y-12.279Z19.249
X-23.295Y-11.904Z18.724
X-23.06Y-11.451Z18.264
X-22.826Y-10.932Z17.881
Y-10.789Z21.948
X-23.98F5998.
X-25.
Y-11.507Z21.633F2999.
Y-11.806Z21.472
Y-12.074Z21.263
Y-12.304Z21.013
Y-12.489Z20.728
Y-12.625Z20.417
Y-12.708Z20.087
Y-12.735Z19.748
Z19.728
G02X-25.Y-13.215I0.J-5.201
G01Y-13.316Z16.935
Y-13.368Z16.222
Y-13.42Z15.509
Y-13.447Z14.805
Y-13.449Z14.1
Y-13.412Z-24.641
Y-13.439Z-25.349
Y-13.433Z-25.705
Y-13.425Z-25.884
Y-13.385Z-26.058
G02X-25.Y-16.911I0.J-4.731
G01Y-17.587Z-32.503
Y-18.273Z-32.537
Y-21.051Z-32.637
Y-22.46Z-32.659
Y-25.277Z-32.675
Y-28.095Z-32.634
Y-30.912Z-32.53
Y-31.505Z-32.492
Y-32.089Z-32.384
G02X-25.Y-35.615I0.J1.215
G01Y-35.575Z-25.884
Y-35.567Z-25.705
Y-35.561Z-25.349
Y-35.588Z-24.641
Y-35.553Z14.805
Y-35.58Z15.509
Y-35.684Z16.935
Y-35.77Z17.649
Y-35.785Z17.739
G02X-25.Y-30.912I0.J4.489
G03X-25.Y-21.051I0.J6.526
G01Y-19.643Z24.731
Y-18.235Z24.821
Y-17.529Z24.846
G02X-25.Y-12.735I0.J-.175
G01X-24.765Y-12.631Z19.111
X-24.53Y-12.43Z18.498
X-24.295Y-12.135Z17.924
X-24.06Y-11.754Z17.404
X-23.826Y-11.296Z16.949
Y-5.155Z18.728
X-23.98F5998.
X-25.
Y-4.528Z19.246F2999.
Y-3.901Z19.763
Y-3.674Z19.982
Y-3.483Z20.233
Y-3.333Z20.511
Y-3.227Z20.809
Y-3.168Z21.119
Y-3.158Z21.435
Y-3.196Z21.748
Y-3.282Z22.052
Y-3.317Z22.146
G02X-25.Y-3.475I0.J4.953
G01Y-3.311Z25.245
G02X-25.Y-1.464I0.J4.839
G01Y-1.077Z27.984
Y-.668Z28.195
Y-.3Z28.346
Y1.49Z28.952
Y2.895Z29.453
Y4.498Z30.055
Y5.712Z30.552
Y7.129Z31.143
Y8.529Z31.775
Y9.892Z32.412
Y12.032Z33.459
G02X-25.Y18.933I0.J1.939
G01Y18.965Z28.509
Y19.06Z28.157
Y19.498Z26.777
Y19.798Z25.949
Y20.615Z23.96
Y34.621Z-9.846
Y35.235Z-11.311
Y35.396Z-11.677
Y35.495Z-11.851
G02X-25.Y33.884I0.J-3.749
G01Y31.066Z-20.875
Y30.524Z-21.115
Y28.249Z-22.088
Y25.432Z-23.228
Y23.596Z-23.932
Y21.912Z-24.558
Y21.244Z-24.788
G02X-25.Y14.999I0.J-1.295
G01Y14.958Z-20.194
Y14.893Z-20.018
Y14.753Z-19.671
Y14.181Z-18.298
Y-.452Z17.066
Y-1.027Z18.326
Y-1.391Z19.048
Y-1.79Z19.775
Y-1.886Z19.94
Y-1.942Z20.019
G02X-25.Y-3.282I0.J3.363
G01X-24.765Y-3.597Z22.615
X-24.53Y-3.996Z23.123
X-24.295Y-4.47Z23.561
X-24.06Y-5.006Z23.92
X-23.826Y-5.592Z24.19
Y-5.155Z18.728
X-24.98F5998.
X-26.
Y-4.382Z18.993F2999.
G03X-26.Y-3.066I0.J-.676
G01Y-3.181Z21.782
Y-3.189Z21.801
G02X-26.Y-3.561I0.J4.727
G01Y-3.554Z23.96
G02X-26.Y-2.252I0.J5.085
X-26.Y-.3I0.J3.709
G03X-26.Y9.892I0.J-25.167
G01Y12.032Z33.459
G02X-26.Y18.933I0.J1.939
G01Y18.965Z28.509
Y19.06Z28.157
Y19.498Z26.777
Y19.798Z25.949
Y20.615Z23.96
Y34.621Z-9.846
Y35.235Z-11.311
Y35.396Z-11.677
Y35.495Z-11.851
G02X-26.Y33.884I0.J-3.749
G01Y31.066Z-20.875
Y30.524Z-21.115
Y28.249Z-22.088
Y25.432Z-23.228
Y23.596Z-23.932
Y21.912Z-24.558
Y21.244Z-24.788
G02X-26.Y14.999I0.J-1.295
G01Y14.958Z-20.194
Y14.893Z-20.018
Y14.753Z-19.671
Y14.181Z-18.298
Y-.452Z17.066
Y-1.027Z18.326
Y-1.391Z19.048
Y-1.79Z19.775
Y-1.886Z19.94
Y-1.942Z20.019
Y-2.011Z20.083
Y-2.276Z20.354
Y-2.519Z20.644
Y-2.74Z20.951
Y-2.86Z21.143
Y-3.037Z21.466
Y-3.181Z21.782
X-25.765Y-3.537Z22.32
X-25.53Y-3.972Z22.796
X-25.295Y-4.477Z23.198
X-25.06Y-5.039Z23.516
X-24.826Y-5.643Z23.742
Y-11.594Z22.753
X-24.98F5998.
X-26.
Y-11.946Z22.328F2999.
Y-12.297Z21.904
Y-12.479Z21.647
Y-12.619Z21.366
Y-12.714Z21.066
Y-12.763Z20.756
Z20.441
Y-12.736Z20.085
G02X-26.Y-13.215I0.J-5.125
G01Y-13.316Z16.935
Y-13.368Z16.222
Y-13.42Z15.509
Y-13.447Z14.805
Y-13.449Z14.1
Y-13.412Z-24.641
Y-13.439Z-25.349
Y-13.433Z-25.705
Y-13.425Z-25.884
Y-13.385Z-26.058
G02X-26.Y-16.911I0.J-4.731
G01Y-17.587Z-32.503
Y-18.273Z-32.537
Y-21.051Z-32.637
Y-22.46Z-32.659
Y-25.277Z-32.675
Y-28.095Z-32.634
Y-30.912Z-32.53
Y-31.505Z-32.492
Y-32.089Z-32.384
G02X-26.Y-35.615I0.J1.215
G01Y-35.575Z-25.884
Y-35.567Z-25.705
Y-35.561Z-25.349
Y-35.588Z-24.641
Y-35.553Z14.805
Y-35.58Z15.509
Y-35.684Z16.935
Y-35.77Z17.649
Y-35.785Z17.739
G02X-26.Y-30.912I0.J4.489
G03X-26.Y-21.051I0.J6.526
G01Y-19.643Z24.731
Y-18.235Z24.821
Y-17.529Z24.846
G02X-26.Y-12.763I0.J-.177
G01X-25.765Y-12.568Z19.826
X-25.53Y-12.279Z19.249
X-25.295Y-11.904Z18.724
X-25.06Y-11.451Z18.264
X-24.826Y-10.932Z17.881
G00X50.
/G05.1 Q0
M09
G00Z0.
X0.Y0.
M05
M30
%
