%
O0100
(SONCHU POSTPROCESSOR A.I.C TAICHUNG)
G40G49G90G80
G17G00G54X0.Y0.
/G05.1 Q1
(TOOL: D12_SC30)
M03S3000
G43Z0.H1
M8
G00X-24.98Y25.261
Z16.114
G01X-25.98F840. 
Y25.105Z15.737
X-26.962Y35.898Z-10.242
X-26.979Y36.054Z-10.679
X-26.987Y36.131Z-10.9
X-26.995Y36.226Z-11.113
X-26.999Y36.275Z-11.22
X-27.003Y36.34Z-11.318
X-27.011Y36.486Z-11.501
X-27.031Y36.8Z-11.956
X-27.044Y36.996Z-12.293
X-27.058Y37.169Z-12.642
X-27.071Y37.318Z-13.001
X-27.085Y37.444Z-13.37
X-27.099Y37.546Z-13.745
X-27.112Y37.623Z-14.127
X-27.126Y37.674Z-14.513
X-27.139Y37.701Z-14.901
X-27.155Y37.7Z-15.342
X-27.17Y37.666Z-15.782
X-27.186Y37.6Z-16.219
X-27.201Y37.502Z-16.649
X-27.216Y37.372Z-17.071
X-27.232Y37.211Z-17.481
X-27.247Y37.02Z-17.879
X-27.263Y36.8Z-18.262
X-27.264Y36.776Z-18.301
X-27.279Y36.538Z-18.647
X-27.294Y36.276Z-18.976
X-27.308Y35.992Z-19.286
X-27.323Y35.687Z-19.574
X-27.346Y35.162Z-19.987
X-27.37Y34.594Z-20.338
X-27.416Y33.401Z-20.901
X-27.483Y31.645Z-21.701
X-27.546Y30.001Z-22.425
X-27.61Y28.306Z-23.142
X-27.674Y26.601Z-23.835
X-27.797Y23.311Z-25.101
X-27.832Y22.376Z-25.444
X-27.863Y21.545Z-25.732
X-27.878Y21.117Z-25.834
X-27.894Y20.681Z-25.905
X-27.909Y20.242Z-25.943
X-27.924Y19.801Z-25.949
X-27.938Y19.417Z-25.927
X-27.951Y19.036Z-25.881
X-27.965Y18.658Z-25.81
X-27.978Y18.286Z-25.715
X-27.992Y17.92Z-25.596
X-28.005Y17.563Z-25.453
X-28.018Y17.216Z-25.288
X-28.032Y16.88Z-25.101
X-28.052Y16.401Z-24.78
X-28.069Y16.029Z-24.48
X-28.085Y15.682Z-24.151
X-28.102Y15.362Z-23.796
X-28.119Y15.073Z-23.416
X-28.136Y14.813Z-23.011
X-28.152Y14.586Z-22.586
X-28.169Y14.397Z-22.151
X-28.186Y14.243Z-21.701
X-28.201Y14.131Z-21.265
X-28.217Y14.052Z-20.821
X-28.229Y14.011Z-20.483
X-28.233Y13.97Z-20.376
X-28.249Y13.806Z-19.955
X-28.28Y13.441Z-19.133
X-29.Y5.565Z-.081
Y5.115Z1.009F1200.
Y.393Z12.431
Y-.035Z13.465
Y-1.316Z16.565
Y-1.692Z17.424
Y-2.117Z18.297
Y-2.542Z19.097
Y-2.703Z19.375
G02X-29.Y-.598I0.J4.112
G01Y1.116Z29.863
Y2.802Z30.467
Y4.51Z31.123
Y6.202Z31.82
Y8.181Z32.697
Y9.602Z33.363
Y11.251Z34.186
G02X-29.Y16.401I0.J2.727
X-29.Y19.336I0.J-2.505
X-29.Y19.926I0.J-5.639
G01Y20.015Z28.413
Y20.277Z27.562
Y20.565Z26.724
Y20.884Z25.897
Y35.898Z-10.242
Y36.054Z-10.679
Y36.131Z-10.9
Y36.275Z-11.22
Y36.34Z-11.318
G02X-29.Y35.687I0.J-4.593
G01Y35.162Z-19.987
Y34.594Z-20.338
Y33.401Z-20.901
Y31.645Z-21.701
Y30.001Z-22.425
Y28.306Z-23.142
Y26.601Z-23.835
Y23.311Z-25.101
Y22.376Z-25.444
Y21.545Z-25.732
G02X-29.Y14.011I0.J-1.593
G01Y13.806Z-19.955
Y13.441Z-19.133
Y5.565Z-.081
X-25.98
Y-11.223Z-1.727
X-29.F840.
Y-10.872Z-1.613F1200.
G03X-29.Y-11.501I0.J-.372
X-29.Y-12.425I0.J.27
G01Y-12.442Z-.473
Y-12.441Z-1.302
Y-12.414Z-24.251
Y-12.436Z-25.101
Y-12.454Z-25.315
Y-12.449Z-25.53
Y-12.442Z-25.747
G02X-29.Y-17.597I0.J-5.676
G01Y-20.997Z-33.624
Y-22.697Z-33.659
Y-24.397Z-33.672
Y-27.797Z-33.63
Y-31.197Z-33.512
Y-31.657Z-33.471
Y-32.112Z-33.394
Y-32.56Z-33.281
Y-32.997Z-33.135
Y-33.441Z-32.946
Y-33.832Z-32.742
Y-34.225Z-32.499
Y-34.597Z-32.225
G02X-29.Y-36.558I0.J3.729
G01Y-36.551Z-25.53
Y-36.546Z-25.315
Y-36.562Z-25.101
Y-36.583Z-24.251
Y-36.578Z-19.47
Y-36.577Z-18.275
Y-36.541Z13.998
Y-36.544Z14.848
Y-36.58Z15.698
Y-36.643Z16.563
Y-36.738Z17.426
Y-37.039Z18.291
G02X-29.Y-31.197I0.J5.736
G01Y-29.498Z25.724
Y-27.797Z25.634
Y-26.097Z25.581
Y-24.397Z25.566
Y-22.697Z25.587
Y-20.997Z25.645
Y-19.297Z25.74
Y-18.448Z25.798
Y-17.597Z25.838
G02X-29.Y-11.973I0.J-.105
G01Y-12.262Z17.426
Y-12.357Z16.563
Y-12.42Z15.698
Y-12.456Z14.848
Y-12.459Z13.998
Y-12.442Z-.473
X-28.863Y-12.382Z-.846
X-28.725Y-12.265Z-1.205
X-28.588Y-12.093Z-1.541
X-28.45Y-11.871Z-1.847
X-28.313Y-11.603Z-2.114
Y-11.223Z-2.152
X-28.98F840.
X-32.
Y-10.817Z-1.998F1200.
G03X-32.Y-11.657I0.J-.427
X-32.Y-12.423I0.J.429
G01Y-12.441Z-.877
Z-1.302
Y-12.414Z-24.251
Y-12.436Z-25.101
Y-12.454Z-25.315
Y-12.449Z-25.53
Y-12.442Z-25.747
G02X-32.Y-17.597I0.J-5.676
G01Y-20.997Z-33.624
Y-22.697Z-33.659
Y-24.397Z-33.672
Y-27.797Z-33.63
Y-31.197Z-33.512
Y-31.657Z-33.471
Y-32.112Z-33.394
Y-32.56Z-33.281
Y-32.997Z-33.135
Y-33.441Z-32.946
Y-33.832Z-32.742
Y-34.225Z-32.499
Y-34.597Z-32.225
G02X-32.Y-36.558I0.J3.729
G01Y-36.551Z-25.53
Y-36.546Z-25.315
Y-36.562Z-25.101
Y-36.583Z-24.251
Y-36.578Z-19.47
Y-36.577Z-18.275
Y-36.541Z13.998
Y-36.544Z14.848
Y-36.58Z15.698
Y-36.643Z16.563
Y-36.738Z17.426
Y-37.039Z18.291
G02X-32.Y-31.197I0.J5.736
G01Y-29.498Z25.724
Y-27.797Z25.634
Y-26.097Z25.581
Y-24.397Z25.566
Y-22.697Z25.587
Y-20.997Z25.645
Y-19.297Z25.74
Y-18.448Z25.798
Y-17.597Z25.838
G02X-32.Y-11.973I0.J-.105
G01Y-12.262Z17.426
Y-12.357Z16.563
Y-12.42Z15.698
Y-12.456Z14.848
Y-12.459Z13.998
Y-12.441Z-.877
X-31.863Y-12.382Z-1.25
X-31.725Y-12.265Z-1.609
X-31.588Y-12.093Z-1.946
X-31.45Y-11.87Z-2.251
X-31.313Y-11.603Z-2.518
X-28.98
Y2.377Z5.923
X-32.F840.
Y1.953Z5.79F1200.
G03X-32.Y2.608I0.J.362
X-32.Y3.484I0.J-.302
G01Y3.422Z5.104
Y3.259Z5.498
Y2.801Z6.605
Y-1.316Z16.565
Y-1.692Z17.424
Y-2.117Z18.297
Y-2.542Z19.097
Y-2.703Z19.375
G02X-32.Y-.598I0.J4.112
G01Y1.116Z29.863
Y2.802Z30.467
Y4.51Z31.123
Y6.202Z31.82
Y8.181Z32.697
Y9.602Z33.363
Y11.251Z34.186
G02X-32.Y16.401I0.J2.727
X-32.Y19.336I0.J-2.505
X-32.Y19.926I0.J-5.639
G01Y20.015Z28.413
Y20.277Z27.562
Y20.565Z26.724
Y20.884Z25.897
Y35.898Z-10.242
Y36.054Z-10.679
Y36.131Z-10.9
Y36.275Z-11.22
Y36.34Z-11.318
G02X-32.Y35.687I0.J-4.593
G01Y35.162Z-19.987
Y34.594Z-20.338
Y33.401Z-20.901
Y31.645Z-21.701
Y30.001Z-22.425
Y28.306Z-23.142
Y26.601Z-23.835
Y23.311Z-25.101
Y22.376Z-25.444
Y21.545Z-25.732
G02X-32.Y14.011I0.J-1.593
G01Y13.806Z-19.955
Y13.441Z-19.133
Y3.422Z5.104
X-31.98
Y3.652Z3.373
X-35.F840.
Y3.648Z4.091F1200.
Y3.627Z4.4
Y3.566Z4.703
Y3.466Z4.996
Y3.259Z5.498
Y2.801Z6.605
Y-1.316Z16.565
Y-1.692Z17.424
Y-2.117Z18.297
Y-2.542Z19.097
Y-2.703Z19.375
G02X-35.Y-.598I0.J4.112
G01Y1.116Z29.863
Y2.802Z30.467
Y4.51Z31.123
Y6.202Z31.82
Y8.181Z32.697
Y9.602Z33.363
Y11.251Z34.186
G02X-35.Y16.401I0.J2.727
X-35.Y19.336I0.J-2.505
X-35.Y19.926I0.J-5.639
G01Y20.015Z28.413
Y20.277Z27.562
Y20.565Z26.724
Y20.884Z25.897
Y35.898Z-10.242
Y36.054Z-10.679
Y36.131Z-10.9
Y36.275Z-11.22
Y36.34Z-11.318
G02X-35.Y35.687I0.J-4.593
G01Y35.162Z-19.987
Y34.594Z-20.338
Y33.401Z-20.901
Y31.645Z-21.701
Y30.001Z-22.425
Y28.306Z-23.142
Y26.601Z-23.835
Y23.311Z-25.101
Y22.376Z-25.444
Y21.545Z-25.732
G02X-35.Y14.011I0.J-1.593
G01Y13.806Z-19.955
Y13.441Z-19.133
Y3.466Z4.996
X-31.98
Y-11.223Z3.373
X-35.F840.
Y-10.865Z3.493F1200.
G03X-35.Y-11.511I0.J-.385
X-35.Y-12.431I0.J.274
G01Y-12.448Z4.629
Y-12.447Z3.786
Y-12.414Z-24.251
Y-12.436Z-25.101
Y-12.454Z-25.315
Y-12.449Z-25.53
Y-12.442Z-25.747
G02X-35.Y-17.597I0.J-5.676
G01Y-20.997Z-33.624
Y-22.697Z-33.659
Y-24.397Z-33.672
Y-27.797Z-33.63
Y-31.197Z-33.512
Y-31.657Z-33.471
Y-32.112Z-33.394
Y-32.56Z-33.281
Y-32.997Z-33.135
Y-33.441Z-32.946
Y-33.832Z-32.742
Y-34.225Z-32.499
Y-34.597Z-32.225
G02X-35.Y-36.558I0.J3.729
G01Y-36.551Z-25.53
Y-36.546Z-25.315
Y-36.562Z-25.101
Y-36.583Z-24.251
Y-36.578Z-19.47
Y-36.577Z-18.275
Y-36.541Z13.998
Y-36.544Z14.848
Y-36.58Z15.698
Y-36.643Z16.563
Y-36.738Z17.426
Y-37.039Z18.291
G02X-35.Y-31.197I0.J5.736
G01Y-29.498Z25.724
Y-27.797Z25.634
Y-26.097Z25.581
Y-24.397Z25.566
Y-22.697Z25.587
Y-20.997Z25.645
Y-19.297Z25.74
Y-18.448Z25.798
Y-17.597Z25.838
G02X-35.Y-11.973I0.J-.105
G01Y-12.262Z17.426
Y-12.357Z16.563
Y-12.42Z15.698
Y-12.456Z14.848
Y-12.459Z13.998
Y-12.448Z4.629
X-34.863Y-12.388Z4.256
X-34.725Y-12.271Z3.897
X-34.588Y-12.099Z3.561
X-34.45Y-11.877Z3.255
X-34.313Y-11.609Z2.989
Y-11.223Z2.948
X-34.98F840.
X-38.
Y-10.817Z3.104F1200.
G03X-38.Y-11.664I0.J-.432
X-38.Y-12.429I0.J.431
G01Y-12.447Z4.223
Y-12.446Z3.16
Y-12.414Z-24.251
Y-12.436Z-25.101
Y-12.454Z-25.315
Y-12.449Z-25.53
Y-12.442Z-25.747
G02X-38.Y-17.597I0.J-5.676
G01Y-20.997Z-33.624
Y-22.697Z-33.659
Y-24.397Z-33.672
Y-27.797Z-33.63
Y-31.197Z-33.512
Y-31.657Z-33.471
Y-32.112Z-33.394
Y-32.56Z-33.281
Y-32.997Z-33.135
Y-33.441Z-32.946
Y-33.832Z-32.742
Y-34.225Z-32.499
Y-34.597Z-32.225
G02X-38.Y-36.558I0.J3.729
G01Y-36.551Z-25.53
Y-36.546Z-25.315
Y-36.562Z-25.101
Y-36.583Z-24.251
Y-36.578Z-19.47
Y-36.577Z-18.275
Y-36.541Z13.998
Y-36.544Z14.848
Y-36.58Z15.698
Y-36.643Z16.563
Y-36.738Z17.426
Y-37.039Z18.291
G02X-38.Y-31.197I0.J5.736
G01Y-29.498Z25.724
Y-27.797Z25.634
Y-26.097Z25.581
Y-24.397Z25.566
Y-22.697Z25.587
Y-20.997Z25.645
Y-19.297Z25.74
Y-18.448Z25.798
Y-17.597Z25.838
G02X-38.Y-11.973I0.J-.105
G01Y-12.262Z17.426
Y-12.357Z16.563
Y-12.42Z15.698
Y-12.456Z14.848
Y-12.459Z13.998
Y-12.447Z4.223
X-37.863Y-12.388Z3.85
X-37.725Y-12.271Z3.49
X-37.588Y-12.099Z3.154
X-37.45Y-11.876Z2.849
X-37.313Y-11.609Z2.582
Y1.102Z8.898
X-38.F840.
Y1.621Z9.459F1200.
Y1.23Z10.405
Y-.875Z15.498
Y-1.316Z16.565
Y-1.692Z17.424
Y-2.117Z18.297
Y-2.542Z19.097
Y-2.703Z19.375
G02X-38.Y-.598I0.J4.112
G01Y1.116Z29.863
Y2.802Z30.467
Y4.51Z31.123
Y6.202Z31.82
Y8.181Z32.697
Y9.602Z33.363
Y11.251Z34.186
G02X-38.Y16.401I0.J2.727
X-38.Y19.336I0.J-2.505
X-38.Y19.926I0.J-5.639
G01Y20.015Z28.413
Y20.277Z27.562
Y20.565Z26.724
Y20.884Z25.897
Y35.898Z-10.242
Y36.054Z-10.679
Y36.131Z-10.9
Y36.275Z-11.22
Y36.34Z-11.318
G02X-38.Y35.687I0.J-4.593
G01Y35.162Z-19.987
Y34.594Z-20.338
Y33.401Z-20.901
Y31.645Z-21.701
Y30.001Z-22.425
Y28.306Z-23.142
Y26.601Z-23.835
Y23.311Z-25.101
Y22.376Z-25.444
Y21.545Z-25.732
G02X-38.Y14.011I0.J-1.593
G01Y13.806Z-19.955
Y13.441Z-19.133
Y1.621Z9.459
Y1.102Z8.898
X-41.F840.
Y1.718Z9.226F1200.
Y1.294Z10.25
Y-1.316Z16.565
Y-1.692Z17.424
Y-2.117Z18.297
Y-2.542Z19.097
Y-2.703Z19.375
G02X-41.Y-.598I0.J4.112
G01Y1.116Z29.863
Y2.802Z30.467
Y4.51Z31.123
Y6.202Z31.82
Y8.181Z32.697
Y9.602Z33.363
Y11.251Z34.186
G02X-41.Y16.401I0.J2.727
X-41.Y19.336I0.J-2.505
X-41.Y19.926I0.J-5.639
G01Y20.015Z28.413
Y20.277Z27.562
Y20.565Z26.724
Y20.884Z25.897
Y35.898Z-10.242
Y36.054Z-10.679
Y36.131Z-10.9
Y36.275Z-11.22
Y36.34Z-11.318
G02X-41.Y35.687I0.J-4.593
G01Y35.162Z-19.987
Y34.594Z-20.338
Y33.401Z-20.901
Y31.645Z-21.701
Y30.001Z-22.425
Y28.306Z-23.142
Y26.601Z-23.835
Y23.311Z-25.101
Y22.376Z-25.444
Y21.545Z-25.732
G02X-41.Y14.011I0.J-1.593
G01Y13.806Z-19.955
Y13.441Z-19.133
Y1.718Z9.226
X-37.98
Y-11.223Z7.623
X-41.F840.
Y-10.86Z7.749F1200.
G03X-41.Y-11.519I0.J-.395
X-41.Y-12.436I0.J.277
G01Y-12.453Z8.881
Y-12.451Z7.753
Y-12.414Z-24.251
Y-12.436Z-25.101
Y-12.454Z-25.315
Y-12.449Z-25.53
Y-12.442Z-25.747
G02X-41.Y-17.597I0.J-5.676
G01Y-20.997Z-33.624
Y-22.697Z-33.659
Y-24.397Z-33.672
Y-27.797Z-33.63
Y-31.197Z-33.512
Y-31.657Z-33.471
Y-32.112Z-33.394
Y-32.56Z-33.281
Y-32.997Z-33.135
Y-33.441Z-32.946
Y-33.832Z-32.742
Y-34.225Z-32.499
Y-34.597Z-32.225
G02X-41.Y-36.558I0.J3.729
G01Y-36.551Z-25.53
Y-36.546Z-25.315
Y-36.562Z-25.101
Y-36.583Z-24.251
Y-36.578Z-19.47
Y-36.577Z-18.275
Y-36.541Z13.998
Y-36.544Z14.848
Y-36.58Z15.698
Y-36.643Z16.563
Y-36.738Z17.426
Y-37.039Z18.291
G02X-41.Y-31.197I0.J5.736
G01Y-29.498Z25.724
Y-27.797Z25.634
Y-26.097Z25.581
Y-24.397Z25.566
Y-22.697Z25.587
Y-20.997Z25.645
Y-19.297Z25.74
Y-18.448Z25.798
Y-17.597Z25.838
G02X-41.Y-11.973I0.J-.105
G01Y-12.262Z17.426
Y-12.357Z16.563
Y-12.42Z15.698
Y-12.456Z14.848
Y-12.459Z13.998
Y-12.453Z8.881
X-40.863Y-12.393Z8.508
X-40.725Y-12.276Z8.149
X-40.588Y-12.104Z7.813
X-40.45Y-11.882Z7.507
X-40.313Y-11.614Z7.24
Y-11.223Z7.198
X-40.98F840.
X-44.
Y-10.818Z7.355F1200.
G03X-44.Y-11.67I0.J-.437
X-44.Y-12.434I0.J.432
G01Y-12.452Z8.472
Y-12.451Z7.481
Y-12.414Z-24.251
Y-12.436Z-25.101
Y-12.454Z-25.315
Y-12.449Z-25.53
Y-12.442Z-25.747
G02X-44.Y-17.597I0.J-5.676
G01Y-20.997Z-33.624
Y-22.697Z-33.659
Y-24.397Z-33.672
Y-27.797Z-33.63
Y-31.197Z-33.512
Y-31.657Z-33.471
Y-32.112Z-33.394
Y-32.56Z-33.281
Y-32.997Z-33.135
Y-33.441Z-32.946
Y-33.832Z-32.742
Y-34.225Z-32.499
Y-34.597Z-32.225
G02X-44.Y-36.558I0.J3.729
G01Y-36.551Z-25.53
Y-36.546Z-25.315
Y-36.562Z-25.101
Y-36.583Z-24.251
Y-36.578Z-19.47
Y-36.577Z-18.275
Y-36.541Z13.998
Y-36.544Z14.848
Y-36.58Z15.698
Y-36.643Z16.563
Y-36.738Z17.426
Y-37.039Z18.291
G02X-44.Y-31.197I0.J5.736
G01Y-29.498Z25.724
Y-27.797Z25.634
Y-26.097Z25.581
Y-24.397Z25.566
Y-22.697Z25.587
Y-20.997Z25.645
Y-19.297Z25.74
Y-18.448Z25.798
Y-17.597Z25.838
G02X-44.Y-11.973I0.J-.105
G01Y-12.262Z17.426
Y-12.357Z16.563
Y-12.42Z15.698
Y-12.456Z14.848
Y-12.459Z13.998
Y-12.452Z8.472
X-43.863Y-12.393Z8.099
X-43.725Y-12.275Z7.74
X-43.588Y-12.104Z7.404
X-43.45Y-11.881Z7.098
X-43.313Y-11.614Z6.832
G00X5.
Y30.565Z2.58
X-39.98
G01X-40.98F840.
Y30.572Z2.577
X-41.465Y35.898Z-10.242
X-41.481Y36.054Z-10.679
X-41.489Y36.131Z-10.9
X-41.497Y36.226Z-11.113
X-41.501Y36.275Z-11.22
X-41.505Y36.34Z-11.318
X-41.514Y36.486Z-11.501
X-41.533Y36.8Z-11.956
X-41.547Y36.996Z-12.293
X-41.56Y37.169Z-12.642
X-41.574Y37.318Z-13.001
X-41.587Y37.444Z-13.37
X-41.601Y37.546Z-13.745
X-41.615Y37.623Z-14.127
X-41.628Y37.674Z-14.513
X-41.642Y37.701Z-14.901
X-41.657Y37.7Z-15.342
X-41.673Y37.666Z-15.782
X-41.688Y37.6Z-16.219
X-41.703Y37.502Z-16.649
X-41.719Y37.372Z-17.071
X-41.734Y37.211Z-17.481
X-41.75Y37.02Z-17.879
X-41.765Y36.8Z-18.262
X-41.767Y36.776Z-18.301
X-41.781Y36.538Z-18.647
X-41.796Y36.276Z-18.976
X-41.811Y35.992Z-19.286
X-41.825Y35.687Z-19.574
X-41.849Y35.162Z-19.987
X-41.872Y34.594Z-20.338
X-41.918Y33.401Z-20.901
X-41.985Y31.645Z-21.701
X-42.048Y30.001Z-22.425
X-42.112Y28.306Z-23.142
X-42.177Y26.601Z-23.835
X-42.3Y23.311Z-25.101
X-42.335Y22.376Z-25.444
X-42.365Y21.545Z-25.732
X-42.381Y21.117Z-25.834
X-42.396Y20.681Z-25.905
X-42.411Y20.242Z-25.943
X-42.427Y19.801Z-25.949
X-42.44Y19.417Z-25.927
X-42.454Y19.036Z-25.881
X-42.467Y18.658Z-25.81
X-42.481Y18.286Z-25.715
X-42.494Y17.92Z-25.596
X-42.507Y17.563Z-25.453
X-42.521Y17.216Z-25.288
X-42.534Y16.88Z-25.101
X-42.554Y16.401Z-24.78
X-42.571Y16.029Z-24.48
X-42.588Y15.682Z-24.151
X-42.604Y15.362Z-23.796
X-42.621Y15.073Z-23.416
X-42.638Y14.813Z-23.011
X-42.655Y14.586Z-22.586
X-42.671Y14.397Z-22.151
X-42.688Y14.243Z-21.701
X-42.704Y14.131Z-21.265
X-42.719Y14.052Z-20.821
X-42.731Y14.011Z-20.483
X-42.735Y13.97Z-20.376
X-42.751Y13.806Z-19.955
X-42.782Y13.441Z-19.133
X-44.Y.121Z13.089
Y-.239Z13.958F1200.
Y-1.316Z16.565
Y-1.692Z17.424
Y-2.117Z18.297
Y-2.542Z19.097
Y-2.703Z19.375
Y-2.929Z19.603
Y-3.341Z20.089
Y-3.699Z20.617
G02X-44.Y-.598I0.J5.116
G01Y1.116Z29.863
Y2.802Z30.467
Y4.51Z31.123
Y6.202Z31.82
Y8.181Z32.697
Y9.602Z33.363
Y11.251Z34.186
G02X-44.Y16.401I0.J2.727
X-44.Y19.336I0.J-2.505
X-44.Y19.926I0.J-5.639
G01Y20.015Z28.413
Y20.277Z27.562
Y20.565Z26.724
Y20.884Z25.897
Y35.898Z-10.242
Y36.054Z-10.679
Y36.131Z-10.9
Y36.275Z-11.22
Y36.34Z-11.318
G02X-44.Y35.687I0.J-4.593
G01Y35.162Z-19.987
Y34.594Z-20.338
Y33.401Z-20.901
Y31.645Z-21.701
Y30.001Z-22.425
Y28.306Z-23.142
Y26.601Z-23.835
Y23.311Z-25.101
Y22.376Z-25.444
Y21.545Z-25.732
G02X-44.Y14.011I0.J-1.593
G01Y13.806Z-19.955
Y13.441Z-19.133
Y.121Z13.089
X-43.98
Y-1.023Z11.448
X-47.F840.
Y-.377Z12.089F1200.
Y.269Z12.73
Y-.164Z13.779
Y-1.316Z16.565
Y-1.692Z17.424
Y-2.117Z18.297
Y-2.542Z19.097
Y-2.703Z19.375
G02X-47.Y-.598I0.J4.112
G01Y1.116Z29.863
Y2.802Z30.467
Y4.51Z31.123
Y6.202Z31.82
Y8.181Z32.697
Y9.602Z33.363
Y11.251Z34.186
G02X-47.Y16.401I0.J2.727
X-47.Y19.336I0.J-2.505
X-47.Y19.926I0.J-5.639
G01Y20.015Z28.413
Y20.277Z27.562
Y20.565Z26.724
Y20.884Z25.897
Y35.898Z-10.242
Y36.054Z-10.679
Y36.131Z-10.9
Y36.275Z-11.22
Y36.34Z-11.318
G02X-47.Y35.687I0.J-4.593
G01Y35.162Z-19.987
Y34.594Z-20.338
Y33.401Z-20.901
Y31.645Z-21.701
Y30.001Z-22.425
Y28.306Z-23.142
Y26.601Z-23.835
Y23.311Z-25.101
Y22.376Z-25.444
Y21.545Z-25.732
G02X-47.Y14.011I0.J-1.593
G01Y13.806Z-19.955
Y13.441Z-19.133
Y.269Z12.73
X-43.98
Y-11.223Z11.448
X-47.F840.
Y-10.856Z11.578F1200.
G03X-47.Y-11.527I0.J-.404
X-47.Y-12.44I0.J.28
G01Y-12.457Z12.707
Z12.298
Y-12.451Z7.582
Y-12.45Z6.403
Y-12.414Z-24.251
Y-12.436Z-25.101
Y-12.454Z-25.315
Y-12.449Z-25.53
Y-12.442Z-25.747
G02X-47.Y-17.597I0.J-5.676
G01Y-20.997Z-33.624
Y-22.697Z-33.659
Y-24.397Z-33.672
Y-27.797Z-33.63
Y-31.197Z-33.512
G02X-47.Y-36.558I0.J.314
G01Y-36.551Z-25.53
Y-36.546Z-25.315
Y-36.562Z-25.101
Y-36.583Z-24.251
Y-36.541Z13.998
Y-36.544Z14.848
Y-36.58Z15.698
Y-36.643Z16.563
Y-36.738Z17.426
Y-37.039Z18.291
G02X-47.Y-31.197I0.J5.736
G01Y-29.498Z25.724
Y-27.797Z25.634
Y-26.097Z25.581
Y-24.397Z25.566
Y-22.697Z25.587
Y-20.997Z25.645
Y-19.297Z25.74
Y-18.448Z25.798
Y-17.597Z25.838
G02X-47.Y-11.973I0.J-.105
G01Y-12.262Z17.426
Y-12.357Z16.563
Y-12.42Z15.698
Y-12.456Z14.848
Y-12.459Z13.998
Y-12.457Z12.707
X-46.863Y-12.397Z12.334
X-46.725Y-12.28Z11.975
X-46.588Y-12.108Z11.639
X-46.45Y-11.886Z11.334
X-46.313Y-11.619Z11.067
Y-11.223Z11.023
X-46.98F840.
X-50.
Y-10.818Z11.182F1200.
G03X-50.Y-11.676I0.J-.441
X-50.Y-12.439I0.J.433
G01Y-12.457Z12.297
Y-12.455Z11.164
Y-12.451Z7.714
Y-12.45Z6.53
Y-12.414Z-24.251
Y-12.436Z-25.101
Y-12.454Z-25.315
Y-12.449Z-25.53
Y-12.442Z-25.747
G02X-50.Y-17.597I0.J-5.676
G01Y-20.997Z-33.624
Y-22.697Z-33.659
Y-24.397Z-33.672
Y-27.797Z-33.63
Y-31.197Z-33.512
G02X-50.Y-36.558I0.J.314
G01Y-36.551Z-25.53
Y-36.546Z-25.315
Y-36.562Z-25.101
Y-36.583Z-24.251
Y-36.541Z13.998
Y-36.544Z14.848
Y-36.58Z15.698
Y-36.643Z16.563
Y-36.738Z17.426
Y-37.039Z18.291
G02X-50.Y-31.197I0.J5.736
G01Y-29.498Z25.724
Y-27.797Z25.634
Y-26.097Z25.581
Y-24.397Z25.566
Y-22.697Z25.587
Y-20.997Z25.645
Y-19.297Z25.74
Y-18.448Z25.798
Y-17.597Z25.838
G02X-50.Y-11.973I0.J-.105
G01Y-12.262Z17.426
Y-12.357Z16.563
Y-12.42Z15.698
Y-12.456Z14.848
Y-12.459Z13.998
Y-12.457Z12.297
X-49.863Y-12.397Z11.924
X-49.725Y-12.28Z11.565
X-49.588Y-12.108Z11.229
X-49.45Y-11.886Z10.923
X-49.313Y-11.619Z10.656
G00X5.
Y31.921Z-.684
X-45.98
G01X-46.98F840.
Y31.929Z-.687
X-47.341Y35.898Z-10.242
X-47.358Y36.054Z-10.679
X-47.366Y36.131Z-10.9
X-47.374Y36.226Z-11.113
X-47.378Y36.275Z-11.22
X-47.382Y36.34Z-11.318
X-47.39Y36.486Z-11.501
X-47.41Y36.8Z-11.956
X-47.423Y36.996Z-12.293
X-47.437Y37.169Z-12.642
X-47.45Y37.318Z-13.001
X-47.464Y37.444Z-13.37
X-47.478Y37.546Z-13.745
X-47.491Y37.623Z-14.127
X-47.505Y37.674Z-14.513
X-47.518Y37.701Z-14.901
X-47.534Y37.7Z-15.342
X-47.549Y37.666Z-15.782
X-47.565Y37.6Z-16.219
X-47.58Y37.502Z-16.649
X-47.595Y37.372Z-17.071
X-47.611Y37.211Z-17.481
X-47.626Y37.02Z-17.879
X-47.642Y36.8Z-18.262
X-47.643Y36.776Z-18.301
X-47.658Y36.538Z-18.647
X-47.673Y36.276Z-18.976
X-47.687Y35.992Z-19.286
X-47.702Y35.687Z-19.574
X-47.725Y35.162Z-19.987
X-47.749Y34.594Z-20.338
X-47.795Y33.401Z-20.901
X-47.862Y31.645Z-21.701
X-47.925Y30.001Z-22.425
X-47.989Y28.306Z-23.142
X-48.053Y26.601Z-23.835
X-48.176Y23.311Z-25.101
X-48.211Y22.376Z-25.444
X-48.242Y21.545Z-25.732
X-48.257Y21.117Z-25.834
X-48.273Y20.681Z-25.905
X-48.288Y20.242Z-25.943
X-48.303Y19.801Z-25.949
X-48.317Y19.417Z-25.927
X-48.33Y19.036Z-25.881
X-48.344Y18.658Z-25.81
X-48.357Y18.286Z-25.715
X-48.371Y17.92Z-25.596
X-48.384Y17.563Z-25.453
X-48.397Y17.216Z-25.288
X-48.411Y16.88Z-25.101
X-48.431Y16.401Z-24.78
X-48.448Y16.029Z-24.48
X-48.464Y15.682Z-24.151
X-48.481Y15.362Z-23.796
X-48.498Y15.073Z-23.416
X-48.514Y14.813Z-23.011
X-48.531Y14.586Z-22.586
X-48.548Y14.397Z-22.151
X-48.564Y14.243Z-21.701
X-48.58Y14.131Z-21.265
X-48.596Y14.052Z-20.821
X-48.608Y14.011Z-20.483
X-48.612Y13.97Z-20.376
X-48.628Y13.806Z-19.955
X-48.659Y13.441Z-19.133
X-50.Y-1.229Z16.355
Y-1.316Z16.565F1200.
Y-1.692Z17.424
Y-2.117Z18.297
Y-2.542Z19.097
Y-2.703Z19.375
G02X-50.Y-.598I0.J4.112
G01Y1.116Z29.863
Y2.802Z30.467
Y4.51Z31.123
Y6.202Z31.82
Y8.181Z32.697
Y9.602Z33.363
Y11.251Z34.186
G02X-50.Y16.401I0.J2.727
X-50.Y19.336I0.J-2.505
X-50.Y19.926I0.J-5.639
G01Y20.015Z28.413
Y20.277Z27.562
Y20.565Z26.724
Y20.884Z25.897
Y35.898Z-10.242
Y36.054Z-10.679
Y36.131Z-10.9
Y36.275Z-11.22
Y36.34Z-11.318
G02X-50.Y35.687I0.J-4.593
G01Y35.162Z-19.987
Y34.594Z-20.338
Y33.401Z-20.901
Y31.645Z-21.701
Y30.001Z-22.425
Y28.306Z-23.142
Y26.601Z-23.835
Y23.311Z-25.101
Y22.376Z-25.444
Y21.545Z-25.732
G02X-50.Y14.011I0.J-1.593
G01Y13.806Z-19.955
Y13.441Z-19.133
Y-1.229Z16.355
G00X5.
Y31.972Z-.039
X-48.98
G01X-49.98F840.
Y31.816Z-.416
X-50.352Y35.898Z-10.242
X-50.368Y36.054Z-10.679
X-50.376Y36.131Z-10.9
X-50.384Y36.226Z-11.113
X-50.388Y36.275Z-11.22
X-50.392Y36.34Z-11.318
X-50.4Y36.486Z-11.501
X-50.42Y36.8Z-11.956
X-50.433Y36.996Z-12.293
X-50.447Y37.169Z-12.642
X-50.461Y37.318Z-13.001
X-50.474Y37.444Z-13.37
X-50.488Y37.546Z-13.745
X-50.501Y37.623Z-14.127
X-50.515Y37.674Z-14.513
X-50.529Y37.701Z-14.901
X-50.544Y37.7Z-15.342
X-50.559Y37.666Z-15.782
X-50.575Y37.6Z-16.219
X-50.59Y37.502Z-16.649
X-50.606Y37.372Z-17.071
X-50.621Y37.211Z-17.481
X-50.636Y37.02Z-17.879
X-50.652Y36.8Z-18.262
X-50.653Y36.776Z-18.301
X-50.668Y36.538Z-18.647
X-50.683Y36.276Z-18.976
X-50.697Y35.992Z-19.286
X-50.712Y35.687Z-19.574
X-50.735Y35.162Z-19.987
X-50.759Y34.594Z-20.338
X-50.805Y33.401Z-20.901
X-50.872Y31.645Z-21.701
X-50.935Y30.001Z-22.425
X-50.999Y28.306Z-23.142
X-51.063Y26.601Z-23.835
X-51.187Y23.311Z-25.101
X-51.221Y22.376Z-25.444
X-51.252Y21.545Z-25.732
X-51.267Y21.117Z-25.834
X-51.283Y20.681Z-25.905
X-51.298Y20.242Z-25.943
X-51.314Y19.801Z-25.949
X-51.327Y19.417Z-25.927
X-51.34Y19.036Z-25.881
X-51.354Y18.658Z-25.81
X-51.367Y18.286Z-25.715
X-51.381Y17.92Z-25.596
X-51.394Y17.563Z-25.453
X-51.408Y17.216Z-25.288
X-51.421Y16.88Z-25.101
X-51.441Y16.401Z-24.78
X-51.458Y16.029Z-24.48
X-51.475Y15.682Z-24.151
X-51.491Y15.362Z-23.796
X-51.508Y15.073Z-23.416
X-51.525Y14.813Z-23.011
X-51.542Y14.586Z-22.586
X-51.558Y14.397Z-22.151
X-51.575Y14.243Z-21.701
X-51.59Y14.131Z-21.265
X-51.606Y14.052Z-20.821
X-51.618Y14.011Z-20.483
X-51.622Y13.97Z-20.376
X-51.638Y13.806Z-19.955
X-51.669Y13.441Z-19.133
X-53.Y-1.117Z16.084
Y-1.316Z16.565F1200.
Y-1.692Z17.424
Y-2.117Z18.297
Y-2.542Z19.097
Y-2.703Z19.375
G02X-53.Y-.598I0.J4.112
G01Y1.116Z29.863
Y2.802Z30.467
Y4.51Z31.123
Y6.202Z31.82
Y8.181Z32.697
Y9.602Z33.363
Y11.251Z34.186
G02X-53.Y16.401I0.J2.727
X-53.Y19.336I0.J-2.505
X-53.Y19.926I0.J-5.639
G01Y20.015Z28.413
Y20.277Z27.562
Y20.565Z26.724
Y20.884Z25.897
Y35.898Z-10.242
Y36.054Z-10.679
Y36.131Z-10.9
Y36.275Z-11.22
Y36.34Z-11.318
G02X-53.Y35.687I0.J-4.593
G01Y35.162Z-19.987
Y34.594Z-20.338
Y33.401Z-20.901
Y31.645Z-21.701
Y30.001Z-22.425
Y28.306Z-23.142
Y26.601Z-23.835
Y23.311Z-25.101
Y22.376Z-25.444
Y21.545Z-25.732
G02X-53.Y14.011I0.J-1.593
G01Y13.806Z-19.955
Y13.441Z-19.133
Y-1.117Z16.084
G00X5.
Y-9.098Z21.222
X-48.98
G01X-49.98F840.
X-53.
Y-9.747Z20.734F1200.
Y-11.045Z19.757
Y-11.349Z19.485
Y-11.602Z19.165
Y-11.798Z18.807
Y-11.93Z18.421
Y-11.973Z18.246
Y-12.262Z17.426
Y-12.357Z16.563
Y-12.42Z15.698
Y-12.456Z14.848
Y-12.459Z13.998
Y-12.414Z-24.251
Y-12.436Z-25.101
Y-12.454Z-25.315
Y-12.449Z-25.53
Y-12.442Z-25.747
G02X-53.Y-17.597I0.J-5.676
G01Y-20.997Z-33.624
Y-22.697Z-33.659
Y-24.397Z-33.672
Y-27.797Z-33.63
Y-31.197Z-33.512
G02X-53.Y-36.558I0.J.314
G01Y-36.551Z-25.53
Y-36.546Z-25.315
Y-36.562Z-25.101
Y-36.583Z-24.251
Y-36.541Z13.998
Y-36.544Z14.848
Y-36.58Z15.698
Y-36.643Z16.563
Y-36.738Z17.426
Y-37.039Z18.291
G02X-53.Y-31.197I0.J5.736
G01Y-29.498Z25.724
Y-27.797Z25.634
Y-26.097Z25.581
Y-24.397Z25.566
Y-22.697Z25.587
Y-20.997Z25.645
Y-19.297Z25.74
Y-18.448Z25.798
Y-17.597Z25.838
G02X-53.Y-11.93I0.J-.102
G01X-52.863Y-11.963Z18.045
X-52.725Y-11.937Z17.668
X-52.588Y-11.852Z17.3
X-52.45Y-11.71Z16.949
X-52.313Y-11.516Z16.626
Y-8.673Z21.647
X-52.98F840.
X-56.
Y-9.501Z20.962F1200.
Y-11.156Z19.591
Y-11.429Z19.326
Y-11.656Z19.021
Y-11.833Z18.684
Y-11.954Z18.324
Y-11.973Z18.246
Y-12.262Z17.426
Y-12.357Z16.563
Y-12.42Z15.698
Y-12.456Z14.848
Y-12.459Z13.998
Y-12.414Z-24.251
Y-12.436Z-25.101
Y-12.454Z-25.315
Y-12.449Z-25.53
Y-12.442Z-25.747
G02X-56.Y-17.597I0.J-5.676
G01Y-20.997Z-33.624
Y-22.697Z-33.659
Y-24.397Z-33.672
Y-27.797Z-33.63
Y-31.197Z-33.512
G02X-56.Y-36.558I0.J.314
G01Y-36.551Z-25.53
Y-36.546Z-25.315
Y-36.562Z-25.101
Y-36.583Z-24.251
Y-36.541Z13.998
Y-36.544Z14.848
Y-36.58Z15.698
Y-36.643Z16.563
Y-36.738Z17.426
Y-37.039Z18.291
G02X-56.Y-31.197I0.J5.736
G01Y-29.498Z25.724
Y-27.797Z25.634
Y-26.097Z25.581
Y-24.397Z25.566
Y-22.697Z25.587
Y-20.997Z25.645
Y-19.297Z25.74
Y-18.448Z25.798
Y-17.597Z25.838
G02X-56.Y-11.954I0.J-.103
G01X-55.863Y-11.987Z17.948
X-55.725Y-11.961Z17.571
X-55.588Y-11.876Z17.203
X-55.45Y-11.735Z16.852
X-55.313Y-11.54Z16.529
G00X5.
Y34.101Z-5.931
X-51.98
G01X-52.98F840.
Y34.108Z-5.934
X-53.143Y35.898Z-10.242
X-53.159Y36.054Z-10.679
X-53.167Y36.131Z-10.9
X-53.175Y36.226Z-11.113
X-53.18Y36.275Z-11.22
X-53.184Y36.34Z-11.318
X-53.192Y36.486Z-11.501
X-53.211Y36.8Z-11.956
X-53.225Y36.996Z-12.293
X-53.238Y37.169Z-12.642
X-53.252Y37.318Z-13.001
X-53.266Y37.444Z-13.37
X-53.279Y37.546Z-13.745
X-53.293Y37.623Z-14.127
X-53.306Y37.674Z-14.513
X-53.32Y37.701Z-14.901
X-53.335Y37.7Z-15.342
X-53.351Y37.666Z-15.782
X-53.366Y37.6Z-16.219
X-53.382Y37.502Z-16.649
X-53.397Y37.372Z-17.071
X-53.412Y37.211Z-17.481
X-53.428Y37.02Z-17.879
X-53.443Y36.8Z-18.262
X-53.445Y36.776Z-18.301
X-53.459Y36.538Z-18.647
X-53.474Y36.276Z-18.976
X-53.489Y35.992Z-19.286
X-53.503Y35.687Z-19.574
X-53.527Y35.162Z-19.987
X-53.55Y34.594Z-20.338
X-53.596Y33.401Z-20.901
X-53.664Y31.645Z-21.701
X-53.726Y30.001Z-22.425
X-53.791Y28.306Z-23.142
X-53.855Y26.601Z-23.835
X-53.978Y23.311Z-25.101
X-54.013Y22.376Z-25.444
X-54.043Y21.545Z-25.732
X-54.059Y21.117Z-25.834
X-54.074Y20.681Z-25.905
X-54.09Y20.242Z-25.943
X-54.105Y19.801Z-25.949
X-54.118Y19.417Z-25.927
X-54.132Y19.036Z-25.881
X-54.145Y18.658Z-25.81
X-54.159Y18.286Z-25.715
X-54.172Y17.92Z-25.596
X-54.186Y17.563Z-25.453
X-54.199Y17.216Z-25.288
X-54.212Y16.88Z-25.101
X-54.232Y16.401Z-24.78
X-54.249Y16.029Z-24.48
X-54.266Y15.682Z-24.151
X-54.283Y15.362Z-23.796
X-54.299Y15.073Z-23.416
X-54.316Y14.813Z-23.011
X-54.333Y14.586Z-22.586
X-54.349Y14.397Z-22.151
X-54.366Y14.243Z-21.701
X-54.382Y14.131Z-21.265
X-54.398Y14.052Z-20.821
X-54.409Y14.011Z-20.483
X-54.413Y13.97Z-20.376
X-54.429Y13.806Z-19.955
X-54.461Y13.441Z-19.133
X-55.81Y-1.316Z16.565
X-55.842Y-1.692Z17.424
X-55.876Y-2.117Z18.297
X-55.908Y-2.542Z19.097
X-55.919Y-2.703Z19.375
X-55.93Y-2.929Z19.603
X-55.952Y-3.341Z20.089
X-55.975Y-3.699Z20.617
X-55.997Y-3.998Z21.18
X-56.Y-4.029Z21.259
Y-4.253Z21.826F1200.
G02X-56.Y-3.998I0.J5.765
X-56.Y-.598I0.J5.428
G01Y1.116Z29.863
Y2.802Z30.467
Y4.51Z31.123
Y6.202Z31.82
Y8.181Z32.697
Y9.602Z33.363
Y11.251Z34.186
G02X-56.Y16.401I0.J2.727
X-56.Y19.336I0.J-2.505
X-56.Y19.926I0.J-5.639
G01Y20.015Z28.413
Y20.277Z27.562
Y20.565Z26.724
Y20.884Z25.897
Y35.898Z-10.242
Y36.054Z-10.679
Y36.131Z-10.9
Y36.275Z-11.22
Y36.34Z-11.318
G02X-56.Y35.687I0.J-4.593
G01Y35.162Z-19.987
Y34.594Z-20.338
Y33.401Z-20.901
Y31.645Z-21.701
Y30.001Z-22.425
Y28.306Z-23.142
Y26.601Z-23.835
Y23.311Z-25.101
Y22.376Z-25.444
Y21.545Z-25.732
G02X-56.Y14.011I0.J-1.593
G01Y13.806Z-19.955
Y13.441Z-19.133
Y-1.316Z16.565
Y-1.692Z17.424
Y-2.117Z18.297
Y-2.542Z19.097
Y-2.703Z19.375
Y-2.929Z19.603
Y-3.341Z20.089
Y-3.699Z20.617
Y-3.998Z21.18
Y-4.029Z21.259
G00X5.
Y32.126Z37.372
X-54.98
G01X-55.98F840.
X-59.
Y32.31Z37.188F1200.
Y32.54Z36.924
Y32.729Z36.63
Y32.873Z36.311
Y33.443Z34.755
Y33.51Z34.561
Y33.568Z34.365
Y33.618Z34.166
Y33.994Z32.511
Y34.041Z32.273
Y34.077Z32.032
Y34.125Z31.645
Y34.311Z31.115
Y34.744Z30.07
Y38.212Z21.709
X-55.98
Y26.176Z37.797
X-59.F840.
Y26.735Z37.498F1200.
Y26.881Z37.406
Y27.012Z37.294
Y27.126Z37.165
Y27.22Z37.021
G02X-59.Y29.275I0.J-16.32
G01Y29.313Z31.448
Y29.343Z31.264
Y29.367Z31.078
Y29.423Z30.545
Y29.826Z29.399
Y38.22Z9.162
G00X5.
Y20.226Z37.372
X-54.98
G01X-55.98F840.
X-59.
Y20.434Z37.297F1200.
Y20.728Z37.169
Y21.003Z37.002
Y21.252Z36.8
G02X-59.Y24.306I0.J-7.327
G01Y24.422Z31.415
Y24.475Z31.206
G03X-59.Y25.341I0.J13.592
G01Y38.21Z-3.295
G00X5.
Y9.177Z-37.425
X-54.98
G01X-55.98F840.
X-59.
Y8.819Z-37.07F1200.
Y8.507Z-36.808
G02X-59.Y3.635I0.J12.986
G01Y3.497Z-31.973
Y3.369Z-31.784
Y2.384Z-30.262
Y2.292Z-30.113
Y2.205Z-29.961
Y2.102Z-29.763
G02X-59.Y.107I0.J-21.358
G00X5.Z-36.564
Y39.35Z-28.076
X-54.98
G01X-55.98F840.
X-59.
Y38.998Z-28.642F1200.
Y38.895Z-28.784
Y38.772Z-28.909
Y38.633Z-29.015
Y38.479Z-29.1
Y33.935Z-31.181
Y33.775Z-31.251
Y31.968Z-32.
Y31.065Z-32.374
Y30.162Z-32.749
Y30.002Z-32.812
Y24.715Z-34.786
Y24.547Z-34.845
Y24.377Z-34.898
Y24.205Z-34.945
Y24.031Z-34.985
Y22.224Z-35.368
Y22.043Z-35.403
Y21.861Z-35.431
Y21.678Z-35.452
Y21.494Z-35.465
G02X-59.Y16.763I0.J-1.191
G01Y16.597Z-35.18
Y16.433Z-35.144
Y16.27Z-35.102
G02X-59.Y5.877I0.J3.738
G01Y5.801Z-26.45
Y5.73Z-26.291
Y5.666Z-26.129
Y5.155Z-24.774
Y5.083Z-24.568
Y5.02Z-24.359
Y4.966Z-24.147
Y4.748Z-23.186
Y-2.848Z-4.836
Y-2.837Z-24.746
G02X-59.Y-2.685I0.J-20.866
G01Y-2.703Z-29.655
Y-2.729Z-29.84
Y-2.761Z-30.023
G02X-59.Y-4.359I0.J-20.815
G01Y-4.437Z-34.96
Y-4.52Z-35.114
Y-4.61Z-35.265
Y-5.194Z-36.21
Y-5.289Z-36.358
Y-5.39Z-36.503
Y-5.496Z-36.644
G00X5.
Y38.925Z-22.551
X-54.98
G01X-55.98F840.
X-59.
G02X-59.Y38.585I0.J-2.007F1200.
G01Y38.444Z-23.512
G02X-59.Y32.814I0.J-16.501
G01Y31.936Z-26.817
Y30.109Z-27.59
Y28.323Z-28.315
Y24.964Z-29.606
Y23.927Z-29.987
Y23.675Z-30.074
Y23.036Z-30.289
Y22.815Z-30.358
Y22.591Z-30.416
Y22.166Z-30.515
Y21.996Z-30.552
Y21.824Z-30.582
Y21.399Z-30.649
Y21.228Z-30.673
Y21.056Z-30.69
Y20.627Z-30.727
Y20.46Z-30.738
Y20.288Z-30.743
Y19.862Z-30.749
Y19.681Z-30.748
Y19.5Z-30.74
Y19.075Z-30.713
Y18.904Z-30.699
Y18.734Z-30.679
Y18.309Z-30.622
Y18.139Z-30.596
Y17.969Z-30.563
Y17.544Z-30.475
Y17.374Z-30.436
Y17.206Z-30.391
Y16.781Z-30.269
Y16.615Z-30.219
Y16.45Z-30.162
Y15.982Z-29.989
Y15.825Z-29.927
Y15.671Z-29.859
Y15.246Z-29.664
Y15.074Z-29.58
Y14.905Z-29.49
Y14.48Z-29.252
Y14.3Z-29.146
Y14.125Z-29.032
Y13.7Z-28.743
Y13.481Z-28.584
Y13.351Z-28.485
Y13.174Z-28.342
Y12.879Z-28.093
Y12.705Z-27.939
Y12.516Z-27.763
Y12.336Z-27.586
Y12.099Z-27.341
Y11.93Z-27.157
Y11.773Z-26.977
Y11.627Z-26.8
Y11.359Z-26.46
Y11.238Z-26.3
Y11.176Z-26.215
Y11.088Z-26.089
Y11.005Z-25.961
Y10.737Z-25.536
Y10.588Z-25.284
Y10.434Z-25.
Y10.305Z-24.748
Y10.228Z-24.593
Y10.157Z-24.435
Y9.976Z-24.01
Y9.912Z-23.852
Y9.853Z-23.692
Y9.707Z-23.267
Y9.646Z-23.081
Y9.594Z-22.892
Y9.485Z-22.467
Y9.446Z-22.304
Y9.413Z-22.14
Y9.338Z-21.725
Y9.055Z-21.084
Y8.837Z-20.56
Y-5.727Z14.668
Y-6.045Z15.396
Y-6.377Z16.081
Y-6.621Z16.543
Y-6.824Z16.775
Y-6.994Z16.98
Y-7.087Z17.103
Y-7.256Z17.333
Y-7.317Z17.089
Y-7.374Z16.881
Y-7.439Z16.677
Y-7.549Z16.359
Y-7.578Z16.106
Y-7.627Z15.421
Y-7.657Z14.739
Y-7.658Z13.994
Y-7.614Z-24.245
Y-7.616Z-24.383
Y-7.637Z-25.159
Y-7.579Z-25.412
Y-7.549Z-25.577
Y-7.477Z-26.002
Y-7.451Z-26.173
Y-7.431Z-26.345
Y-7.391Z-26.77
Y-7.378Z-26.943
Y-7.371Z-27.116
Y-7.361Z-27.541
Y-7.36Z-27.716
Y-7.366Z-27.891
Y-7.387Z-28.316
Y-7.399Z-28.49
Y-7.417Z-28.663
Y-7.469Z-29.088
Y-7.494Z-29.259
Y-7.524Z-29.429
Y-7.608Z-29.853
Y-7.647Z-30.033
Y-7.692Z-30.211
Y-7.81Z-30.636
Y-7.86Z-30.803
Y-7.916Z-30.967
Y-8.068Z-31.392
Y-8.133Z-31.564
Y-8.204Z-31.733
Y-8.394Z-32.158
Y-8.468Z-32.315
Y-8.547Z-32.47
Y-8.738Z-32.824
Y-8.824Z-32.977
Y-8.909Z-33.121
Y-8.998Z-33.262
Y-9.277Z-33.687
Y-9.45Z-33.933
Y-9.509Z-34.012
Y-9.599Z-34.128
Y-9.876Z-34.474
Y-10.071Z-34.702
Y-10.219Z-34.866
Y-10.381Z-35.036
Y-10.643Z-35.297
Y-10.8Z-35.447
Y-10.963Z-35.596
Y-11.173Z-35.777
Y-11.514Z-36.053
Y-11.654Z-36.163
Y-11.865Z-36.317
Y-11.994Z-36.405
Y-12.419Z-36.683
G00X5.
Y-37.572Z34.397
X-54.98
G01X-55.98F840.
X-59.
Y-36.61Z34.533F1200.
Y-36.217Z34.623
G02X-59.Y-31.582I0.J6.009
G01Y-31.406Z35.436
Y-31.23Z35.437
Y-31.055Z35.431
Y-30.021Z35.381
Y-25.884Z35.181
Y-22.929Z35.186
Y-17.813Z35.433
Y-17.583Z35.438
Y-17.354Z35.433
Y-17.125Z35.416
G02X-59.Y-11.909I0.J-1.286
G01Y-11.721Z34.241
Y-10.969Z33.905
Y-10.767Z33.809
Y-10.51Z33.67
G02X-59.Y-7.106I0.J18.275
G00X5.Z36.696
Y-38.847Z27.172
X-54.98
G01X-55.98F840.
X-59.
Y-38.688Z27.546F1200.
Y-38.605Z27.706
Y-38.499Z27.852
Y-38.373Z27.98
G02X-59.Y-32.821I0.J7.116
G01Y-32.651Z30.553
Y-32.48Z30.572
Y-32.055Z30.61
Y-31.884Z30.623
Y-31.712Z30.629
Y-31.287Z30.637
Y-31.081
Y-30.876Z30.627
Y-29.21Z30.515
Y-27.596Z30.43
Y-26.001Z30.381
Y-24.405Z30.366
Y-22.809Z30.386
Y-21.213Z30.441
Y-19.594Z30.531
Y-18.675Z30.593
Y-17.825Z30.633
Y-17.581Z30.638
Y-17.338Z30.631
Y-16.913Z30.608
Y-16.742Z30.596
Y-16.572Z30.578
Y-16.148Z30.524
Y-15.977Z30.499
Y-15.807Z30.469
Y-15.382Z30.384
Y-15.211Z30.346
Y-15.041Z30.303
Y-14.616Z30.185
Y-14.442Z30.133
Y-14.27Z30.075
Y-13.845Z29.922
Y-13.679Z29.858
Y-13.515Z29.789
Y-13.09Z29.599
Y-12.926Z29.522
Y-12.765Z29.439
Y-12.453Z29.27
Y-12.332Z29.202
Y-12.22Z29.137
Y-11.976Z28.987
Y-11.551Z28.706
Y-11.329Z28.55
Y-11.222Z28.471
Y-11.05Z28.336
Y-10.731Z28.075
Y-10.514Z27.885
Y-10.337Z27.722
Y-10.188Z27.578
Y-9.941Z27.329
Y-9.795Z27.176
Y-9.636Z27.001
Y-9.515Z26.863
Y-9.4Z26.72
Y-9.134Z26.379
Y-9.038Z26.251
Y-8.902Z26.751
Y-8.852Z26.918
Y-8.797Z27.083
Y-8.645Z27.508
Y-8.579Z27.683
Y-8.506Z27.856
Y-8.38Z28.137
Y-8.271Z28.37
Y-8.144Z28.621
Y-7.912Z29.046
Y-7.829Z29.192
Y-7.741Z29.336
Y-7.615Z29.531
Y-7.536Z29.651
Y-7.38Z29.88
Y-7.29Z30.006
Y-7.197Z30.13
Y-6.928Z30.473
Y-6.801Z30.629
Y-6.731Z30.711
Y-6.555Z30.907
Y-6.2Z31.28
Y-6.018Z31.46
Y-5.963Z31.512
Y-5.803Z31.657
Y-5.433Z31.976
Y-5.198Z32.166
Y-5.059Z32.272
Y-4.922Z32.371
Y-4.637Z32.572
Y-4.493Z32.67
Y-4.346Z32.762
Y-3.921Z33.017
Y-3.76Z33.11
Y-3.595Z33.196
Y-3.17Z33.409
Y-3.014Z33.484
Y-2.855Z33.553
Y-2.43Z33.728
Y-2.275Z33.789
Y-2.119Z33.844
Y-.468Z34.396
Y1.132Z34.968
Y2.728Z35.582
Y4.316Z36.235
Y5.291Z36.666
G00X5.
Y11.899Z-27.121
X-54.98
G01X-55.98F840.
X-59.
Y12.56Z-26.682F1200.
Y13.141Z-26.141
Y13.625Z-25.512
Y13.999Z-24.812
Y14.253Z-24.06
Y14.38Z-23.277
Y14.377Z-22.483
Y14.243Z-21.701
Y14.131Z-21.265
Y14.052Z-20.821
Y14.011Z-20.483
Y13.806Z-19.955
Y13.441Z-19.133
Y-1.316Z16.565
Y-1.692Z17.424
Y-2.117Z18.297
Y-2.542Z19.097
Y-2.703Z19.375
G02X-59.Y-.598I0.J4.112
G01Y1.116Z29.863
Y2.802Z30.467
Y4.51Z31.123
Y6.202Z31.82
Y8.181Z32.697
Y9.602Z33.363
Y11.251Z34.186
G02X-59.Y16.401I0.J2.727
X-59.Y19.336I0.J-2.505
X-59.Y19.926I0.J-5.639
G01Y20.015Z28.413
Y20.277Z27.562
Y20.565Z26.724
Y20.884Z25.897
Y35.898Z-10.242
Y36.054Z-10.679
Y36.131Z-10.9
Y36.275Z-11.22
Y36.34Z-11.318
G02X-59.Y35.687I0.J-4.593
G01Y35.162Z-19.987
Y34.594Z-20.338
Y33.401Z-20.901
Y31.645Z-21.701
Y30.001Z-22.425
Y28.306Z-23.142
Y26.601Z-23.835
Y23.311Z-25.101
Y22.376Z-25.444
Y21.545Z-25.732
G02X-59.Y14.243I0.J-1.594
G03X-59.Y13.019I0.J-.911
G01Y-12.334Z-29.926
Y-12.459Z-29.98
Y-12.575Z-30.05
Y-12.68Z-30.137
Y-12.771Z-30.237
Y-12.848Z-30.35
Y-13.094Z-30.773
G02X-59.Y-17.597I0.J-5.027
G01Y-20.997Z-33.624
Y-22.697Z-33.659
Y-24.397Z-33.672
Y-27.797Z-33.63
Y-31.197Z-33.512
G02X-59.Y-36.558I0.J.314
G01Y-36.551Z-25.53
Y-36.546Z-25.315
Y-36.562Z-25.101
Y-36.583Z-24.251
Y-36.541Z13.998
Y-36.544Z14.848
Y-36.58Z15.698
Y-36.643Z16.563
Y-36.738Z17.426
Y-37.039Z18.291
G02X-59.Y-31.197I0.J5.736
G01Y-29.498Z25.724
Y-27.797Z25.634
Y-26.097Z25.581
Y-24.397Z25.566
Y-22.697Z25.587
Y-20.997Z25.645
Y-19.297Z25.74
Y-18.448Z25.798
Y-17.597Z25.838
G02X-59.Y-11.973I0.J-.105
G01Y-12.262Z17.426
Y-12.357Z16.563
Y-12.42Z15.698
Y-12.456Z14.848
Y-12.459Z13.998
Y-12.414Z-24.251
Y-12.436Z-25.101
Y-12.454Z-25.315
Y-12.449Z-25.53
Y-12.442Z-25.747
G02X-59.Y-12.848I0.J-5.716
G01X-58.863Y-12.955Z-30.712
X-58.725Y-13.005Z-31.086
X-58.588Y-12.995Z-31.464
X-58.45Y-12.926Z-31.836
X-58.313Y-12.8Z-32.192
X-56.03
Y9.177Z-37.425
X-59.05F840.
Y8.819Z-37.07F1200.
Y8.507Z-36.808
G02X-59.05Y3.635I0.J12.986
G01Y3.497Z-31.973
Y3.369Z-31.784
Y2.384Z-30.262
Y2.292Z-30.113
Y2.205Z-29.961
Y2.102Z-29.763
G02X-59.05Y.107I0.J-21.358
G00X5.Z-36.564
Y39.35Z-28.076
X-55.03
G01X-56.03F840.
X-59.05
Y38.998Z-28.642F1200.
Y38.895Z-28.784
Y38.772Z-28.909
Y38.633Z-29.015
Y38.479Z-29.1
Y33.935Z-31.181
Y33.775Z-31.251
Y31.968Z-32.
Y31.065Z-32.374
Y30.162Z-32.749
Y30.002Z-32.812
Y24.715Z-34.786
Y24.547Z-34.845
Y24.377Z-34.898
Y24.205Z-34.945
Y24.031Z-34.985
Y22.224Z-35.368
Y22.043Z-35.403
Y21.861Z-35.431
Y21.678Z-35.452
Y21.494Z-35.465
G02X-59.05Y16.763I0.J-1.191
G01Y16.597Z-35.18
Y16.433Z-35.144
Y16.27Z-35.102
G02X-59.05Y5.877I0.J3.738
G01Y5.801Z-26.45
Y5.73Z-26.291
Y5.666Z-26.129
Y5.155Z-24.774
Y5.083Z-24.568
Y5.02Z-24.359
Y4.966Z-24.147
Y4.748Z-23.186
Y-2.848Z-4.836
Y-2.837Z-24.746
G02X-59.05Y-2.685I0.J-20.866
G01Y-2.703Z-29.655
Y-2.729Z-29.84
Y-2.761Z-30.023
G02X-59.05Y-4.359I0.J-20.815
G01Y-4.437Z-34.96
Y-4.52Z-35.114
Y-4.61Z-35.265
Y-5.194Z-36.21
Y-5.289Z-36.358
Y-5.39Z-36.503
Y-5.496Z-36.644
G00X5.
Y38.925Z-22.551
X-55.03
G01X-56.03F840.
X-59.05
G02X-59.05Y38.585I0.J-2.007F1200.
G01Y38.444Z-23.512
G02X-59.05Y32.814I0.J-16.501
G01Y31.936Z-26.817
Y30.109Z-27.59
Y28.323Z-28.315
Y24.964Z-29.606
Y23.927Z-29.987
Y23.675Z-30.074
Y23.036Z-30.289
Y22.815Z-30.358
Y22.591Z-30.416
Y22.166Z-30.515
Y21.996Z-30.552
Y21.824Z-30.582
Y21.399Z-30.649
Y21.228Z-30.673
Y21.056Z-30.69
Y20.627Z-30.727
Y20.46Z-30.738
Y20.288Z-30.743
Y19.862Z-30.749
Y19.681Z-30.748
Y19.5Z-30.74
Y19.075Z-30.713
Y18.904Z-30.699
Y18.734Z-30.679
Y18.309Z-30.622
Y18.139Z-30.596
Y17.969Z-30.563
Y17.544Z-30.475
Y17.374Z-30.436
Y17.206Z-30.391
Y16.781Z-30.269
Y16.615Z-30.219
Y16.45Z-30.162
Y15.982Z-29.989
Y15.825Z-29.927
Y15.671Z-29.859
Y15.246Z-29.664
Y15.074Z-29.58
Y14.905Z-29.49
Y14.48Z-29.252
Y14.3Z-29.146
Y14.125Z-29.032
Y13.7Z-28.743
Y13.481Z-28.584
Y13.351Z-28.485
Y13.174Z-28.342
Y12.879Z-28.093
Y12.705Z-27.939
Y12.516Z-27.763
Y12.336Z-27.586
Y12.099Z-27.341
Y11.93Z-27.157
Y11.773Z-26.977
Y11.627Z-26.8
Y11.359Z-26.46
Y11.238Z-26.3
Y11.176Z-26.215
Y11.088Z-26.089
Y11.005Z-25.961
Y10.737Z-25.536
Y10.588Z-25.284
Y10.434Z-25.
Y10.305Z-24.748
Y10.228Z-24.593
Y10.157Z-24.435
Y9.976Z-24.01
Y9.912Z-23.852
Y9.853Z-23.692
Y9.707Z-23.267
Y9.646Z-23.081
Y9.594Z-22.892
Y9.485Z-22.467
Y9.446Z-22.304
Y9.413Z-22.14
Y9.338Z-21.725
Y9.055Z-21.084
Y8.837Z-20.56
Y-5.727Z14.668
Y-6.045Z15.396
Y-6.377Z16.081
Y-6.621Z16.543
Y-6.824Z16.775
Y-6.994Z16.98
Y-7.087Z17.103
Y-7.256Z17.333
Y-7.317Z17.089
Y-7.374Z16.881
Y-7.439Z16.677
Y-7.549Z16.359
Y-7.578Z16.106
Y-7.627Z15.421
Y-7.657Z14.739
Y-7.658Z13.994
Y-7.614Z-24.245
Y-7.616Z-24.383
Y-7.637Z-25.159
Y-7.579Z-25.412
Y-7.549Z-25.577
Y-7.477Z-26.002
Y-7.451Z-26.173
Y-7.431Z-26.345
Y-7.391Z-26.77
Y-7.378Z-26.943
Y-7.371Z-27.116
Y-7.361Z-27.541
Y-7.36Z-27.716
Y-7.366Z-27.891
Y-7.387Z-28.316
Y-7.399Z-28.49
Y-7.417Z-28.663
Y-7.469Z-29.088
Y-7.494Z-29.259
Y-7.524Z-29.429
Y-7.608Z-29.853
Y-7.647Z-30.033
Y-7.692Z-30.211
Y-7.81Z-30.636
Y-7.86Z-30.803
Y-7.916Z-30.967
Y-8.068Z-31.392
Y-8.133Z-31.564
Y-8.204Z-31.733
Y-8.394Z-32.158
Y-8.468Z-32.315
Y-8.547Z-32.47
Y-8.738Z-32.824
Y-8.824Z-32.977
Y-8.909Z-33.121
Y-8.998Z-33.262
Y-9.277Z-33.687
Y-9.45Z-33.933
Y-9.509Z-34.012
Y-9.599Z-34.128
Y-9.876Z-34.474
Y-10.071Z-34.702
Y-10.219Z-34.866
Y-10.381Z-35.036
Y-10.643Z-35.297
Y-10.8Z-35.447
Y-10.963Z-35.596
Y-11.173Z-35.777
Y-11.514Z-36.053
Y-11.654Z-36.163
Y-11.865Z-36.317
Y-11.994Z-36.405
Y-12.419Z-36.683
G00X5.
Y-37.572Z34.397
X-55.03
G01X-56.03F840.
X-59.05
Y-36.61Z34.533F1200.
Y-36.217Z34.623
G02X-59.05Y-31.582I0.J6.009
G01Y-31.406Z35.436
Y-31.23Z35.437
Y-31.055Z35.431
Y-30.021Z35.381
Y-25.884Z35.181
Y-22.929Z35.186
Y-17.813Z35.433
Y-17.583Z35.438
Y-17.354Z35.433
Y-17.125Z35.416
G02X-59.05Y-11.909I0.J-1.286
G01Y-11.721Z34.241
Y-10.969Z33.905
Y-10.767Z33.809
Y-10.51Z33.67
G02X-59.05Y-7.106I0.J18.275
G00X5.Z36.696
Y-38.847Z27.172
X-55.03
G01X-56.03F840.
X-59.05
Y-38.688Z27.546F1200.
Y-38.605Z27.706
Y-38.499Z27.852
Y-38.373Z27.98
G02X-59.05Y-32.821I0.J7.116
G01Y-32.651Z30.553
Y-32.48Z30.572
Y-32.055Z30.61
Y-31.884Z30.623
Y-31.712Z30.629
Y-31.287Z30.637
Y-31.081
Y-30.876Z30.627
Y-29.21Z30.515
Y-27.596Z30.43
Y-26.001Z30.381
Y-24.405Z30.366
Y-22.809Z30.386
Y-21.213Z30.441
Y-19.594Z30.531
Y-18.675Z30.593
Y-17.825Z30.633
Y-17.581Z30.638
Y-17.338Z30.631
Y-16.913Z30.608
Y-16.742Z30.596
Y-16.572Z30.578
Y-16.148Z30.524
Y-15.977Z30.499
Y-15.807Z30.469
Y-15.382Z30.384
Y-15.211Z30.346
Y-15.041Z30.303
Y-14.616Z30.185
Y-14.442Z30.133
Y-14.27Z30.075
Y-13.845Z29.922
Y-13.679Z29.858
Y-13.515Z29.789
Y-13.09Z29.599
Y-12.926Z29.522
Y-12.765Z29.439
Y-12.453Z29.27
Y-12.332Z29.202
Y-12.219Z29.137
Y-11.976Z28.987
Y-11.551Z28.706
Y-11.329Z28.55
Y-11.222Z28.471
Y-11.05Z28.336
Y-10.731Z28.075
Y-10.514Z27.885
Y-10.337Z27.722
Y-10.188Z27.578
Y-9.941Z27.329
Y-9.795Z27.176
Y-9.636Z27.001
Y-9.515Z26.863
Y-9.4Z26.72
Y-9.134Z26.379
Y-9.038Z26.251
Y-8.902Z26.751
Y-8.852Z26.918
Y-8.797Z27.083
Y-8.645Z27.508
Y-8.579Z27.683
Y-8.506Z27.856
Y-8.38Z28.137
Y-8.271Z28.37
Y-8.144Z28.621
Y-7.912Z29.046
Y-7.829Z29.192
Y-7.741Z29.336
Y-7.615Z29.531
Y-7.536Z29.651
Y-7.38Z29.88
Y-7.29Z30.006
Y-7.197Z30.13
Y-6.928Z30.473
Y-6.801Z30.629
Y-6.731Z30.711
Y-6.555Z30.907
Y-6.2Z31.28
Y-6.018Z31.46
Y-5.963Z31.512
Y-5.803Z31.657
Y-5.433Z31.976
Y-5.198Z32.166
Y-5.059Z32.272
Y-4.922Z32.371
Y-4.637Z32.572
Y-4.493Z32.67
Y-4.346Z32.762
Y-3.921Z33.017
Y-3.76Z33.11
Y-3.595Z33.196
Y-3.17Z33.409
Y-3.014Z33.484
Y-2.855Z33.553
Y-2.43Z33.728
Y-2.275Z33.789
Y-2.119Z33.844
Y-.468Z34.396
Y1.132Z34.968
Y2.728Z35.582
Y4.316Z36.235
Y5.291Z36.666
X-56.03
Y-11.484Z28.659
X-59.05F840.
Y-12.041Z28.069F1200.
Y-12.49Z27.394
Y-12.82Z26.653
Y-13.02Z25.867
Y-13.085Z25.058
Y-13.014Z24.25
Y-12.808Z23.466
Y-12.473Z22.727
Y-12.344Z22.497
G02X-59.05Y-11.973I0.J-5.379
G01Y-12.262Z17.426
Y-12.357Z16.563
Y-12.42Z15.698
Y-12.456Z14.848
Y-12.459Z13.998
Y-12.414Z-24.251
Y-12.436Z-25.101
Y-12.454Z-25.315
Y-12.449Z-25.53
Y-12.442Z-25.747
G02X-59.05Y-17.597I0.J-5.676
G01Y-20.997Z-33.624
Y-22.697Z-33.659
Y-24.397Z-33.672
Y-27.797Z-33.63
Y-31.197Z-33.512
G02X-59.05Y-36.558I0.J.314
G01Y-36.551Z-25.53
Y-36.546Z-25.315
Y-36.562Z-25.101
Y-36.583Z-24.251
Y-36.541Z13.998
Y-36.544Z14.848
Y-36.58Z15.698
Y-36.643Z16.563
Y-36.738Z17.426
Y-37.039Z18.291
G02X-59.05Y-31.197I0.J5.736
G01Y-29.498Z25.724
Y-27.797Z25.634
Y-26.097Z25.581
Y-24.397Z25.566
Y-22.697Z25.587
Y-20.997Z25.645
Y-19.297Z25.74
Y-18.448Z25.798
Y-17.597Z25.838
G02X-59.05Y-12.473I0.J-.084
G01X-58.913Y-12.239Z22.43
X-58.775Y-11.962Z22.174
X-58.638Y-11.648Z21.964
X-58.5Y-11.305Z21.806
X-58.363Y-10.941Z21.703
G00X5.
Y32.126Z37.372
X-55.03
G01X-56.03F840.
X-59.05
Y32.31Z37.188F1200.
Y32.54Z36.924
Y32.729Z36.63
Y32.873Z36.311
Y33.443Z34.755
Y33.51Z34.561
Y33.568Z34.365
Y33.618Z34.166
Y33.994Z32.511
Y34.041Z32.273
Y34.077Z32.032
Y34.125Z31.645
Y34.311Z31.115
Y34.739Z30.082
Y38.168Z21.816
X-56.03
Y26.176Z37.797
X-59.05F840.
Y26.735Z37.498F1200.
Y26.881Z37.406
Y27.012Z37.294
Y27.126Z37.165
Y27.22Z37.021
G02X-59.05Y29.275I0.J-16.32
G01Y29.313Z31.448
Y29.343Z31.264
Y29.367Z31.078
Y29.423Z30.545
Y29.826Z29.399
Y38.171Z9.282
G00X5.
Y20.226Z37.372
X-55.03
G01X-56.03F840.
X-59.05
Y20.434Z37.297F1200.
Y20.728Z37.169
Y21.003Z37.002
Y21.252Z36.8
G02X-59.05Y24.306I0.J-7.327
G01Y24.422Z31.415
Y24.475Z31.206
G03X-59.05Y25.341I0.J13.592
G01Y38.153Z-3.159
G00X5.
Y-10.373Z37.372
X-55.03
G01X-56.03F840.
X-59.05
Y-9.714Z36.374F1200.
Y-6.42Z31.387
Y-5.761Z30.39
Y-5.102Z29.392
G03X-59.05Y-2.094I0.J2.007
G01Y-1.764Z28.721
Y-1.664Z28.788
Y-1.143Z29.066
Y-.598Z29.292
Y1.116Z29.863
Y2.802Z30.467
Y4.51Z31.123
Y6.202Z31.82
Y8.181Z32.697
Y9.602Z33.363
Y11.251Z34.186
G02X-59.05Y19.926I0.J2.717
G01Y20.015Z28.413
Y20.277Z27.562
Y20.565Z26.724
Y20.884Z25.897
Y35.898Z-10.242
Y36.054Z-10.679
Y36.131Z-10.9
Y36.275Z-11.22
Y36.34Z-11.318
G02X-59.05Y35.687I0.J-4.593
G01Y35.162Z-19.987
Y34.594Z-20.338
Y33.401Z-20.901
Y31.645Z-21.701
Y30.001Z-22.425
Y28.306Z-23.142
Y26.601Z-23.835
Y23.311Z-25.101
Y22.376Z-25.444
Y21.545Z-25.732
G02X-59.05Y14.011I0.J-1.593
G01Y13.806Z-19.955
Y13.441Z-19.133
Y-1.316Z16.565
Y-1.692Z17.424
Y-2.117Z18.297
Y-2.542Z19.097
Y-2.703Z19.375
G02X-59.05Y-1.764I0.J4.109
G01X-58.913Y-1.487Z28.978
X-58.775Y-1.253Z29.275
X-58.638Y-1.069Z29.605
X-58.5Y-.939Z29.959
X-58.363Y-.865Z30.33
Y-2.723Z38.222
X-58.98F840.
X-62.
Y-2.597Z37.804F1200.
Y-2.527Z37.625
Y-2.43Z37.46
Y-2.308Z37.313
Y-2.164Z37.187
Y-2.001Z37.085
Y-1.825Z37.011
Y-1.639Z36.965
Y-1.448Z36.95
Y-.598
Y4.138
Y5.322
Y32.552
G02X-62.Y36.8I0.J-.071
X-62.Y38.434I0.J-4.426
G01Y38.45Z31.006
Z-31.052
G02X-62.Y32.552I0.J-5.955
G01Y-31.197Z-36.95
Y-32.917Z-36.935
G02X-62.Y-37.997I0.J.432
G01Y-38.231Z-32.601
Y-38.381Z-31.901
Y-38.431Z-31.478
Y-38.45Z-31.052
Z31.006
G02X-62.Y-32.917I0.J5.961
G01Y-31.197Z36.95
Y-1.448
X-61.863Y-1.075Z37.009
X-61.725Y-.716Z37.126
X-61.588Y-.379Z37.297
X-61.45Y-.073Z37.519
X-61.313Y.194Z37.786
Y-2.723Z39.072
X-61.98F840.
X-65.
Y-2.425Z38.375F1200.
Y-2.126Z37.678
Y-2.033Z37.501
Y-1.911Z37.343
Y-1.765Z37.207
Y-1.598Z37.097
Y-1.416Z37.016
Y-1.222Z36.967
Y-1.023Z36.95
Y-.598
Y2.954
Y4.138
Y32.552
G02X-65.Y36.8I0.J-.071
X-65.Y38.434I0.J-4.426
G01Y38.45Z31.006
Z-31.052
G02X-65.Y32.552I0.J-5.955
G01Y-31.197Z-36.95
Y-32.917Z-36.935
G02X-65.Y-37.997I0.J.432
G01Y-38.231Z-32.601
Y-38.381Z-31.901
Y-38.431Z-31.478
Y-38.45Z-31.052
Z31.006
G02X-65.Y-32.917I0.J5.961
G01Y-31.197Z36.95
Y-1.023
X-64.863Y-.65Z37.009
X-64.725Y-.291Z37.126
X-64.588Y.046Z37.297
X-64.45Y.352Z37.519
X-64.313Y.619Z37.786
G00X50.
/G05.1 Q0
M09
G00Z0.
X0.Y0.
M05
M30
%
