%
O0100
(SONCHU POSTPROCESSOR A.I.C TAICHUNG)
G40G49G90G80
G17G00G54X0.Y0.
/G05.1 Q1
(TOOL: R3_ER35_ROUGH)
M03S8000
G43Z0.H1
M8
G00X-2.Y24.927
Z-23.038
G01X-3.F1500. 
G03X-3.Y22.409I0.J-2.983
G01Y21.956Z-20.32
Y21.525Z-20.175
Y21.069Z-19.929
Y20.617Z-19.569
Y20.258Z-19.17
Y19.954Z-18.728
Y19.697Z-18.257
Y19.478Z-17.769
Y19.269Z-17.246
Y18.741Z-15.969
Y3.83Z20.031
Y3.491Z20.917
Y3.349Z21.377
Y3.241Z21.831
Y3.17Z22.279
Y3.144Z22.732
Y3.167Z23.185
Y3.246Z23.631
Y3.339Z23.926
Y3.463Z24.209
Y3.622Z24.476
Y3.81Z24.72
Y4.037Z24.946
Y4.292Z25.139
Y4.572Z25.295
Y4.869Z25.414
Y6.669Z26.113
Y8.469Z26.858
Y9.335Z27.231
Y10.269Z27.649
Y10.734Z27.835
Y11.228Z27.922
Y11.652Z27.911
Y12.069Z27.829
Y12.363Z27.725
Y12.643Z27.586
Y12.908Z27.421
Y13.156Z27.231
Y13.52Z26.883
Y13.869Z26.453
Y14.191Z25.955
Y14.47Z25.431
Y14.868Z24.537
Y30.153Z-12.369
Y30.529Z-13.256
Y30.699Z-13.707
Y30.837Z-14.169
Y30.928Z-14.614
Y30.972Z-15.066
Y30.958Z-15.52
Y30.883Z-15.969
Y30.753Z-16.369
Y30.566Z-16.745
Y30.34Z-17.066
Y30.069Z-17.35
Y29.767Z-17.583
Y29.435Z-17.769
Y26.469Z-19.028
Y25.14Z-19.569
Y23.337Z-20.284
Y22.869Z-20.381
Y22.409Z-20.391
X-3.031Y21.982Z-20.351
X-3.143Y21.544Z-20.264
X-3.286Y21.109Z-20.104
X-3.4Y20.758Z-19.903
X-3.485Y20.384Z-19.575
Y20.382Z-19.573
X-3.5Y20.273Z-19.417
Y20.052Z-19.113
Y19.832Z-18.711
Y19.627Z-18.244
Y19.442Z-17.769
Y3.416Z20.922
Y3.241Z21.372
Y3.094Z21.831
Y3.069Z21.927
Y2.977Z22.347
Y2.921Z22.773
Y2.911Z23.203
Y2.955Z23.631
Y3.069Z24.096
Y3.237Z24.503
Y3.475Z24.881
Y3.738Z25.179
Y4.046Z25.431
Y4.442Z25.654
Y4.869Z25.809
Y6.669Z26.512
Y8.469Z27.26
Y10.269Z28.065
Y10.694Z28.219
Y11.141Z28.292
Y11.61Z28.28
Y12.069Z28.184
Y12.443Z28.037
Y12.775Z27.849
Y13.155Z27.565
Y13.493Z27.231
Y13.869Z26.745
Y14.065Z26.431
Y14.24Z26.106
Y14.542Z25.431
Y30.57Z-13.268
Y30.767Z-13.713
Y30.94Z-14.169
Y31.062Z-14.608
Y31.134Z-15.059
Y31.147Z-15.515
Y31.096Z-15.969
Y30.959Z-16.476
Y30.856Z-16.718
Y30.73Z-16.949
Y30.434Z-17.35
Y30.069Z-17.69
Y29.961Z-17.769
Y29.556Z-18.001
Y29.125Z-18.182
Y28.269Z-18.552
Y26.469Z-19.312
Y24.669Z-20.041
Y23.785Z-20.39
Y23.338Z-20.558
Y22.869Z-20.644
Y22.406Z-20.647
Y21.95Z-20.573
Y21.494Z-20.414
Y21.069Z-20.177
Y20.737Z-19.926
Y20.383Z-19.569
Y20.273Z-19.417
X-3.528Y20.052Z-19.121
X-3.637Y19.812Z-18.699
X-3.644Y19.801Z-18.676
X-3.791Y19.596Z-18.221
X-3.923Y19.403Z-17.766
X-3.997Y19.206Z-17.307
X-4.Y19.16Z-17.197
Y3.069Z21.652
Y3.Z21.831
Y2.859Z22.267
Y2.762Z22.716
Y2.715Z23.172
Y2.727Z23.631
Y2.768Z23.936
Y2.838Z24.236
Y2.937Z24.528
Y3.069Z24.807
Y3.282Z25.137
Y3.542Z25.431
Y3.834Z25.677
Y4.159Z25.876
Y4.509Z26.025
Y4.869Z26.147
Y6.669Z26.852
Y7.597Z27.231
Y8.469Z27.602
Y10.269Z28.417
Y10.704Z28.554
Y11.156Z28.613
Y11.618Z28.59
Y12.069Z28.488
Y12.51Z28.3
Y12.916Z28.044
Y13.138Z27.866
Y13.343Z27.67
Y13.705Z27.231
Y13.869Z26.986
Y14.078Z26.612
Y14.258Z26.223
Y30.243Z-12.369
Y30.999Z-14.169
Y31.161Z-14.633
Y31.261Z-15.115
Y31.291Z-15.542
Y31.263Z-15.969
Y31.217Z-16.229
Y31.147Z-16.489
Y31.053Z-16.739
Y30.936Z-16.978
Y30.652Z-17.403
Y30.296Z-17.769
Y30.069Z-17.943
Y29.636Z-18.188
Y29.178Z-18.382
Y28.269Z-18.778
Y26.388Z-19.569
Y24.669Z-20.262
Y23.787Z-20.611
Y23.338Z-20.769
Y22.869Z-20.849
Y22.397Z-20.848
Y21.932Z-20.768
Y21.448Z-20.594
Y21.069Z-20.382
Y20.835Z-20.21
Y20.619Z-20.019
Y20.416Z-19.803
Y20.234Z-19.569
Y19.986Z-19.169
Y19.769Z-18.69
Y19.397Z-17.769
Y19.16Z-17.197
X-4.052Y18.965Z-16.737
X-4.176Y18.764Z-16.279
X-4.324Y18.561Z-15.822
X-4.448Y18.36Z-15.364
X-4.5Y18.165Z-14.904
Y2.948Z21.831
Y2.767Z22.276
Y2.642Z22.708
Y2.562Z23.166
Y2.541Z23.631
Y2.587Z24.087
Y2.695Z24.533
Y2.853Z24.924
Y3.069Z25.286
Y3.18Z25.431
Y3.511Z25.77
Y3.896Z26.044
Y4.129Z26.166
Y4.372Z26.265
Y4.869Z26.436
Y6.889Z27.231
Y8.469Z27.896
Y9.373Z28.295
Y10.269Z28.711
Y10.71Z28.836
Y11.166Z28.884
Y11.623Z28.853
Y12.069Z28.745
Y12.328Z28.643
Y12.575Z28.517
Y13.033Z28.202
Y13.268Z27.988
Y13.48Z27.752
Y13.671Z27.499
Y13.842Z27.231
Y13.869Z27.184
Y14.081Z26.756
Y31.213Z-14.597
Y31.338Z-15.044
Y31.397Z-15.504
Y31.388Z-15.969
Y31.294Z-16.472
Y31.114Z-16.95
Y30.855Z-17.386
Y30.524Z-17.769
Y30.306Z-17.96
Y30.069Z-18.128
Y29.63Z-18.356
Y28.269Z-18.947
Y26.795Z-19.569
Y24.669Z-20.428
Y23.788Z-20.775
Y23.338Z-20.928
Y22.869Z-21.004
Y22.399Z-21.001
Y21.936Z-20.921
Y21.487Z-20.765
Y21.069Z-20.538
Y20.792Z-20.333
Y20.541Z-20.096
Y20.324Z-19.844
Y20.135Z-19.569
Y19.91Z-19.132
Y19.727Z-18.676
Y18.165Z-14.904
X-4.552Y17.97Z-14.443
X-4.676Y17.769Z-13.985
X-4.824Y17.566Z-13.528
X-4.948Y17.365Z-13.07
X-5.Y17.17Z-12.61
Y2.904Z21.831
Y2.718Z22.263
Y2.554Z22.704
Y2.445Z23.162
Y2.398Z23.631
Y2.421Z24.127
Y2.521Z24.613
Y2.682Z25.037
Y2.907Z25.431
Y3.069Z25.643
Y3.249Z25.837
Y3.446Z26.012
Y3.66Z26.168
Y3.888Z26.302
Y4.141Z26.418
Y4.404Z26.509
Y4.869Z26.68
Y6.279Z27.231
Y6.669Z27.388
Y8.469Z28.144
Y10.269Z28.953
Y10.532Z29.031
Y10.854Z29.09
Y11.18Z29.109
Y11.507Z29.09
Y11.828Z29.031
Y12.069Z28.961
Y12.341Z28.852
Y12.602Z28.716
Y12.848Z28.556
Y13.078Z28.374
Y13.313Z28.147
Y13.522Z27.897
Y13.707Z27.629
Y13.869Z27.346
Y13.925Z27.231
Y14.676Z25.431
Y31.259Z-14.598
Y31.403Z-15.041
Y31.477Z-15.502
Y31.478Z-15.969
Y31.398Z-16.466
Y31.233Z-16.942
Y30.991Z-17.38
Y30.678Z-17.769
Y30.389Z-18.032
Y30.069Z-18.253
Y29.604Z-18.48
Y28.269Z-19.062
Y26.469Z-19.817
Y24.669Z-20.542
Y23.788Z-20.888
Y23.338Z-21.038
Y22.869Z-21.112
Y22.397Z-21.11
Y21.933Z-21.031
Y21.485Z-20.877
Y21.069Z-20.653
Y20.76Z-20.423
Y20.483Z-20.155
Y20.258Z-19.874
Y20.068Z-19.569
Y19.868Z-19.123
Y17.17Z-12.61
X-5.052Y16.974Z-12.15
X-5.176Y16.773Z-11.692
X-5.324Y16.571Z-11.234
X-5.448Y16.37Z-10.776
X-5.5Y16.175Z-10.316
Y2.859Z21.831
Y2.492Z22.706
Y2.355Z23.161
Y2.282Z23.631
Y2.28Z24.109
Y2.352Z24.582
Y2.482Z24.996
Y2.698Z25.431
Y2.87Z25.683
Y3.069Z25.915
Y3.459Z26.253
Y3.905Z26.514
Y4.869Z26.875
Y5.791Z27.231
Y6.669Z27.584
Y8.469Z28.341
Y9.983Z29.031
Y10.269Z29.146
Y10.71Z29.256
Y11.163Z29.292
Y11.622Z29.253
Y12.069Z29.14
Y12.342Z29.031
Y12.58Z28.909
Y12.807Z28.765
Y13.019Z28.602
Y13.217Z28.422
Y13.41Z28.209
Y13.583Z27.979
Y13.736Z27.735
Y13.869Z27.48
Y13.975Z27.231
Y31.302Z-14.6
Y31.454Z-15.041
Y31.535Z-15.501
Y31.542Z-15.969
Y31.468Z-16.462
Y31.311Z-16.935
Y31.076Z-17.375
Y30.771Z-17.769
Y30.441Z-18.075
Y30.069Z-18.327
Y29.615Z-18.543
Y28.269Z-19.13
Y26.469Z-19.884
Y24.669Z-20.61
Y23.788Z-20.955
Y23.324Z-21.107
Y22.869Z-21.179
Y22.397Z-21.178
Y21.932Z-21.102
Y21.485Z-20.952
Y21.069Z-20.733
Y20.749Z-20.499
Y20.464Z-20.223
Y20.218Z-19.911
Y20.015Z-19.569
Y19.269Z-17.786
Y16.175Z-10.316
X-5.552Y15.979Z-9.856
X-5.676Y15.778Z-9.398
X-5.824Y15.576Z-8.941
X-5.948Y15.375Z-8.483
X-6.Y15.179Z-8.022
Y2.814Z21.831
Y2.445Z22.711
Y2.284Z23.162
Y2.191Z23.631
Y2.169Z24.102
Y2.222Z24.571
Y2.348Z25.023
Y2.535Z25.431
Y2.775Z25.797
Y3.069Z26.121
Y3.284Z26.306
Y3.517Z26.468
Y3.918Z26.677
Y4.869Z27.031
Y5.397Z27.231
Y6.669Z27.741
Y8.469Z28.499
Y9.657Z29.031
Y9.958Z29.176
Y10.269Z29.298
Y10.713Z29.404
Y11.168Z29.438
Y11.624Z29.399
Y12.069Z29.287
Y12.353Z29.174
Y12.625Z29.031
Y13.009Z28.759
Y13.346Z28.431
Y13.639Z28.034
Y13.869Z27.597
Y31.348Z-14.6
Y31.5Z-15.04
Y31.582Z-15.501
Y31.59Z-15.969
Y31.517Z-16.461
Y31.362Z-16.933
Y31.151Z-17.34
Y30.998Z-17.562
Y30.826Z-17.769
Y30.472Z-18.098
Y30.069Z-18.364
Y29.172Z-18.77
Y28.269Z-19.16
Y26.469Z-19.917
Y24.669Z-20.644
Y23.787Z-20.988
Y23.328Z-21.141
Y22.869Z-21.217
Y22.398Z-21.22
Y21.933Z-21.148
Y21.487Z-21.003
Y21.069Z-20.789
Y20.731Z-20.546
Y20.431Z-20.258
Y20.175Z-19.93
Y19.967Z-19.569
Y19.269Z-17.895
Y15.179Z-8.022
X-6.052Y14.984Z-7.562
X-6.176Y14.783Z-7.104
X-6.324Y14.58Z-6.647
X-6.448Y14.379Z-6.189
X-6.5Y14.184Z-5.729
Y2.402Z22.716
Y2.226Z23.164
Y2.117Z23.631
Y2.081Z24.094
Y2.119Z24.556
Y2.229Z25.005
Y2.408Z25.431
Y2.543Z25.665
Y2.699Z25.885
Y2.875Z26.09
Y3.069Z26.277
Y3.472Z26.574
Y3.927Z26.801
Y5.074Z27.231
Y6.669Z27.865
Y8.469Z28.624
Y9.818Z29.231
Y10.269Z29.417
Y10.714Z29.521
Y11.17Z29.553
Y11.625Z29.514
Y12.069Z29.404
Y12.453Z29.244
Y12.811Z29.031
Y13.141Z28.765
Y13.428Z28.455
Y13.671Z28.103
Y13.869Z27.707
Y31.393Z-14.6
Y31.546Z-15.04
Y31.629Z-15.501
Y31.638Z-15.969
Y31.565Z-16.46
Y31.411Z-16.933
Y31.192Z-17.353
Y31.043Z-17.568
Y30.876Z-17.769
Y30.696Z-17.951
Y30.5Z-18.116
Y30.29Z-18.265
Y30.069Z-18.394
Y28.269Z-19.185
Y27.361Z-19.569
Y26.469Z-19.942
Y24.669Z-20.668
Y23.786Z-21.012
Y23.331Z-21.168
Y22.869Z-21.25
Y22.4Z-21.258
Y21.935Z-21.191
Y21.488Z-21.052
Y21.069Z-20.844
Y20.714Z-20.593
Y20.399Z-20.292
Y20.133Z-19.948
Y19.92Z-19.569
Y19.269Z-18.004
Y14.184Z-5.729
X-6.552Y13.989Z-5.268
X-6.676Y13.788Z-4.81
X-6.824Y13.586Z-4.353
X-6.948Y13.385Z-3.895
X-7.Y13.19Z-3.435
Y2.356Z22.719
Y2.176Z23.165
Y2.055Z23.631
Y2.012Z24.091
Y2.041Z24.552
Y2.142Z25.002
Y2.313Z25.431
Y2.463Z25.7
Y2.64Z25.951
Y2.843Z26.182
Y3.069Z26.391
Y3.432Z26.649
Y3.671Z26.777
Y3.92Z26.884
Y4.869Z27.242
Y6.669Z27.954
Y8.469Z28.714
Y9.718Z29.276
Y10.269Z29.504
Y10.714Z29.607
Y11.17Z29.64
Y11.625Z29.602
Y12.069Z29.494
Y12.525Z29.299
Y12.942Z29.031
Y13.241Z28.766
Y13.502Z28.462
Y13.705Z28.151
Y13.869Z27.816
Y31.438Z-14.6
Y31.592Z-15.04
Y31.675Z-15.501
Y31.685Z-15.969
Y31.613Z-16.46
Y31.46Z-16.933
Y31.233Z-17.368
Y30.927Z-17.769
Y30.736Z-17.961
Y30.528Z-18.135
Y30.305Z-18.289
Y30.069Z-18.422
Y28.269Z-19.21
Y27.42Z-19.569
Y26.469Z-19.967
Y24.669Z-20.693
Y23.785Z-21.037
Y23.333Z-21.196
Y22.869Z-21.283
Y22.401Z-21.296
Y21.938Z-21.235
Y21.49Z-21.101
Y21.069Z-20.898
Y20.696Z-20.639
Y20.368Z-20.327
Y20.091Z-19.967
Y19.873Z-19.569
Y13.19Z-3.435
X-7.052Y12.994Z-2.975
X-7.176Y12.793Z-2.517
X-7.324Y12.59Z-2.06
X-7.448Y12.389Z-1.602
X-7.5Y12.194Z-1.141
Y2.31Z22.72
Y2.129Z23.166
Y2.004Z23.631
Y1.957Z24.09
Y1.983Z24.55
Y2.08Z25.001
Y2.247Z25.431
Y2.407Z25.722
Y2.599Z25.992
Y2.821Z26.239
Y3.069Z26.46
Y3.402Z26.689
Y3.626Z26.808
Y3.86Z26.908
Y4.869Z27.292
Y6.669Z28.006
Y8.469Z28.77
Y9.063Z29.031
Y9.662Z29.301
Y10.269Z29.554
Y10.713Z29.66
Y11.169Z29.696
Y11.624Z29.661
Y12.069Z29.556
Y12.327Z29.459
Y12.576Z29.339
Y12.809Z29.198
Y13.033Z29.031
Y13.29Z28.794
Y13.517Z28.527
Y13.713Z28.233
Y13.869Z27.923
Y31.483Z-14.6
Y31.638Z-15.04
Y31.722Z-15.501
Y31.732Z-15.969
Y31.661Z-16.46
Y31.509Z-16.932
Y31.4Z-17.163
Y31.272Z-17.383
Y30.978Z-17.769
Y30.776Z-17.971
Y30.556Z-18.153
Y30.32Z-18.313
Y30.069Z-18.45
Y28.269Z-19.235
Y26.469Z-19.991
Y24.669Z-20.718
Y23.784Z-21.062
Y23.335Z-21.223
Y22.869Z-21.316
Y22.403Z-21.333
Y21.94Z-21.277
Y21.491Z-21.149
Y21.069Z-20.951
Y20.679Z-20.686
Y20.336Z-20.361
Y20.05Z-19.985
Y19.827Z-19.569
Y12.194Z-1.141
X-7.552Y11.999Z-.681
X-7.676Y11.798Z-.223
X-7.824Y11.595Z.234
X-7.948Y11.394Z.692
X-8.Y11.199Z1.152
Y2.265Z22.72
Y2.084Z23.166
Y1.957Z23.631
Y1.909Z24.09
Y1.934Z24.55
Y2.03Z25.001
Y2.195Z25.431
Y2.373Z25.75
Y2.588Z26.045
Y2.816Z26.289
Y3.069Z26.505
Y3.382Z26.714
Y3.828Z26.924
Y4.638Z27.231
Y5.772Z27.669
Y7.573Z28.407
Y8.999Z29.031
Y9.632Z29.313
Y10.269Z29.585
Y10.713Z29.695
Y11.169Z29.735
Y11.624Z29.705
Y12.069Z29.604
Y12.349Z29.501
Y12.618Z29.371
Y12.872Z29.214
Y13.109Z29.031
Y13.338Z28.813
Y13.543Z28.57
Y13.721Z28.308
Y13.869Z28.027
Y31.528Z-14.6
Y31.683Z-15.04
Y31.768Z-15.501
Y31.779Z-15.969
Y31.709Z-16.46
Y31.558Z-16.932
Y31.445Z-17.171
Y31.311Z-17.399
Y31.028Z-17.769
Y30.817Z-17.981
Y30.585Z-18.171
Y30.334Z-18.337
Y30.069Z-18.476
Y28.269Z-19.26
Y26.469Z-20.016
Y24.669Z-20.742
Y23.783Z-21.087
Y23.336Z-21.25
Y22.869Z-21.348
Y22.636Z-21.369
Y22.354
Y22.019Z-21.334
Y21.69Z-21.26
Y21.372Z-21.15
Y21.069Z-21.004
Y20.661Z-20.732
Y20.304Z-20.395
Y20.008Z-20.004
Y19.782Z-19.569
Y11.199Z1.152
X-8.052Y11.003Z1.613
X-8.176Y10.802Z2.071
X-8.324Y10.6Z2.528
X-8.448Y10.399Z2.986
X-8.5Y10.203Z3.446
Y2.22Z22.72
Y2.038Z23.166
Y1.911Z23.631
Y1.862Z24.089
Y1.885Z24.55
Y1.98Z25.001
Y2.144Z25.431
Y2.305Z25.726
Y2.499Z26.001
Y2.765Z26.294
Y3.069Z26.548
Y3.42Z26.769
Y3.799Z26.938
Y4.574Z27.231
Y5.772Z27.693
Y7.573Z28.432
Y10.269Z29.615
Y10.712Z29.729
Y11.167Z29.774
Y11.623Z29.748
Y12.069Z29.652
Y12.371Z29.543
Y12.66Z29.403
Y12.931Z29.231
Y13.182Z29.031
Y13.386Z28.831
Y13.57Z28.613
Y13.731Z28.377
Y13.869Z28.127
Y14.246Z27.231
Y31.573Z-14.6
Y31.729Z-15.04
Y31.815Z-15.501
Y31.826Z-15.969
Y31.757Z-16.459
Y31.606Z-16.932
Y31.489Z-17.18
Y31.35Z-17.417
Y31.079Z-17.769
Y30.857Z-17.991
Y30.613Z-18.189
Y30.379Z-18.342
Y30.069Z-18.501
Y28.269Z-19.285
Y26.469Z-20.041
Y24.669Z-20.767
Y23.39Z-21.26
Y22.946Z-21.369
Y22.869Z-21.38
Y22.426Z-21.408
Y21.983Z-21.369
Y21.513Z-21.251
Y21.069Z-21.057
Y20.649Z-20.782
Y20.282Z-20.44
Y20.128Z-20.255
Y19.971Z-20.028
Y19.844Z-19.804
Y19.736Z-19.569
Y10.203Z3.446
X-8.552Y10.008Z3.906
X-8.676Y9.807Z4.364
X-8.824Y9.605Z4.821
X-8.948Y9.404Z5.279
X-9.Y9.208Z5.739
Z5.74
Y2.175Z22.72
Y1.98Z23.201
Y1.864Z23.631
Y1.814Z24.089
Y1.836Z24.549
Y1.929Z25.
Y2.092Z25.431
Y2.263Z25.742
Y2.469Z26.031
Y2.749Z26.331
Y3.069Z26.59
Y3.408Z26.795
Y3.771Z26.953
Y4.51Z27.231
Y5.772Z27.718
Y7.573Z28.457
Y8.884Z29.031
Y10.269Z29.644
Y10.711Z29.763
Y11.166Z29.812
Y11.622Z29.791
Y12.069Z29.699
Y12.392Z29.586
Y12.701Z29.435
Y12.989Z29.249
Y13.254Z29.031
Y13.434Z28.85
Y13.597Z28.654
Y13.742Z28.445
Y13.869Z28.224
Y14.291Z27.231
Y31.44Z-14.169
Y31.719Z-14.858
Y31.817Z-15.217
Y31.869Z-15.586
Y31.873Z-15.969
Y31.869Z-16.035
Y31.793Z-16.507
Y31.642Z-16.962
Y31.525Z-17.205
Y31.386Z-17.436
Y31.13Z-17.769
Y30.898Z-18.001
Y30.641Z-18.206
Y30.388Z-18.369
Y30.069Z-18.526
Y28.269Z-19.31
Y26.469Z-20.066
Y24.669Z-20.792
Y23.496Z-21.247
Y23.099Z-21.369
Y22.869Z-21.412
Y22.594Z-21.44
Y22.318Z-21.442
Y22.043Z-21.418
Y21.771Z-21.369
Y21.412Z-21.261
Y21.069Z-21.109
Y20.848Z-20.981
Y20.64Z-20.834
Y20.444Z-20.67
Y20.264Z-20.49
Y20.096Z-20.289
Y19.935Z-20.056
Y19.802Z-19.818
Y19.691Z-19.569
Y9.208Z5.739
X-9.052Y9.013Z6.2
X-9.176Y8.812Z6.658
X-9.324Y8.609Z7.115
X-9.448Y8.409Z7.573
X-9.5Y8.213Z8.033
Y2.129Z22.721
Y1.937Z23.193
Y1.817Z23.631
Y1.766Z24.089
Y1.787Z24.549
Y1.879Z25.
Y2.041Z25.431
Y2.234Z25.78
Y2.473Z26.1
Y2.753Z26.385
Y3.069Z26.63
Y3.395Z26.819
Y3.742Z26.967
Y4.446Z27.231
Y5.772Z27.743
Y7.573Z28.482
Y8.827Z29.031
Y10.269Z29.672
Y10.71Z29.796
Y11.164Z29.85
Y11.621Z29.833
Y12.069Z29.746
Y12.414Z29.628
Y12.741Z29.467
Y13.047Z29.267
Y13.325Z29.031
Y13.624Z28.695
Y13.869Z28.317
Y14.11Z27.777
Y31.704Z-14.698
Y31.8Z-14.968
Y31.869Z-15.246
Y31.917Z-15.606
Y31.92Z-15.969
Y31.869Z-16.382
Y31.768Z-16.76
Y31.618Z-17.121
Y31.418Z-17.463
Y31.18Z-17.769
Y30.938Z-18.011
Y30.67Z-18.224
Y30.397Z-18.394
Y30.069Z-18.551
Y28.269Z-19.335
Y26.469Z-20.091
Y24.669Z-20.816
Y23.941Z-21.098
Y23.209Z-21.369
Y22.869Z-21.444
Y22.55Z-21.477
Y22.23Z-21.475
Y21.912Z-21.439
Y21.6Z-21.369
Y21.329Z-21.278
Y21.069Z-21.161
Y20.843Z-21.033
Y20.63Z-20.886
Y20.431Z-20.721
Y20.246Z-20.539
Y20.065Z-20.324
Y19.9Z-20.083
Y19.761Z-19.832
Y19.646Z-19.569
Y8.213Z8.033
X-9.552Y8.018Z8.493
X-9.676Y7.817Z8.951
X-9.824Y7.614Z9.409
X-9.948Y7.413Z9.867
X-10.Y7.218Z10.327
Y2.084Z22.721
Y1.894Z23.186
Y1.771Z23.631
Y1.718Z24.089
Y1.738Z24.549
Y1.829Z25.
Y1.99Z25.431
Y2.191Z25.794
Y2.441Z26.126
Y2.736Z26.419
Y3.069Z26.668
Y3.381Z26.844
Y3.712Z26.981
Y4.382Z27.231
Y5.772Z27.767
Y7.573Z28.507
Y8.77Z29.031
Y10.269Z29.7
Y10.709Z29.829
Y11.163Z29.887
Y11.619Z29.875
Y12.069Z29.793
Y12.435Z29.67
Y12.782Z29.5
Y13.103Z29.286
Y13.393Z29.031
Y13.652Z28.736
Y13.869Z28.408
Y14.012Z28.121
Y31.711Z-14.605
Y31.869Z-15.05
Y31.954Z-15.506
Y31.967Z-15.969
Y31.934Z-16.281
Y31.869Z-16.587
Y31.762Z-16.908
Y31.618Z-17.215
Y31.452Z-17.486
Y31.231Z-17.769
Y30.979Z-18.021
Y30.698Z-18.241
Y30.405Z-18.419
Y30.069Z-18.576
Y28.269Z-19.36
Y26.469Z-20.115
Y24.669Z-20.841
Y23.297Z-21.369
Y22.869Z-21.475
Y22.512Z-21.513
Y22.154Z-21.508
Y21.799Z-21.46
Y21.452Z-21.369
Y21.069Z-21.212
Y20.839Z-21.085
Y20.621Z-20.938
Y20.417Z-20.772
Y20.229Z-20.589
Y20.034Z-20.358
Y19.864Z-20.11
Y19.72Z-19.845
Y19.601Z-19.569
Y7.218Z10.327
X-10.052Y7.023Z10.787
X-10.176Y6.822Z11.245
X-10.324Y6.619Z11.702
X-10.448Y6.418Z12.16
X-10.5Y6.223Z12.621
Y2.039Z22.721
Y1.851Z23.18
Y1.724Z23.631
Y1.67Z24.088
Y1.689Z24.548
Y1.779Z25.
Y1.938Z25.431
Y2.147Z25.808
Y2.409Z26.151
Y2.718Z26.452
Y3.069Z26.706
Y3.368Z26.867
Y3.683Z26.995
Y4.319Z27.231
Y5.772Z27.792
Y7.573Z28.531
Y8.713Z29.031
Y10.269Z29.728
Y10.707Z29.861
Y11.161Z29.925
Y11.618Z29.917
Y12.069Z29.84
Y12.456Z29.712
Y12.821Z29.532
Y13.158Z29.304
Y13.461Z29.031
Y13.68Z28.776
Y13.869Z28.497
Y14.026Z28.195
Y31.575Z-14.169
Y31.869Z-14.899
Y31.942Z-15.16
Y31.991Z-15.427
Y32.015Z-15.697
Y32.014Z-15.969
Y31.968Z-16.363
Y31.869Z-16.747
Y31.761Z-17.023
Y31.627Z-17.288
Y31.487Z-17.507
Y31.281Z-17.769
Y31.019Z-18.031
Y30.726Z-18.258
Y30.414Z-18.443
Y30.069Z-18.6
Y28.269Z-19.385
Y26.469Z-20.14
Y24.669Z-20.866
Y23.371Z-21.369
Y23.123Z-21.448
Y22.869Z-21.506
Y22.477Z-21.55
Y22.084Z-21.541
Y21.696Z-21.481
Y21.319Z-21.369
Y21.069Z-21.263
Y20.834Z-21.136
Y20.611Z-20.989
Y20.403Z-20.823
Y20.211Z-20.638
Y20.003Z-20.393
Y19.828Z-20.137
Y19.68Z-19.859
Y19.556Z-19.569
Y6.223Z12.621
X-10.552Y6.027Z13.081
X-10.676Y5.827Z13.539
X-10.824Y5.624Z13.996
X-10.948Y5.423Z14.454
X-11.Y5.228Z14.914
Y1.994Z22.721
Y1.808Z23.174
Y1.677Z23.631
Y1.623Z24.088
Y1.64Z24.548
Y1.729Z24.999
Y1.887Z25.431
Y2.104Z25.822
Y2.377Z26.176
Y2.701Z26.485
Y3.069Z26.742
Y3.354Z26.89
Y3.653Z27.008
Y4.255Z27.231
Y5.772Z27.817
Y7.573Z28.556
Y8.656Z29.031
Y10.269Z29.756
Y10.706Z29.893
Y11.16Z29.962
Y11.617Z29.959
Y12.069Z29.886
Y12.476Z29.755
Y12.861Z29.565
Y13.213Z29.323
Y13.526Z29.031
Y13.708Z28.816
Y13.869Z28.583
Y14.044Z28.257
Y31.62Z-14.169
Y31.869Z-14.772
Y31.963Z-15.062
Y32.027Z-15.36
Y32.06Z-15.664
Y32.061Z-15.969
Y32.002Z-16.433
Y31.869Z-16.882
Y31.765Z-17.121
Y31.64Z-17.349
Y31.495Z-17.566
Y31.332Z-17.769
Y31.059Z-18.041
Y30.753Z-18.275
Y30.423Z-18.466
Y30.069Z-18.625
Y28.269Z-19.41
Y26.469Z-20.165
Y24.669Z-20.89
Y23.434Z-21.369
Y23.156Z-21.466
Y22.869Z-21.536
Y22.445Z-21.586
Y22.019Z-21.574
Y21.6Z-21.501
Y21.196Z-21.369
Y21.069Z-21.313
Y20.829Z-21.187
Y20.602Z-21.04
Y20.39Z-20.873
Y20.193Z-20.687
Y19.972Z-20.429
Y19.793Z-20.164
Y19.639Z-19.873
Y5.228Z14.914
X-11.052Y5.033Z15.375
X-11.176Y4.832Z15.833
X-11.324Y4.629Z16.29
X-11.448Y4.428Z16.748
X-11.5Y4.233Z17.208
Y1.949Z22.722
Y1.764Z23.17
Y1.631Z23.631
Y1.575Z24.088
Y1.591Z24.548
Y1.679Z24.999
Y1.836Z25.431
Y2.06Z25.836
Y2.345Z26.201
Y2.684Z26.517
Y3.069Z26.776
Y3.34Z26.912
Y3.622Z27.022
Y4.191Z27.231
Y5.772Z27.841
Y7.573Z28.581
Y8.599Z29.031
Y10.269Z29.783
Y10.705Z29.925
Y11.158Z29.998
Y11.616Z30.
Y12.069Z29.932
Y12.497Z29.797
Y12.899Z29.599
Y13.267Z29.341
Y13.591Z29.031
Y13.869Z28.668
Y14.064Z28.316
Y14.215Z27.96
Y31.869Z-14.66
Y31.984Z-14.975
Y32.063Z-15.301
Y32.105Z-15.634
Y32.108Z-15.969
Y32.084Z-16.234
Y32.035Z-16.496
Y31.964Z-16.752
Y31.869Z-17.001
Y31.655Z-17.404
Y31.383Z-17.769
Y31.1Z-18.051
Y30.781Z-18.292
Y30.432Z-18.489
Y28.269Z-19.435
Y26.469Z-20.19
Y24.669Z-20.915
Y23.497Z-21.369
Y23.188Z-21.483
Y22.869Z-21.566
Y22.415Z-21.622
Y21.959Z-21.607
Y21.511Z-21.522
Y21.082Z-21.369
Y20.824Z-21.238
Y20.593Z-21.091
Y20.376Z-20.924
Y20.176Z-20.736
Y19.942Z-20.465
Y19.757Z-20.191
Y19.599Z-19.886
Y4.233Z17.208
X-11.552Y4.037Z17.668
X-11.676Y3.836Z18.126
X-11.824Y3.634Z18.583
X-11.948Y3.433Z19.041
X-12.Y3.237Z19.501
Z19.502
Y1.903Z22.722
Y1.721Z23.166
Y1.584Z23.631
Y1.527Z24.088
Y1.542Z24.547
Y1.629Z24.999
Y1.785Z25.431
Y2.016Z25.85
Y2.313Z26.225
Y2.667Z26.548
Y3.069Z26.81
Y3.326Z26.934
Y3.592Z27.035
Y4.127Z27.231
Y5.772Z27.866
Y7.573Z28.606
Y8.542Z29.031
Y10.269Z29.809
Y10.704Z29.957
Y11.157Z30.034
Y11.615Z30.041
Y12.069Z29.977
Y12.517Z29.839
Y12.938Z29.632
Y13.32Z29.36
Y13.654Z29.031
Y13.869Z28.751
Y14.077Z28.388
Y14.242Z28.003
Y31.869Z-14.552
Y32.002Z-14.891
Y32.098Z-15.243
Y32.149Z-15.604
Y32.155Z-15.969
Y32.127Z-16.263
Y32.07Z-16.553
Y31.983Z-16.835
Y31.869Z-17.108
Y31.673Z-17.453
Y31.433Z-17.769
Y31.14Z-18.061
Y30.809Z-18.309
Y30.441Z-18.511
Y28.269Z-19.46
Y26.469Z-20.215
Y24.669Z-20.94
Y23.219Z-21.499
Y22.869Z-21.596
Y22.413Z-21.657
Y21.953Z-21.646
Y21.501Z-21.563
Y21.069Z-21.412
Y20.974Z-21.369
Y20.74Z-21.243
Y20.519Z-21.096
Y20.312Z-20.931
Y20.121Z-20.747
Y19.892Z-20.475
Y19.708Z-20.195
Y19.553Z-19.887
Y3.237Z19.501
X-12.052Y3.042Z19.962
X-12.176Y2.841Z20.42
X-12.324Y2.638Z20.877
X-12.448Y2.438Z21.335
X-12.5Y2.242Z21.795
Y1.858Z22.722
Y1.677Z23.163
Y1.538Z23.631
Y1.48Z24.087
Y1.493Z24.547
Y1.579Z24.998
Y1.734Z25.431
Y1.973Z25.863
Y2.281Z26.249
Y2.65Z26.579
Y3.069Z26.843
Y3.56Z27.049
Y4.061Z27.231
Y5.773Z27.891
Y6.669Z28.258
Y7.573Z28.631
Y8.484Z29.031
Y10.269Z29.836
Y10.703Z29.988
Y11.155Z30.07
Y11.614Z30.082
Y12.069Z30.022
Y12.537Z29.882
Y12.976Z29.665
Y13.373Z29.379
Y13.716Z29.031
Y13.869Z28.832
Y14.094Z28.452
Y14.269Z28.046
Y31.869Z-14.443
Y32.017Z-14.803
Y32.131Z-15.185
Y32.193Z-15.574
Y32.202Z-15.969
Y32.171Z-16.29
Y32.104Z-16.605
Y32.003Z-16.912
Y31.869Z-17.205
Y31.693Z-17.498
Y31.484Z-17.769
Y31.18Z-18.071
Y30.836Z-18.326
Y30.45Z-18.532
Y28.269Z-19.485
Y26.469Z-20.239
Y24.669Z-20.964
Y23.251Z-21.513
Y22.869Z-21.626
Y22.414Z-21.691
Y21.955Z-21.685
Y21.498Z-21.607
Y21.069Z-21.462
Y20.871Z-21.369
Y20.65Z-21.242
Y20.441Z-21.096
Y20.245Z-20.933
Y20.063Z-20.754
Y19.84Z-20.481
Y19.658Z-20.197
Y19.508Z-19.887
Y2.242Z21.795
X-12.552Y2.047Z22.255
X-12.676Y1.846Z22.713
X-12.682Y1.838Z22.732
X-12.823Y1.647Z23.164
X-12.945Y1.496Z23.632
X-12.999Y1.432Z24.087
X-13.Y1.433Z24.141
Y1.445Z24.546
Y1.529Z24.998
Y1.682Z25.431
Y1.796Z25.659
Y1.929Z25.876
Y2.08Z26.081
Y2.248Z26.273
Y2.433Z26.449
Y2.633Z26.609
Y2.845Z26.751
Y3.069Z26.874
Y3.528Z27.061
Y3.994Z27.231
Y5.773Z27.915
Y6.669Z28.283
Y7.552Z28.647
Y8.469Z29.049
Y10.269Z29.862
Y10.702Z30.018
Y11.154Z30.106
Y11.613Z30.122
Y12.069Z30.067
Y12.332Z30.002
Y12.557Z29.924
Y12.791Z29.821
Y13.014Z29.699
Y13.226Z29.557
Y13.425Z29.398
Y13.609Z29.222
Y13.777Z29.031
Y13.869Z28.911
Y14.111Z28.515
Y14.297Z28.088
Y32.032Z-14.729
Y32.163Z-15.127
Y32.237Z-15.545
Y32.249Z-15.969
Y32.214Z-16.315
Y32.138Z-16.655
Y32.022Z-16.983
Y31.869Z-17.295
Y31.713Z-17.54
Y31.534Z-17.769
Y31.24Z-18.064
Y30.908Z-18.314
Y30.472Z-18.547
Y28.269Z-19.51
Y26.469Z-20.264
Y24.669Z-20.989
Y23.282Z-21.526
Y22.869Z-21.655
Y22.415Z-21.725
Y21.956Z-21.724
Y21.494Z-21.649
Y21.069Z-21.51
Y20.774Z-21.369
Y20.365Z-21.097
Y20.008Z-20.762
Y19.789Z-20.488
Y19.609Z-20.199
Y19.331Z-19.569
Y1.813Z22.722
Y1.632Z23.16
Y1.491Z23.631
Y1.432Z24.087
Y1.433Z24.141
X-13.035Y1.441Z24.545
X-13.138Y1.514Z24.991
X-13.272Y1.652Z25.424
X-13.348Y1.76Z25.66
X-13.416Y1.891Z25.886
X-13.467Y2.044Z26.099
X-13.496Y2.216Z26.296
X-13.5Y2.309Z26.383
Y2.408Z26.476
Y2.615Z26.638
Y2.836Z26.781
Y3.069Z26.904
Y5.773Z27.94
Y6.669Z28.308
Y7.523Z28.66
Y8.37Z29.031
Y10.269Z29.888
Y10.705Z30.05
Y11.162Z30.143
Y11.617Z30.162
Y12.069Z30.112
Y12.34Z30.047
Y12.577Z29.967
Y12.82Z29.86
Y13.052Z29.733
Y13.271Z29.585
Y13.476Z29.417
Y13.665Z29.232
Y13.837Z29.031
Y13.869Z28.99
Y14.128Z28.577
Y14.325Z28.13
Y32.042Z-14.643
Y32.194Z-15.07
Y32.28Z-15.515
Y32.297Z-15.969
Y32.258Z-16.339
Y32.172Z-16.701
Y32.042Z-17.049
Y31.869Z-17.379
Y31.585Z-17.769
Y31.28Z-18.074
Y30.934Z-18.331
Y30.713Z-18.459
Y30.482Z-18.568
Y28.188Z-19.569
Y26.469Z-20.289
Y24.669Z-21.014
Y23.313Z-21.538
Y22.869Z-21.684
Y22.416Z-21.759
Y21.958Z-21.762
Y21.505Z-21.695
Y21.069Z-21.559
Y20.68Z-21.369
Y20.292Z-21.099
Y19.953Z-20.77
Y19.739Z-20.495
Y19.561Z-20.202
Y19.285Z-19.569
Y1.588Z23.159
Y1.445Z23.631
Y1.384Z24.087
Y1.396Z24.546
Y1.479Z24.998
Y1.631Z25.431
Y1.748Z25.666
Y1.885Z25.89
Y2.042Z26.1
Y2.216Z26.296
Y2.309Z26.383
X-13.504Y2.408Z26.476
X-13.535Y2.615Z26.641
X-13.59Y2.839Z26.789
X-13.661Y3.075Z26.916
X-13.809Y3.54Z27.102
X-13.937Y4.005Z27.285
X-13.999Y4.471Z27.465
X-14.Y4.521Z27.484
Y4.869Z27.616
Y5.773Z27.965
Y6.669Z28.333
Y8.313Z29.031
Y10.269Z29.913
Y10.712Z30.083
Y11.177Z30.18
Y11.624Z30.202
Y12.069Z30.156
Y12.343Z30.093
Y12.587Z30.013
Y12.834Z29.907
Y13.07Z29.778
Y13.293Z29.628
Y13.502Z29.459
Y13.694Z29.271
Y13.869Z29.067
Y13.896Z29.031
Y14.161Z28.608
Y14.361Z28.151
Y32.07Z-14.601
Y32.231Z-15.04
Y32.325Z-15.5
Y32.344Z-15.969
Y32.301Z-16.361
Y32.207Z-16.745
Y32.062Z-17.113
Y31.869Z-17.457
Y31.635Z-17.769
Y31.32Z-18.084
Y30.961Z-18.349
Y30.731Z-18.478
Y30.491Z-18.589
Y28.247Z-19.569
Y26.469Z-20.314
Y24.669Z-21.038
Y23.344Z-21.55
Y22.869Z-21.712
Y22.417Z-21.792
Y21.959Z-21.8
Y21.506Z-21.738
Y21.069Z-21.607
Y20.824Z-21.499
Y20.589Z-21.369
Y20.221Z-21.101
Y19.899Z-20.779
Y19.698Z-20.515
Y19.531Z-20.237
Y19.269Z-19.637
Y1.543Z23.158
Y1.398Z23.631
Y1.337Z24.086
Y1.347Z24.546
Y1.429Z24.998
Y1.58Z25.431
Y1.7Z25.673
Y1.841Z25.903
Y2.003Z26.119
Y2.184Z26.319
Y2.383Z26.502
Y2.598Z26.667
Y2.827Z26.811
Y3.069Z26.934
Y4.521Z27.484
X-14.052Y4.987Z27.664
X-14.176Y5.452Z27.85
X-14.28Y5.776Z27.98
X-14.416Y6.237Z28.176
X-14.492Y6.669Z28.357
X-14.5Y6.836Z28.429
Y8.256Z29.031
Y10.269Z29.939
Y10.719Z30.115
Y11.192Z30.217
Y11.631Z30.241
Y12.069Z30.2
Y12.342Z30.14
Y12.584Z30.064
Y12.83Z29.961
Y13.066Z29.836
Y13.29Z29.691
Y13.499Z29.526
Y13.693Z29.342
Y13.869Z29.142
Y13.954Z29.031
Y14.211Z28.605
Y14.407Z28.148
Y32.115Z-14.601
Y32.277Z-15.04
Y32.371Z-15.5
Y32.391Z-15.969
Y32.345Z-16.383
Y32.242Z-16.787
Y32.082Z-17.172
Y31.869Z-17.531
Y31.686Z-17.769
Y31.359Z-18.095
Y30.986Z-18.366
Y30.748Z-18.497
Y30.501Z-18.609
Y28.269Z-19.584
Y26.469Z-20.339
Y24.669Z-21.063
Y23.375Z-21.562
Y22.869Z-21.741
Y22.419Z-21.825
Y21.961Z-21.838
Y21.508Z-21.781
Y21.069Z-21.654
Y20.778Z-21.527
Y20.502Z-21.369
Y20.152Z-21.103
Y19.846Z-20.788
Y19.663Z-20.544
Y19.511Z-20.293
Y19.269Z-19.746
Y1.493Z23.169
Y1.352Z23.631
Y1.289Z24.086
Y1.298Z24.545
Y1.379Z24.997
Y1.529Z25.431
Y1.652Z25.68
Y1.797Z25.916
Y1.965Z26.138
Y2.152Z26.342
Y2.358Z26.529
Y2.581Z26.695
Y2.819Z26.84
Y3.069Z26.962
Y3.792Z27.231
Y5.773Z27.989
Y6.669Z28.358
Y6.836Z28.429
X-14.552Y7.295Z28.626
X-14.676Y7.753Z28.827
X-14.821Y8.202Z29.024
X-14.901Y8.47Z29.146
X-14.99Y8.924Z29.356
X-15.Y9.12Z29.445
Y10.269Z29.965
Y10.726Z30.147
Y11.207Z30.254
Y11.638Z30.281
Y12.069Z30.244
Y12.34Z30.188
Y12.582Z30.114
Y12.827Z30.015
Y13.063Z29.894
Y13.286Z29.753
Y13.496Z29.592
Y13.691Z29.413
Y13.869Z29.217
Y14.01Z29.031
Y14.26Z28.603
Y14.453Z28.146
Y32.16Z-14.601
Y32.323Z-15.04
Y32.417Z-15.5
Y32.438Z-15.969
Y32.389Z-16.404
Y32.276Z-16.827
Y32.101Z-17.229
Y31.869Z-17.601
Y31.736Z-17.769
Y31.399Z-18.105
Y31.012Z-18.383
Y30.766Z-18.516
Y30.069Z-18.825
Y28.269Z-19.609
Y26.469Z-20.363
Y24.669Z-21.088
Y23.94Z-21.369
Y22.869Z-21.769
Y22.42Z-21.857
Y21.962Z-21.876
Y21.509Z-21.823
Y21.069Z-21.702
Y20.733Z-21.555
Y20.417Z-21.369
Y20.085Z-21.106
Y19.794Z-20.797
Y19.631Z-20.578
Y19.497Z-20.358
Y19.269Z-19.855
Y1.448Z23.17
Y1.305Z23.631
Y1.269Z23.827
Y1.236Z24.264
Y1.269Z24.701
Y1.35Z25.073
Y1.478Z25.431
Y1.604Z25.687
Y1.753Z25.929
Y1.926Z26.156
Y2.119Z26.364
Y2.333Z26.554
Y2.564Z26.723
Y2.81Z26.868
Y3.069Z26.989
Y3.725Z27.231
Y4.869Z27.665
Y5.773Z28.014
Y6.669Z28.383
Y8.199Z29.031
Y8.469Z29.15
Y9.12Z29.445
X-15.052Y9.575Z29.653
X-15.176Y10.028Z29.865
X-15.256Y10.273Z29.98
X-15.397Y10.73Z30.172
X-15.488Y11.213Z30.289
X-15.5Y11.447Z30.306
Y11.641Z30.32
Y12.069Z30.287
Y12.337Z30.234
Y12.579Z30.164
Y12.824Z30.068
Y13.059Z29.951
Y13.283Z29.814
Y13.494Z29.657
Y13.689Z29.482
Y13.869Z29.29
Y14.066Z29.031
Y14.309Z28.6
Y15.246Z26.342
Y15.369Z26.275
Y15.669Z26.069
Y16.Z25.735
Y16.227Z25.431
Y16.504Z24.969
Y16.696Z24.552
Y31.243Z-10.569
Y31.869Z-12.109
Y31.948Z-12.369
Y32.026Z-12.814
Y32.03Z-13.267
Y31.938Z-13.717
Y31.896Z-13.856
Y32.205Z-14.601
Y32.368Z-15.04
Y32.464Z-15.5
Y32.485Z-15.969
Y32.433Z-16.424
Y32.311Z-16.866
Y32.121Z-17.284
Y31.869Z-17.667
Y31.787Z-17.769
Y31.438Z-18.116
Y31.037Z-18.4
Y30.52Z-18.65
Y28.269Z-19.634
Y26.469Z-20.388
Y24.669Z-21.112
Y24.004Z-21.369
Y22.869Z-21.796
Y22.421Z-21.89
Y21.964Z-21.913
Y21.51Z-21.865
Y21.069Z-21.748
Y20.689Z-21.584
Y20.335Z-21.369
Y20.019Z-21.109
Y19.743Z-20.807
Y19.475Z-20.41
Y19.269Z-19.964
Y18.962Z-19.224
Y18.754Z-19.103
Y18.509Z-18.943
Y18.294Z-18.744
Y18.095Z-18.527
Y17.927Z-18.286
Y17.652Z-17.769
Y2.739Z18.231
Y2.394Z19.108
Y2.275Z19.565
Y2.204Z20.031
Y2.203Z20.502
Y2.306Z20.962
Y1.957Z21.831
Y1.415Z23.139
Y1.269Z23.588
Y1.259Z23.631
Y1.205Z23.961
Y1.188Z24.294
Y1.21Z24.627
Y1.269Z24.955
Y1.427Z25.431
Y1.555Z25.694
Y1.709Z25.942
Y1.887Z26.174
Y2.087Z26.387
Y2.308Z26.58
Y2.547Z26.75
Y2.801Z26.895
Y3.069Z27.015
Y3.658Z27.231
Y4.869Z27.69
Y5.773Z28.039
Y6.669Z28.407
Y8.142Z29.031
Y8.469Z29.175
Y10.269Z29.99
Y10.729Z30.178
Y11.213Z30.29
Y11.447Z30.306
X-15.509Y11.645Z30.32
X-15.578Y12.066Z30.294
X-15.647Y12.329Z30.25
X-15.719Y12.569Z30.188
X-15.797Y12.814Z30.103
X-15.871Y13.05Z29.996
X-15.931Y13.263Z29.877
X-15.979Y13.49Z29.72
X-15.999Y13.688Z29.55
X-16.Y13.721Z29.516
Y13.869Z29.362
Y14.121Z29.031
Y14.274Z28.77
Y14.399Z28.495
Y14.789Z27.553
Y15.052Z27.474
Y15.298Z27.37
Y15.526Z27.231
Y15.669Z27.125
Y16.06Z26.774
Y16.396Z26.369
Y16.698Z25.912
Y16.961Z25.431
Y17.469Z24.26
Y32.264Z-11.459
Y32.44Z-11.908
Y32.582Z-12.369
Y32.68Z-12.854
Y32.721Z-13.348
Y32.701Z-13.762
Y32.623Z-14.169
Y32.461Z-14.601
Y32.338Z-14.816
Y32.42Z-15.061
Y32.511Z-15.51
Y32.532Z-15.969
Y32.477Z-16.444
Y32.345Z-16.903
Y32.141Z-17.336
Y31.869Z-17.731
Y31.837Z-17.769
Y31.665Z-17.955
Y31.477Z-18.126
Y31.276Z-18.281
Y31.062Z-18.417
Y30.531Z-18.671
Y30.069Z-18.875
Y28.269Z-19.659
Y26.469Z-20.413
Y24.669Z-21.137
Y24.068Z-21.369
Y22.869Z-21.823
Y22.422Z-21.921
Y21.965Z-21.95
Y21.511Z-21.907
Y21.069Z-21.795
Y20.645Z-21.614
Y20.256Z-21.369
Y19.988Z-21.144
Y19.749Z-20.888
Y19.508Z-20.553
Y19.404Z-20.369
Y19.322Z-20.2
Y19.269Z-20.189
Y19.005Z-20.113
Y18.755Z-19.999
Y18.438Z-19.806
Y18.152Z-19.569
Y17.782Z-19.17
Y17.469Z-18.726
Y17.213Z-18.258
Y16.999Z-17.769
Y2.087Z18.231
Y1.743Z19.114
Y1.601Z19.582
Y1.502Z20.031
Y1.439Z20.55
Z21.072
Y1.489Z21.459
Y1.604Z21.831
Y1.706Z22.04
Y1.774Z22.162
Y1.534Z22.744
Y1.269Z23.418
Y1.212Z23.631
Y1.153Z24.008
Y1.142Z24.389
Y1.181Z24.768
Y1.269Z25.138
Y1.376Z25.431
Y1.507Z25.7
Y1.665Z25.955
Y1.848Z26.192
Y2.055Z26.409
Y2.283Z26.605
Y2.53Z26.776
Y2.792Z26.922
Y3.069Z27.041
Y3.591Z27.231
Y4.869Z27.715
Y5.773Z28.063
Y6.669Z28.432
Y8.084Z29.031
Y8.469Z29.2
Y10.269Z30.016
Y10.736Z30.21
Y10.979Z30.279
Y11.228Z30.327
Y11.648Z30.359
Y12.069Z30.331
Y12.335Z30.281
Y12.577Z30.213
Y12.821Z30.121
Y13.056Z30.008
Y13.266Z29.883
Y13.491Z29.721
Y13.688Z29.55
Y13.721Z29.516
X-16.006Y13.834Z29.4
X-16.037Y13.991Z29.209
X-16.088Y14.142Z29.012
X-16.192Y14.334Z28.68
X-16.294Y14.483Z28.371
X-16.316Y14.537Z28.354
X-16.374Y14.712Z28.303
X-16.477Y15.21Z28.141
X-16.5Y15.517Z27.981
Y15.669Z27.888
Y16.017Z27.579
Y16.332Z27.231
Y16.684Z26.749
Y16.944Z26.322
Y17.385Z25.431
Y17.469Z25.237
Y32.666Z-11.458
Y32.837Z-11.909
Y32.98Z-12.369
Y33.086Z-12.811
Y33.157Z-13.26
Y33.185Z-13.714
Y33.158Z-14.169
Y33.064Z-14.634
Y32.887Z-15.075
Y32.616Z-15.482
Y32.567Z-15.537
Y32.577Z-15.738
Y32.579Z-15.969
Y32.522Z-16.456
Y32.385Z-16.926
Y32.171Z-17.368
Y31.887Z-17.769
Y31.693Z-17.978
Y31.502Z-18.149
Y31.297Z-18.302
Y31.08Z-18.438
Y30.539Z-18.692
Y28.542Z-19.569
Y26.469Z-20.438
Y24.669Z-21.161
Y22.869Z-21.85
Y22.423Z-21.953
Y21.967Z-21.986
Y21.512Z-21.948
Y21.069Z-21.841
Y20.832Z-21.752
Y20.603Z-21.643
Y20.382Z-21.513
Y20.178Z-21.369
Y19.971Z-21.192
Y19.782Z-20.998
Y19.688Z-20.887
Y19.5Z-20.864
Y19.269Z-20.82
Y18.815Z-20.656
Y18.44Z-20.441
Y18.192Z-20.252
Y17.962Z-20.041
Y17.555Z-19.569
Y17.469Z-19.452
Y17.211Z-19.053
Y16.983Z-18.636
Y16.597Z-17.769
Y1.685Z18.231
Y1.269Z19.293
Y1.055Z20.031
Y.961Z20.475
Y.902Z20.925
Y.89Z21.379
Y.924Z21.831
Y1.051Z22.321
Y1.269Z22.779
Y1.399Z22.96
Y1.269Z23.282
Y1.166Z23.631
Y1.102Z24.047
Y1.098Z24.468
Y1.154Z24.885
Y1.269Z25.289
Y1.325Z25.431
Y1.456Z25.702
Y1.615Z25.958
Y1.798Z26.196
Y2.005Z26.415
Y2.244Z26.619
Y2.503Z26.796
Y2.779Z26.946
Y3.069Z27.065
Y3.524Z27.231
Y4.869Z27.739
Y5.773Z28.088
Y6.669Z28.457
Y8.027Z29.031
Y8.469Z29.225
Y10.269Z30.041
Y10.743Z30.242
Y10.99Z30.313
Y11.243Z30.364
Y11.656Z30.397
Y12.069Z30.373
Y12.332Z30.327
Y12.575Z30.262
Y12.818Z30.173
Y13.053Z30.064
Y13.283Z29.93
Y13.489Z29.785
Y13.686Z29.618
Y13.869Z29.434
Y14.031Z29.239
Y14.175Z29.031
Y14.36Z28.691
Y14.502Z28.379
Y14.576Z28.37
Y14.779Z28.331
Y15.238Z28.152
Y15.517Z27.981
X-16.505Y15.717Z27.869
X-16.582Y16.073Z27.635
X-16.719Y16.457Z27.34
X-16.803Y16.659Z27.159
X-16.932Y16.978Z26.781
X-16.976Y17.135Z26.555
X-17.Y17.254Z26.309
Y17.469Z25.854
Y17.648Z25.431
Y18.386Z23.631
Y32.92Z-11.46
Y33.245Z-12.369
Y33.368Z-12.809
Y33.463Z-13.257
Y33.522Z-13.711
Y33.534Z-14.169
Y33.476Z-14.697
Y33.329Z-15.208
Y33.119Z-15.616
Y32.846Z-15.969
Y32.651Z-16.159
Y32.61Z-16.417
Y32.465Z-16.903
Y32.242Z-17.358
Y31.947Z-17.769
Y31.869Z-17.857
Y31.504Z-18.192
Y31.089Z-18.463
Y30.069Z-18.925
Y28.601Z-19.569
Y26.469Z-20.463
Y24.669Z-21.186
Y22.869Z-21.877
Y22.427Z-21.986
Y21.974Z-22.027
Y21.517Z-21.998
Y21.069Z-21.903
Y20.703Z-21.769
Y20.358Z-21.589
Y20.189Z-21.479
Y20.066Z-21.388
Y20.016Z-21.376
Y19.613Z-21.369
Y19.269Z-21.307
Y18.799Z-21.137
Y18.37Z-20.881
Y18.099Z-20.665
Y17.881Z-20.457
Y17.469Z-19.959
Y17.21Z-19.569
Y16.963Z-19.134
Y16.74Z-18.686
Y16.342Z-17.769
Y2.176Z16.431
Y1.43Z18.231
Y1.269Z18.603
Y.989Z19.311
Y.744Z20.031
Y.626Z20.473
Y.534Z20.92
Y.476Z21.374
Y.464Z21.831
Y.514Z22.316
Y.636Z22.788
Y.846Z23.228
Y.988Z23.426
Y1.059Z23.511
Y1.127Z23.599
Y1.052Z24.082
Y1.054Z24.537
Y1.128Z24.99
Y1.269Z25.419
Y1.405Z25.703
Y1.563Z25.961
Y1.747Z26.2
Y1.955Z26.42
Y2.193Z26.624
Y2.475Z26.816
Y2.765Z26.969
Y3.069Z27.09
Y3.457Z27.231
Y4.869Z27.764
Y5.773Z28.113
Y6.669Z28.482
Y7.97Z29.031
Y8.469Z29.25
Y10.269Z30.066
Y10.75Z30.273
Y11.001Z30.348
Y11.258Z30.4
Y11.663Z30.436
Y12.069Z30.416
Y12.329Z30.373
Y12.572Z30.311
Y12.815Z30.225
Y13.05Z30.119
Y13.274Z29.993
Y13.486Z29.848
Y13.685Z29.684
Y13.869Z29.504
Y14.061Z29.277
Y14.237Z29.018
Y14.422Z29.006
Y14.616Z28.979
Y14.992Z28.871
Y15.342Z28.699
Y15.669Z28.484
Y16.003Z28.193
Y16.305Z27.867
Y16.76Z27.231
Y17.138Z26.555
Y17.254Z26.309
X-17.005Y17.319Z26.175
X-17.083Y17.545Z25.735
X-17.183Y17.715Z25.399
X-17.331Y17.941Z24.951
X-17.453Y18.161Z24.5
X-17.5Y18.352Z24.065
Y18.529Z23.631
Y33.064Z-11.464
Y33.407Z-12.369
Y33.669Z-13.222
Y33.764Z-13.692
Y33.812Z-14.169
Y33.791Z-14.745
Y33.745Z-15.03
Y33.669Z-15.309
Y33.533Z-15.649
Y33.353Z-15.969
Y33.175Z-16.205
Y32.969Z-16.417
Y32.75Z-16.604
Y32.63Z-16.902
Y32.375Z-17.357
Y32.054Z-17.769
Y31.869Z-17.956
Y31.464Z-18.279
Y31.012Z-18.532
Y28.66Z-19.569
Y28.269Z-19.734
Y26.469Z-20.488
Y24.669Z-21.211
Y22.869Z-21.904
Y22.441Z-22.026
Y22.001Z-22.088
Y21.532Z-22.089
Y21.069Z-22.023
Y20.626Z-21.899
Y20.412Z-21.812
Y20.287Z-21.756
Y20.185Z-21.77
Y19.724Z-21.78
Y19.269Z-21.702
Y18.876Z-21.563
Y18.508Z-21.369
Y18.208Z-21.152
Y17.933Z-20.905
Y17.689Z-20.635
Y17.469Z-20.345
Y17.224Z-19.965
Y17.005Z-19.569
Y16.585Z-18.676
Y16.199Z-17.769
Y2.033Z16.431
Y1.285Z18.231
Y.888Z19.143
Y.538Z20.031
Y.267Z20.917
Y.174Z21.371
Y.124Z21.831
Y.123Z22.353
Y.204Z22.869
Y.33Z23.27
Y.517Z23.631
Y.824Z24.019
Y.996Z24.176
Y1.001Z24.48
Y1.074Z24.974
Y1.223Z25.431
Y1.269Z25.536
Y1.403Z25.791
Y1.561Z26.032
Y1.743Z26.257
Y1.945Z26.462
Y2.189Z26.664
Y2.471Z26.849
Y2.763Z26.997
Y3.069Z27.114
Y3.389Z27.231
Y4.869Z27.789
Y5.773Z28.138
Y6.669Z28.507
Y7.913Z29.031
Y8.469Z29.276
Y10.768Z30.318
Y11.031Z30.399
Y11.299Z30.454
Y11.683Z30.49
Y12.069Z30.473
Y12.571Z30.373
Y13.047Z30.186
Y13.272Z30.061
Y13.485Z29.917
Y13.869Z29.575
Y13.907Z29.534
Y14.096Z29.538
Y14.326Z29.53
Y14.777Z29.445
Y15.205Z29.275
Y15.597Z29.031
Y15.669Z28.978
Y16.076Z28.613
Y16.43Z28.195
Y16.744Z27.725
Y17.018Z27.231
Y17.469Z26.246
Y17.795Z25.431
Y18.352Z24.065
X-17.552Y18.545Z23.604
X-17.676Y18.746Z23.146
X-17.824Y18.949Z22.689
X-17.948Y19.15Z22.231
X-18.Y19.346Z21.77
Y33.486Z-12.369
Y33.669Z-12.823
Y33.887Z-13.485
Y33.966Z-13.824
Y34.02Z-14.169
Y34.041Z-14.657
Y33.994Z-15.143
Y33.886Z-15.566
Y33.716Z-15.969
Y33.669Z-16.054
Y33.501Z-16.31
Y33.304Z-16.544
Y33.082Z-16.753
Y32.84Z-16.94
Y32.551Z-17.377
Y32.204Z-17.769
Y31.869Z-18.063
Y31.447Z-18.344
Y30.993Z-18.566
Y30.069Z-18.976
Y28.719Z-19.569
Y28.269Z-19.759
Y26.469Z-20.512
Y24.669Z-21.235
Y22.869Z-21.929
Y22.434Z-22.075
Y21.984Z-22.166
Y21.527Z-22.199
Y21.069Z-22.177
Y20.622Z-22.099
Y20.519Z-22.073
Y20.395Z-22.072
Y20.169Z-22.102
Y19.715Z-22.103
Y19.269Z-22.025
Y18.945Z-21.915
Y18.638Z-21.766
Y18.35Z-21.583
Y18.084Z-21.369
Y17.793Z-21.074
Y17.469Z-20.651
Y17.16Z-20.123
Y16.9Z-19.569
Y16.153Z-17.769
Y1.269Z18.16
Y.413Z20.031
Y.08Z20.913
Y-.047Z21.368
Y-.136Z21.831
Y-.18Z22.342
Y-.15Z22.854
Y-.074Z23.25
Y.057Z23.631
Y.184Z23.881
Y.337Z24.116
Y.517Z24.333
Y.72Z24.525
Y.937Z24.693
Y.987Z24.953
Y1.145Z25.431
Y1.269Z25.684
Y1.41Z25.915
Y1.57Z26.133
Y1.749Z26.336
Y1.946Z26.521
Y2.197Z26.716
Y2.476Z26.887
Y2.767Z27.026
Y3.322Z27.231
Y4.869Z27.813
Y5.773Z28.162
Y6.669Z28.532
Y7.856Z29.031
Y8.469Z29.301
Y9.376Z29.703
Y10.055Z30.018
Y10.269Z30.139
Y10.69Z30.341
Y11.138Z30.475
Y11.601Z30.536
Y12.069Z30.523
Y12.533Z30.436
Y12.981Z30.286
Y13.402Z30.065
Y13.588Z29.939
Y13.869Z29.97
Y14.321Z29.965
Y14.765Z29.875
Y15.24Z29.679
Y15.669Z29.397
Y16.073Z29.031
Y16.41Z28.623
Y16.699Z28.179
Y16.949Z27.713
Y17.167Z27.231
Y17.469Z26.463
Y17.845Z25.431
Y18.203Z24.529
Y19.346Z21.77
X-18.052Y19.537Z21.308
X-18.176Y19.728Z20.847
X-18.324Y19.92Z20.385
X-18.448Y20.111Z19.923
X-18.5Y20.302Z19.461
Y33.113Z-11.471
Y33.497Z-12.369
Y33.669Z-12.727
Y33.973Z-13.43
Y34.09Z-13.795
Y34.175Z-14.169
Y34.228Z-14.654
Y34.208Z-15.142
Y34.127Z-15.575
Y33.989Z-15.969
Y33.844Z-16.251
Y33.669Z-16.516
Y33.374Z-16.848
Y33.027Z-17.127
Y32.933Z-17.193
Y32.851Z-17.274
Y32.702Z-17.448
Y32.378Z-17.769
Y32.13Z-17.969
Y31.869Z-18.151
Y31.432Z-18.391
Y30.979Z-18.598
Y28.778Z-19.569
Y28.269Z-19.784
Y26.469Z-20.537
Y24.669Z-21.26
Y22.869Z-21.954
Y22.469Z-22.103
Y21.989Z-22.238
Y21.531Z-22.309
Y21.069Z-22.329
Y20.616Z-22.304
Y20.167Z-22.369
Y19.714Z-22.364
Y19.269Z-22.285
Y18.898Z-22.158
Y18.499Z-21.949
Y18.14Z-21.682
Y17.821Z-21.369
Y17.469Z-20.897
Y17.284Z-20.576
Y17.13Z-20.251
Y16.528Z-18.663
Y16.153Z-17.769
Y1.269Z18.16
Y.813Z19.138
Y.363Z20.031
Y-.042Z20.909
Y-.206Z21.364
Y-.333Z21.831
Y-.407Z22.28
Y-.431Z22.734
Y-.393Z23.187
Y-.294Z23.631
Y-.194Z23.902
Y-.064Z24.159
Y.093Z24.401
Y.277Z24.623
Y.473Z24.813
Y.689Z24.979
Y.847Z25.078
Y.913Z25.247
Y.993Z25.431
Y1.269Z25.903
Y1.576Z26.273
Y1.934Z26.594
Y2.204Z26.78
Y2.476Z26.93
Y3.069Z27.163
Y4.869Z27.838
Y5.773Z28.187
Y6.669Z28.557
Y7.799Z29.031
Y8.469Z29.326
Y10.269Z30.142
Y10.693Z30.343
Y11.137Z30.495
Y11.599Z30.581
Y12.069Z30.6
Y12.522Z30.552
Y12.964Z30.44
Y13.184Z30.358
Y13.378Z30.27
Y13.404Z30.277
Y13.869Z30.35
Y14.329Z30.334
Y14.779Z30.235
Y15.244Z30.038
Y15.669Z29.756
Y16.049Z29.411
Y16.361Z29.031
Y16.649Z28.584
Y16.865Z28.165
Y17.055Z27.718
Y17.231Z27.231
Y17.469Z26.504
Y17.845Z25.431
Y18.203Z24.528
Y20.302Z19.461
X-18.552Y20.493Z18.999
X-18.676Y20.685Z18.537
X-18.824Y20.876Z18.075
X-18.948Y21.067Z17.613
X-19.Y21.259Z17.151
Y33.113Z-11.471
Y33.497Z-12.369
Y33.669Z-12.726
Y34.031Z-13.426
Y34.18Z-13.791
Y34.292Z-14.169
Y34.37Z-14.636
Y34.379Z-15.11
Y34.321Z-15.546
Y34.197Z-15.969
Y33.973Z-16.43
Y33.669Z-16.844
Y33.436Z-17.076
Y33.178Z-17.278
Y33.012Z-17.387
Y32.856Z-17.51
Y32.555Z-17.769
Y32.222Z-18.006
Y31.869Z-18.211
Y30.069Z-19.026
Y28.837Z-19.569
Y28.269Z-19.809
Y26.469Z-20.562
Y24.669Z-21.285
Y22.869Z-21.978
Y21.989Z-22.296
Y21.533Z-22.405
Y21.069Z-22.466
Y20.842Z-22.477
Y20.17Z-22.579
Y19.716Z-22.573
Y19.269Z-22.493
Y18.818Z-22.332
Y18.387Z-22.09
Y17.987Z-21.76
Y17.646Z-21.369
Y17.469Z-21.102
Y17.276Z-20.737
Y17.121Z-20.355
Y16.872Z-19.569
Y16.528Z-18.663
Y16.153Z-17.769
Y1.269Z18.16
Y.813Z19.138
Y.362Z20.031
Y-.108Z20.908
Y-.314Z21.362
Y-.479Z21.831
Y-.531Z22.022
Y-.61Z22.421
Y-.647Z22.824
Y-.634Z23.23
Y-.572Z23.631
Y-.531Z23.795
Y-.447Z24.047
Y-.337Z24.29
Y-.203Z24.52
Y-.046Z24.736
Y.135Z24.939
Y.338Z25.122
Y.558Z25.282
Y.776Z25.411
Y1.006Z25.789
Y1.269Z26.117
Y1.669Z26.492
Y2.124Z26.798
Y2.587Z27.015
Y3.188Z27.231
Y4.869Z27.862
Y5.773Z28.212
Y6.669Z28.582
Y7.741Z29.031
Y8.469Z29.351
Y10.269Z30.168
Y10.697Z30.37
Y11.137Z30.545
Y11.597Z30.66
Y12.069Z30.709
Y12.521Z30.695
Y12.967Z30.621
Y13.193Z30.558
Y13.42Z30.614
Y13.869Z30.674
Y14.335Z30.651
Y14.79Z30.547
Y15.251Z30.346
Y15.669Z30.067
Y15.944Z29.824
Y16.191Z29.553
Y16.55Z29.031
Y16.771Z28.602
Y16.953Z28.154
Y17.237Z27.231
Y17.469Z26.504
Y17.845Z25.431
Y18.203Z24.528
Y21.259Z17.151
X-19.052Y21.45Z16.689
X-19.176Y21.641Z16.227
X-19.324Y21.833Z15.765
X-19.448Y22.024Z15.303
X-19.5Y22.215Z14.841
Y33.113Z-11.471
Y33.497Z-12.369
Y33.669Z-12.726
Y33.858Z-13.083
Y34.067Z-13.427
Y34.246Z-13.789
Y34.383Z-14.169
Y34.481Z-14.624
Y34.508Z-15.089
Y34.466Z-15.535
Y34.356Z-15.969
Y34.243Z-16.252
Y34.076Z-16.562
Y33.887Z-16.831
Y33.669Z-17.076
Y33.451Z-17.272
Y33.213Z-17.445
Y32.962Z-17.599
Y32.725Z-17.769
Y32.308Z-18.026
Y31.869Z-18.241
Y30.069Z-19.051
Y28.896Z-19.569
Y26.469Z-20.587
Y24.669Z-21.309
Y22.869Z-22.003
Y21.982Z-22.332
Y21.531Z-22.479
Y21.069Z-22.58
Y20.623Z-22.671
Y20.174Z-22.739
Y19.718Z-22.733
Y19.269Z-22.655
Y19.006Z-22.573
Y18.753Z-22.467
Y18.514Z-22.339
Y18.288Z-22.189
Y18.068Z-22.012
Y17.867Z-21.815
Y17.685Z-21.6
Y17.524Z-21.369
Y17.469Z-21.278
Y17.266Z-20.871
Y17.119Z-20.441
Y17.01Z-20.001
Y16.872Z-19.569
Y16.528Z-18.663
Y16.153Z-17.769
Y1.987Z16.431
Y1.269Z18.16
Y.813Z19.138
Y.362Z20.031
Y-.094Z20.858
Y-.329Z21.268
Y-.531Z21.695
Y-.585Z21.831
Y-.723Z22.265
Y-.811Z22.717
Y-.837Z23.175
Y-.799Z23.631
Y-.698Z24.064
Y-.531Z24.476
Y-.357Z24.77
Y-.144Z25.044
Y.059Z25.249
Y.284Z25.431
Y.583Z25.619
Y.703Z25.683
Y.839Z25.861
Y1.044Z26.091
Y1.269Z26.301
Y1.675Z26.608
Y2.119Z26.856
Y2.591Z27.042
Y3.119Z27.231
Y4.869Z27.887
Y5.773Z28.237
Y6.669Z28.606
Y7.684Z29.031
Y8.469Z29.376
Y10.269Z30.194
Y11.139Z30.595
Y11.599Z30.74
Y12.069Z30.824
Y12.147Z30.831
Y12.487Z30.848
Y12.827Z30.831
Y13.065Z30.801
Y13.158Z30.831
Y13.509Z30.915
Y13.869Z30.951
Y14.313Z30.928
Y14.747Z30.831
Y14.994Z30.741
Y15.231Z30.627
Y15.669Z30.337
Y15.964Z30.072
Y16.226Z29.773
Y16.444Z29.455
Y16.672Z29.031
Y16.849Z28.593
Y16.985Z28.141
Y17.237Z27.231
Y17.469Z26.504
Y17.845Z25.431
Y18.203Z24.528
Y22.215Z14.841
X-19.552Y22.407Z14.379
X-19.676Y22.598Z13.917
X-19.824Y22.789Z13.455
X-19.948Y22.981Z12.994
X-20.Y23.172Z12.532
Y33.113Z-11.471
Y33.497Z-12.369
Y33.669Z-12.726
Y33.862Z-13.091
Y34.099Z-13.428
Y34.322Z-13.825
Y34.458Z-14.169
Y34.568Z-14.615
Y34.606Z-15.073
Y34.574Z-15.526
Y34.472Z-15.969
Y34.345Z-16.3
Y34.154Z-16.653
Y33.93Z-16.958
Y33.669Z-17.232
Y33.289Z-17.527
Y32.874Z-17.769
Y32.378Z-18.031
Y31.869Z-18.266
Y30.069Z-19.076
Y28.955Z-19.569
Y26.469Z-20.612
Y24.669Z-21.334
Y22.869Z-22.027
Y21.504Z-22.532
Y21.069Z-22.664
Y20.628Z-22.782
Y20.177Z-22.851
Y19.72Z-22.847
Y19.269Z-22.772
Y18.99Z-22.687
Y18.721Z-22.575
Y18.473Z-22.442
Y18.24Z-22.285
Y18.016Z-22.101
Y17.812Z-21.896
Y17.629Z-21.672
Y17.469Z-21.431
Y17.433Z-21.369
Y17.233Z-20.939
Y17.101Z-20.485
Y17.015Z-20.02
Y16.872Z-19.569
Y16.528Z-18.663
Y16.153Z-17.769
Y1.269Z18.16
Y.813Z19.138
Y.362Z20.031
Y-.068Z20.813
Y-.531Z21.575
Y-.661Z21.831
Y-.839Z22.288
Y-.955Z22.758
Y-1.001Z23.193
Y-.986Z23.631
Y-.931Z23.972
Y-.837Z24.304
Y-.704Z24.622
Y-.531Z24.921
Y-.299Z25.222
Y-.092Z25.431
Y.233Z25.684
Y.593Z25.884
Y.675Z25.947
Y.747Z26.02
Y.92Z26.18
Y1.269Z26.451
Y1.686Z26.704
Y2.132Z26.904
Y3.069Z27.238
Y4.869Z27.912
Y5.773Z28.262
Y6.669Z28.631
Y7.627Z29.031
Y8.469Z29.401
Y10.269Z30.22
Y11.296Z30.702
Y11.652Z30.831
Y12.069Z30.935
Y12.52Z30.996
Y12.975Z31.014
Y13.415Z31.138
Y13.869Z31.187
Y14.233Z31.171
Y14.592Z31.107
Y14.951Z30.99
Y15.281Z30.831
Y15.669Z30.571
Y16.001Z30.267
Y16.287Z29.92
Y16.548Z29.489
Y16.749Z29.031
Y16.884Z28.585
Y16.988Z28.13
Y17.237Z27.231
Y17.469Z26.504
Y17.845Z25.431
Y18.203Z24.528
Y23.172Z12.532
X-20.052Y23.363Z12.07
X-20.176Y23.555Z11.608
X-20.324Y23.746Z11.146
X-20.448Y23.937Z10.684
X-20.5Y24.129Z10.222
Y33.113Z-11.471
Y33.497Z-12.369
Y33.669Z-12.726
Y33.816Z-13.007
Y33.879Z-13.092
Y34.146Z-13.419
Y34.372Z-13.798
Y34.526Z-14.169
Y34.638Z-14.612
Y34.68Z-15.067
Y34.651Z-15.523
Y34.551Z-15.969
Y34.412Z-16.332
Y34.205Z-16.705
Y33.958Z-17.032
Y33.669Z-17.321
Y33.342Z-17.568
Y32.984Z-17.769
Y31.869Z-18.289
Y30.069Z-19.101
Y29.012Z-19.569
Y28.269Z-19.884
Y26.469Z-20.636
Y24.669Z-21.359
Y22.869Z-22.052
Y21.069Z-22.713
Y20.592Z-22.855
Y20.098Z-22.922
Y19.681Z-22.914
Y19.269Z-22.846
Y18.99Z-22.765
Y18.721Z-22.657
Y18.475Z-22.53
Y18.243Z-22.38
Y18.02Z-22.204
Y17.816Z-22.008
Y17.631Z-21.793
Y17.469Z-21.561
Y17.357Z-21.369
Y17.168Z-20.926
Y17.057Z-20.484
Y17.014Z-20.017
Y16.872Z-19.569
Y16.528Z-18.663
Y16.153Z-17.769
Y1.987Z16.431
Y1.269Z18.16
Y.813Z19.138
Y.362Z20.031
Y-.059Z20.798
Y-.286Z21.172
Y-.531Z21.534
Y-.713Z21.831
Y-.929Z22.294
Y-1.066Z22.742
Y-1.136Z23.184
Y-1.142Z23.631
Y-1.081Z24.073
Y-.955Z24.501
Y-.772Z24.891
Y-.531Z25.248
Y-.372Z25.431
Y-.008Z25.752
Y.405Z26.004
Y.523Z26.059
Y.631Z26.131
Y.835Z26.289
Y1.269Z26.568
Y1.681Z26.77
Y3.069Z27.264
Y4.869Z27.936
Y5.773Z28.287
Y7.57Z29.031
Y8.469Z29.426
Y10.269Z30.246
Y11.501Z30.831
Y12.069Z31.033
Y12.516Z31.133
Y12.744Z31.164
Y12.859Z31.174
Y12.968Z31.213
Y13.411Z31.335
Y13.869Z31.383
Y14.321Z31.355
Y14.763Z31.253
Y15.195Z31.076
Y15.592Z30.831
Y15.669Z30.773
Y16.038Z30.433
Y16.346Z30.037
Y16.498Z29.781
Y16.627Z29.512
Y16.795Z29.031
Y16.99Z28.125
Y17.237Z27.231
Y17.469Z26.504
Y17.845Z25.431
Y18.203Z24.528
Y24.129Z10.222
X-20.552Y24.32Z9.76
X-20.676Y24.511Z9.298
X-20.824Y24.702Z8.836
X-20.948Y24.894Z8.374
X-21.Y25.085Z7.912
Y33.113Z-11.471
Y33.497Z-12.369
Y33.669Z-12.726
Y33.766Z-12.916
Y33.824Z-13.005
Y33.899Z-13.083
Y34.168Z-13.412
Y34.393Z-13.791
Y34.55Z-14.169
Y34.661Z-14.612
Y34.703Z-15.067
Y34.673Z-15.523
Y34.574Z-15.969
Y34.432Z-16.342
Y34.22Z-16.724
Y33.967Z-17.056
Y33.669Z-17.349
Y33.36Z-17.58
Y33.023Z-17.769
Y31.869Z-18.301
Y30.069Z-19.115
Y29.043Z-19.569
Y28.269Z-19.898
Y26.469Z-20.65
Y24.677Z-21.369
Y22.869Z-22.065
Y21.069Z-22.726
Y20.603Z-22.873
Y20.119Z-22.942
Y19.691Z-22.937
Y19.269Z-22.869
Y18.991Z-22.789
Y18.722Z-22.683
Y18.478Z-22.557
Y18.246Z-22.41
Y18.024Z-22.237
Y17.819Z-22.043
Y17.633Z-21.831
Y17.469Z-21.602
Y17.332Z-21.369
Y17.145Z-20.928
Y17.035Z-20.486
Y16.981Z-19.903
Y16.872Z-19.569
Y16.528Z-18.663
Y16.153Z-17.769
Y1.269Z18.16
Y.813Z19.138
Y.362Z20.031
Y-.057Z20.794
Y-.283Z21.167
Y-.531Z21.525
Y-.751Z21.831
Y-.985Z22.259
Y-1.154Z22.717
Y-1.248Z23.17
Y-1.271Z23.631
Y-1.216Z24.124
Y-1.079Z24.6
Y-.867Z25.037
Y-.584Z25.431
Y-.531Z25.492
Y-.153Z25.839
Y.283Z26.113
Y.533Z26.231
Y.765Z26.381
Y1.269Z26.648
Y1.674Z26.807
Y2.088Z26.939
Y3.972Z27.615
Y5.773Z28.312
Y7.513Z29.031
Y9.372Z29.853
Y10.269Z30.272
Y11.749Z30.982
Y12.069Z31.112
Y12.502Z31.246
Y12.733Z31.298
Y12.958Z31.37
Y13.407Z31.493
Y13.869Z31.541
Y14.347Z31.51
Y14.812Z31.399
Y15.26Z31.209
Y15.669Z30.946
Y15.809Z30.831
Y16.164Z30.465
Y16.453Z30.043
Y16.68Z29.552
Y16.758Z29.309
Y16.824Z29.031
Y16.892Z28.574
Y16.99Z28.122
Y17.237Z27.231
Y17.469Z26.504
Y17.845Z25.431
Y18.203Z24.528
Y25.085Z7.912
X-21.052Y25.276Z7.45
X-21.176Y25.468Z6.988
X-21.324Y25.659Z6.526
X-21.448Y25.85Z6.065
X-21.5Y26.042Z5.603
Z5.602
Y33.113Z-11.471
Y33.497Z-12.369
Y33.669Z-12.726
Y33.766Z-12.916
Y33.824Z-13.005
Y33.899Z-13.083
Y34.168Z-13.412
Y34.393Z-13.791
Y34.55Z-14.169
Y34.661Z-14.612
Y34.703Z-15.067
Y34.673Z-15.523
Y34.574Z-15.969
Y34.432Z-16.342
Y34.22Z-16.724
Y33.967Z-17.056
Y33.669Z-17.349
Y33.36Z-17.58
Y33.023Z-17.769
Y31.869Z-18.301
Y30.069Z-19.115
Y29.043Z-19.569
Y28.269Z-19.898
Y26.469Z-20.65
Y24.677Z-21.369
Y22.869Z-22.065
Y21.069Z-22.726
Y20.603Z-22.873
Y20.119Z-22.942
Y19.691Z-22.937
Y19.269Z-22.869
Y18.991Z-22.789
Y18.722Z-22.683
Y18.478Z-22.557
Y18.246Z-22.41
Y18.024Z-22.237
Y17.819Z-22.043
Y17.633Z-21.831
Y17.469Z-21.602
Y17.332Z-21.369
Y17.145Z-20.928
Y17.035Z-20.486
Y16.981Z-19.903
Y16.872Z-19.569
Y16.528Z-18.663
Y16.153Z-17.769
Y1.269Z18.16
Y.813Z19.138
Y.362Z20.031
Y-.057Z20.793
Y-.282Z21.165
Y-.531Z21.522
Y-.786Z21.831
Y-1.042Z22.249
Y-1.231Z22.702
Y-1.342Z23.161
Y-1.378Z23.631
Y-1.337Z24.117
Y-1.215Z24.588
Y-1.017Z25.029
Y-.749Z25.431
Y-.531Z25.675
Y-.339Z25.85
Y-.131Z26.008
Y.088Z26.145
Y.323Z26.265
Y.79Z26.493
Y1.269Z26.691
Y2.839Z27.231
Y3.972Z27.64
Y5.772Z28.337
Y7.456Z29.031
Y9.373Z29.879
Y10.269Z30.298
Y11.385Z30.831
Y12.069Z31.167
Y12.515Z31.344
Y12.948Z31.493
Y13.401Z31.617
Y13.869Z31.667
Y14.348Z31.638
Y14.816Z31.531
Y15.261Z31.346
Y15.669Z31.09
Y15.97Z30.831
Y16.295Z30.452
Y16.551Z30.023
Y16.74Z29.539
Y16.848Z29.031
Y16.893Z28.571
Y16.991Z28.12
Y17.237Z27.231
Y17.469Z26.504
Y17.845Z25.431
Y18.203Z24.528
Y26.042Z5.603
X-21.552Y26.233Z5.141
X-21.676Y26.424Z4.679
X-21.824Y26.616Z4.217
X-21.948Y26.807Z3.755
X-22.Y26.998Z3.293
Y33.113Z-11.471
Y33.497Z-12.369
Y33.669Z-12.726
Y33.766Z-12.916
Y33.824Z-13.005
Y33.899Z-13.083
Y34.168Z-13.412
Y34.393Z-13.791
Y34.55Z-14.169
Y34.661Z-14.612
Y34.703Z-15.067
Y34.673Z-15.523
Y34.574Z-15.969
Y34.432Z-16.342
Y34.22Z-16.724
Y33.967Z-17.056
Y33.669Z-17.349
Y33.36Z-17.58
Y33.023Z-17.769
Y31.869Z-18.301
Y30.069Z-19.115
Y29.043Z-19.569
Y28.269Z-19.898
Y26.469Z-20.65
Y24.677Z-21.369
Y22.869Z-22.065
Y21.069Z-22.726
Y20.603Z-22.873
Y20.119Z-22.942
Y19.691Z-22.937
Y19.269Z-22.869
Y18.991Z-22.789
Y18.722Z-22.683
Y18.478Z-22.557
Y18.246Z-22.41
Y18.024Z-22.237
Y17.819Z-22.043
Y17.633Z-21.831
Y17.469Z-21.602
Y17.332Z-21.369
Y17.145Z-20.928
Y17.035Z-20.486
Y16.981Z-19.903
Y16.872Z-19.569
Y16.528Z-18.663
Y16.153Z-17.769
Y1.269Z18.16
Y.813Z19.138
Y.362Z20.031
Y-.053Z20.787
Y-.276Z21.157
Y-.394Z21.337
Y-.531Z21.505
Y-.827Z21.831
Y-1.098Z22.241
Y-1.299Z22.689
Y-1.422Z23.153
Y-1.467Z23.631
Y-1.433Z24.112
Y-1.32Z24.581
Y-1.132Z25.024
Y-.873Z25.431
Y-.531Z25.808
Y-.13Z26.121
Y.089Z26.25
Y.319Z26.359
Y.81Z26.557
Y2.77Z27.231
Y3.972Z27.665
Y5.772Z28.361
Y7.397Z29.031
Y8.469Z29.502
Y9.373Z29.905
Y10.269Z30.324
Y11.331Z30.831
Y12.069Z31.198
Y12.497Z31.403
Y12.936Z31.583
Y13.395Z31.711
Y13.869Z31.763
Y14.348Z31.737
Y14.816Z31.634
Y15.26Z31.455
Y15.669Z31.207
Y15.867Z31.049
Y16.092Z30.831
Y16.397Z30.442
Y16.631Z30.008
Y16.794Z29.53
Y16.875Z29.031
Y16.893Z28.57
Y16.991Z28.118
Y17.237Z27.231
Y17.469Z26.504
Y17.845Z25.431
Y18.203Z24.528
Y26.998Z3.293
X-22.052Y27.19Z2.831
X-22.176Y27.381Z2.369
X-22.324Y27.572Z1.907
X-22.448Y27.764Z1.445
X-22.5Y27.955Z.983
Y33.113Z-11.471
Y33.497Z-12.369
Y33.669Z-12.726
Y33.766Z-12.916
Y33.824Z-13.005
Y33.899Z-13.083
Y34.168Z-13.412
Y34.393Z-13.791
Y34.55Z-14.169
Y34.661Z-14.612
Y34.703Z-15.067
Y34.673Z-15.523
Y34.574Z-15.969
Y34.432Z-16.342
Y34.22Z-16.724
Y33.967Z-17.056
Y33.669Z-17.349
Y33.36Z-17.58
Y33.023Z-17.769
Y31.869Z-18.301
Y30.069Z-19.115
Y29.043Z-19.569
Y28.269Z-19.898
Y26.469Z-20.65
Y24.677Z-21.369
Y22.869Z-22.065
Y21.069Z-22.726
Y20.603Z-22.873
Y20.119Z-22.942
Y19.691Z-22.937
Y19.269Z-22.869
Y18.991Z-22.789
Y18.722Z-22.683
Y18.478Z-22.557
Y18.246Z-22.41
Y18.024Z-22.237
Y17.819Z-22.043
Y17.633Z-21.831
Y17.469Z-21.602
Y17.332Z-21.369
Y17.145Z-20.928
Y17.035Z-20.486
Y16.981Z-19.903
Y16.872Z-19.569
Y16.528Z-18.663
Y16.153Z-17.769
Y1.269Z18.16
Y.813Z19.138
Y.362Z20.031
Y-.045Z20.774
Y-.264Z21.137
Y-.38Z21.316
Y-.45Z21.398
Y-.531Z21.467
Y-.881Z21.831
Y-1.156Z22.234
Y-1.36Z22.677
Y-1.489Z23.147
Y-1.537Z23.631
Y-1.506Z24.111
Y-1.397Z24.579
Y-1.214Z25.023
Y-.96Z25.431
Y-.773Z25.659
Y-.531Z25.896
Y-.126Z26.192
Y.323Z26.415
Y2.702Z27.231
Y3.972Z27.689
Y5.772Z28.386
Y7.337Z29.031
Y8.469Z29.527
Y9.372Z29.93
Y10.269Z30.35
Y11.274Z30.831
Y12.069Z31.226
Y12.932Z31.637
Y13.393Z31.771
Y13.869Z31.828
Y14.345Z31.807
Y14.812Z31.71
Y15.257Z31.538
Y15.669Z31.296
Y15.918Z31.1
Y16.186Z30.831
Y16.48Z30.435
Y16.702Z29.995
Y16.849Z29.522
Y16.914Z29.031
Y16.901Z28.569
Y16.992Z28.116
Y17.237Z27.231
Y17.469Z26.504
Y17.845Z25.431
Y18.203Z24.528
Y27.955Z.983
X-22.552Y28.146Z.521
X-22.676Y28.337Z.059
X-22.824Y28.529Z-.403
X-22.948Y28.72Z-.865
X-23.Y28.911Z-1.327
Y33.113Z-11.471
Y33.497Z-12.369
Y33.669Z-12.726
Y33.766Z-12.916
Y33.824Z-13.005
Y33.899Z-13.083
Y34.168Z-13.412
Y34.393Z-13.791
Y34.55Z-14.169
Y34.661Z-14.612
Y34.703Z-15.067
Y34.673Z-15.523
Y34.574Z-15.969
Y34.432Z-16.342
Y34.22Z-16.724
Y33.967Z-17.056
Y33.669Z-17.349
Y33.36Z-17.58
Y33.023Z-17.769
Y31.869Z-18.301
Y30.069Z-19.115
Y29.043Z-19.569
Y28.269Z-19.898
Y26.469Z-20.65
Y24.677Z-21.369
Y22.869Z-22.065
Y21.069Z-22.726
Y20.603Z-22.873
Y20.119Z-22.942
Y19.691Z-22.937
Y19.269Z-22.869
Y18.991Z-22.789
Y18.722Z-22.683
Y18.478Z-22.557
Y18.246Z-22.41
Y18.024Z-22.237
Y17.819Z-22.043
Y17.633Z-21.831
Y17.469Z-21.602
Y17.332Z-21.369
Y17.145Z-20.928
Y17.035Z-20.486
Y16.981Z-19.903
Y16.872Z-19.569
Y16.528Z-18.663
Y16.153Z-17.769
Y1.269Z18.16
Y.813Z19.138
Y.362Z20.031
Y-.042Z20.768
Y-.259Z21.13
Y-.375Z21.308
Y-.726Z21.637
Y-.897Z21.831
Y-1.17Z22.234
Y-1.374Z22.677
Y-1.501Z23.147
Y-1.55Z23.631
Y-1.519Z24.111
Y-1.411Z24.578
Y-1.228Z25.023
Y-.976Z25.431
Y-.782Z25.668
Y-.531Z25.912
Y-.335Z26.068
Y-.126Z26.207
Y.094Z26.327
Y.323Z26.429
Y1.269Z26.748
Y2.677Z27.231
Y3.972Z27.698
Y5.772Z28.395
Y7.315Z29.031
Y8.469Z29.536
Y9.372Z29.94
Y10.269Z30.359
Y11.254Z30.831
Y12.497Z31.449
Y12.931Z31.65
Y13.392Z31.784
Y13.869Z31.841
Y14.345Z31.82
Y14.812Z31.723
Y15.257Z31.552
Y15.669Z31.311
Y15.926Z31.109
Y16.203Z30.831
Y16.495Z30.433
Y16.717Z29.992
Y16.862Z29.521
Y16.926Z29.031
Y16.912Z28.57
Y16.915Z28.454
Y16.992Z28.116
Y17.237Z27.231
Y17.469Z26.504
Y17.845Z25.431
Y18.203Z24.528
Y28.911Z-1.327
G03X-23.Y32.075I0.J2.772
G00X50.Z-3.153
Y-21.039Z-31.395
X-2.
G01X-3.F1500.
G03X-3.Y-23.931I0.J-2.9
G01Y-25.731Z-29.16
Y-27.531Z-29.14
Y-27.99Z-29.115
Y-28.437Z-29.009
Y-28.859Z-28.825
Y-29.241Z-28.569
Y-29.331Z-28.493
Y-29.651Z-28.166
Y-29.915Z-27.793
Y-30.16Z-27.297
Y-30.324Z-26.769
Y-30.407Z-26.324
Y-30.452Z-25.873
Y-30.466Z-24.969
Y-30.46Z-23.169
Z15.531
Y-30.44Z16.431
Y-30.403Z16.889
Y-30.34Z17.344
Y-30.243Z17.794
Y-30.102Z18.231
Y-29.969Z18.55
Y-29.785Z18.89
Y-29.576Z19.19
Y-29.331Z19.463
Y-29.128Z19.64
Y-28.908Z19.796
Y-28.672Z19.927
Y-28.423Z20.031
Y-27.983Z20.14
Y-27.531Z20.16
Y-25.731Z20.116
Y-23.931Z20.11
Y-22.131Z20.14
Y-21.35Z20.163
Y-20.959Z20.13
Y-20.58Z20.031
Y-20.331Z19.927
Y-19.905Z19.665
Y-19.539Z19.323
Y-19.349Z19.089
Y-19.185Z18.836
Y-19.026Z18.541
Y-18.896Z18.231
Y-18.757Z17.793
Y-18.66Z17.344
Y-18.597Z16.889
Y-18.56Z16.431
Y-18.538Z15.531
Y-18.54Z-23.169
Y-18.534Z-24.969
Y-18.548Z-25.873
Y-18.593Z-26.324
Y-18.676Z-26.769
Y-18.852Z-27.328
Y-19.11Z-27.834
Y-19.403Z-28.229
Y-19.759Z-28.569
Y-20.034Z-28.762
Y-20.331Z-28.919
Y-20.765Z-29.068
Y-21.218Z-29.137
Y-23.931Z-29.165
X-3.053Y-24.431Z-29.191
X-3.177Y-24.931Z-29.255
X-3.325Y-25.431Z-29.332
X-3.405Y-25.731Z-29.373
X-3.491Y-26.231Z-29.412
X-3.5Y-26.428Z-29.414
Y-27.531Z-29.4
Y-28.012Z-29.377
Y-28.48Z-29.269
Y-28.926Z-29.077
Y-29.331Z-28.809
Y-29.596Z-28.569
Y-29.895Z-28.201
Y-30.137Z-27.792
Y-30.335Z-27.293
Y-30.456Z-26.769
Y-30.503Z-26.32
Y-30.513Z-25.87
Y-30.502Z-24.969
Z16.431
Y-30.498Z16.885
Y-30.471Z17.338
Y-30.412Z17.788
Y-30.317Z18.231
Y-30.151Z18.733
Y-29.913Z19.206
Y-29.649Z19.58
Y-29.331Z19.911
Y-29.183Z20.031
Y-28.802Z20.269
Y-28.386Z20.438
Y-27.963Z20.526
Y-27.531Z20.538
Y-25.731Z20.486
Y-23.931Z20.479
Y-22.131Z20.51
Y-21.22Z20.54
Y-20.766Z20.479
Y-20.331Z20.333
Y-20.066Z20.197
Y-19.817Z20.031
Y-19.463Z19.708
Y-19.169Z19.329
Y-18.885Z18.812
Y-18.684Z18.231
Y-18.589Z17.803
Y-18.531Z17.367
Y-18.501Z16.9
Y-18.497Z16.431
Y-18.498Z-24.969
Y-18.488Z-25.826
Y-18.493Z-26.255
Y-18.531Z-26.682
Y-18.544Z-26.769
Y-18.665Z-27.292
Y-18.863Z-27.792
Y-19.095Z-28.186
Y-19.404Z-28.569
Y-19.61Z-28.762
Y-19.835Z-28.932
Y-20.065Z-29.072
Y-20.331Z-29.199
Y-20.767Z-29.337
Y-21.22Z-29.399
Y-23.931Z-29.427
Y-25.731Z-29.423
Y-26.428Z-29.414
X-3.552Y-26.929Z-29.429
X-3.676Y-27.43Z-29.473
X-3.705Y-27.53Z-29.483
X-3.785Y-27.793Z-29.51
X-3.861Y-28.049Z-29.521
X-3.927Y-28.315Z-29.496
X-3.975Y-28.573Z-29.442
X-4.Y-28.887Z-29.317
Y-28.97Z-29.281
Y-29.331Z-29.052
Y-29.594Z-28.831
Y-29.838Z-28.569
Y-30.102Z-28.187
Y-30.307Z-27.77
Y-30.46Z-27.278
Y-30.539Z-26.769
Y-30.553Z-26.319
Y-30.544Z-25.869
Y-30.543Z17.333
Y-30.525Z17.784
Y-30.469Z18.231
Y-30.345Z18.747
Y-30.147Z19.239
Y-29.907Z19.656
Y-29.608Z20.031
Y-29.331Z20.288
Y-28.926Z20.556
Y-28.479Z20.745
Y-28.01Z20.846
Y-27.531Z20.859
Y-27.082Z20.832
Y-26.632Z20.819
Y-25.731Z20.801
Y-23.931Z20.795
Y-22.131Z20.829
Y-21.222Z20.864
Y-20.768Z20.81
Y-20.331Z20.677
Y-20.06Z20.548
Y-19.826Z20.405
Y-19.599Z20.23
Y-19.392Z20.031
Y-19.092Z19.652
Y-18.856Z19.246
Y-18.662Z18.75
Y-18.535Z18.231
Y-18.476Z17.768
Y-18.456Z17.322
Z-25.869
Y-18.447Z-26.319
Y-18.461Z-26.769
Y-18.531Z-27.237
Y-18.629Z-27.595
Y-18.767Z-27.94
Y-18.96Z-28.289
Y-19.162Z-28.569
Y-19.411Z-28.836
Y-19.692Z-29.069
Y-19.977Z-29.252
Y-20.331Z-29.418
Y-20.769Z-29.547
Y-21.222Z-29.603
Y-23.931Z-29.635
Y-25.731Z-29.631
Y-27.531Z-29.603
Y-27.797Z-29.602
Y-28.061Z-29.577
Y-28.322Z-29.527
Y-28.577Z-29.452
Y-28.887Z-29.317
Y-28.908Z-29.308
X-4.042Y-29.255Z-29.116
X-4.153Y-29.625Z-28.862
X-4.295Y-29.961Z-28.536
X-4.425Y-30.244Z-28.143
X-4.493Y-30.427Z-27.745
X-4.5Y-30.47Z-27.577
Y-30.547Z-27.263
Y-30.591Z-26.769
Y-30.585Z-24.969
Z17.331
Y-30.59Z17.782
Y-30.57Z18.231
Y-30.489Z18.739
Y-30.342Z19.232
Y-30.15Z19.647
Y-29.901Z20.031
Y-29.637Z20.337
Y-29.331Z20.605
Y-28.894Z20.87
Y-28.479Z21.03
Y-28.009Z21.123
Y-27.531Z21.13
Y-27.082Z21.102
Y-26.632Z21.089
Y-25.731Z21.071
Y-23.931Z21.065
Y-22.131Z21.096
Y-21.224Z21.137
Y-20.77Z21.09
Y-20.331Z20.967
Y-19.949Z20.788
Y-19.663Z20.6
Y-19.361Z20.336
Y-19.099Z20.031
Y-18.929Z19.781
Y-18.751Z19.448
Y-18.625Z19.132
Y-18.531Z18.805
Y-18.436Z18.231
Y-18.415Z17.782
Z-24.969
Y-18.409Z-26.769
Y-18.443Z-27.196
Y-18.531Z-27.615
Y-18.72Z-28.112
Y-18.858Z-28.367
Y-18.992Z-28.569
Y-19.269Z-28.896
Y-19.591Z-29.179
Y-19.916Z-29.391
Y-20.331Z-29.583
Y-20.77Z-29.705
Y-21.223Z-29.755
Y-22.131Z-29.77
Y-23.931Z-29.789
Y-25.731Z-29.785
Y-27.531Z-29.757
Y-28.063Z-29.732
Y-28.326Z-29.684
Y-28.582Z-29.613
Y-28.971Z-29.452
Y-29.331Z-29.236
Y-29.695Z-28.932
Y-30.008Z-28.569
Y-30.261Z-28.151
Y-30.428Z-27.746
Y-30.47Z-27.577
X-4.526Y-30.552Z-27.245
X-4.629Y-30.6Z-26.769
X-4.774Y-30.61Z-26.269
X-4.911Y-30.62Z-25.769
X-4.993Y-30.627Z-25.269
X-5.Z-25.098
Z16.431
Y-30.633Z18.231
Y-30.594Z18.724
Y-30.489Z19.207
Y-30.324Z19.651
Y-30.119Z20.031
Y-29.958Z20.262
Y-29.776Z20.476
Y-29.564Z20.683
Y-29.331Z20.866
Y-28.954Z21.089
Y-28.474Z21.269
Y-28.006Z21.353
Y-27.531Z21.354
Y-25.731Z21.299
Y-23.931Z21.293
Y-22.131Z21.324
Y-21.225Z21.364
Y-20.772Z21.323
Y-20.331Z21.208
Y-19.91Z21.018
Y-19.526Z20.759
Y-19.174Z20.421
Y-18.881Z20.031
Y-18.68Z19.66
Y-18.531Z19.265
Y-18.416Z18.754
Y-18.374Z18.231
Y-18.373Z-26.769
Y-18.374Z-27.049
Y-18.401Z-27.328
Y-18.454Z-27.604
Y-18.531Z-27.873
Y-18.68Z-28.232
Y-18.874Z-28.569
Y-19.166Z-28.937
Y-19.512Z-29.253
Y-19.873Z-29.492
Y-20.331Z-29.698
Y-20.771Z-29.814
Y-21.224Z-29.86
Y-22.131Z-29.876
Y-23.931Z-29.895
Y-25.731Z-29.891
Y-27.531Z-29.863
Y-28.066Z-29.839
Y-28.331Z-29.794
Y-28.59Z-29.724
Y-28.961Z-29.577
Y-29.331Z-29.366
Y-29.558Z-29.197
Y-29.768Z-29.006
Y-29.957Z-28.796
Y-30.126Z-28.569
Y-30.343Z-28.184
Y-30.516Z-27.722
Y-30.609Z-27.25
Y-30.627Z-26.769
Z-25.098
X-5.052Y-30.631Z-24.598
X-5.176Y-30.642Z-24.098
X-5.324Y-30.654Z-23.598
X-5.448Y-30.664Z-23.098
X-5.5Y-30.669Z-22.598
Z18.231
Y-30.664Z18.716
Y-30.594Z19.196
Y-30.469Z19.625
Y-30.285Z20.031
Y-30.104Z20.323
Y-29.892Z20.592
Y-29.627Z20.853
Y-29.331Z21.079
Y-28.917Z21.306
Y-28.47Z21.461
Y-28.003Z21.536
Y-27.531Z21.533
Y-25.731Z21.481
Y-23.931Z21.475
Y-22.131Z21.507
Y-21.226Z21.544
Y-20.773Z21.51
Y-20.331Z21.402
Y-20.083Z21.306
Y-19.845Z21.187
Y-19.622Z21.047
Y-19.408Z20.884
Y-19.206Z20.696
Y-19.022Z20.49
Y-18.858Z20.268
Y-18.715Z20.031
Y-18.531Z19.625
Y-18.429Z19.286
Y-18.363Z18.938
Y-18.334Z18.585
Y-18.331Z-26.769
Y-18.333Z-27.095
Y-18.364Z-27.42
Y-18.43Z-27.739
Y-18.531Z-28.05
Y-18.65Z-28.316
Y-18.795Z-28.569
Y-19.096Z-28.962
Y-19.46Z-29.3
Y-19.846Z-29.555
Y-20.084Z-29.673
Y-20.331Z-29.768
Y-20.772Z-29.879
Y-21.225Z-29.922
Y-22.131Z-29.938
Y-23.931Z-29.957
Y-25.731Z-29.953
Y-27.531Z-29.925
Y-28.07Z-29.902
Y-28.336Z-29.859
Y-28.598Z-29.791
Y-28.985Z-29.641
Y-29.331Z-29.449
Y-29.584Z-29.264
Y-29.817Z-29.054
Y-30.024Z-28.822
Y-30.205Z-28.569
Y-30.396Z-28.22
Y-30.549Z-27.814
Y-30.612Z-27.557
Y-30.652Z-27.296
Y-30.669Z-26.769
Z-22.598
X-5.552Y-30.673Z-22.098
X-5.676Y-30.683Z-21.598
X-5.824Y-30.696Z-21.098
X-5.948Y-30.706Z-20.598
X-6.Y-30.71Z-20.098
Z18.231
Y-30.715Z18.692
Y-30.678Z19.151
Y-30.578Z19.601
Y-30.411Z20.031
Y-30.206Z20.393
Y-29.953Z20.723
Y-29.661Z21.008
Y-29.331Z21.25
Y-28.915Z21.466
Y-28.468Z21.611
Y-28.002Z21.681
Y-27.531Z21.674
Y-25.731Z21.627
Y-23.931Z21.62
Y-22.131Z21.652
Y-21.227Z21.687
Y-20.774Z21.658
Y-20.331Z21.556
Y-20.055Z21.453
Y-19.791Z21.323
Y-19.54Z21.164
Y-19.311Z20.984
Y-19.094Z20.775
Y-18.901Z20.544
Y-18.732Z20.296
Y-18.589Z20.031
Y-18.531Z19.904
Y-18.394Z19.5
Y-18.314Z19.081
Y-18.29Z18.657
Z-26.769
Y-18.292Z-27.128
Y-18.329Z-27.486
Y-18.409Z-27.837
Y-18.531Z-28.176
Y-18.738Z-28.569
Y-18.884Z-28.781
Y-19.048Z-28.979
Y-19.228Z-29.162
Y-19.424Z-29.329
Y-19.832Z-29.595
Y-20.076Z-29.713
Y-20.331Z-29.808
Y-20.773Z-29.914
Y-21.226Z-29.951
Y-22.131Z-29.969
Y-23.931Z-29.986
Y-25.731Z-29.981
Y-27.531Z-29.956
Y-28.077Z-29.934
Y-28.348Z-29.892
Y-28.613Z-29.826
Y-29.003Z-29.678
Y-29.331Z-29.5
Y-29.602Z-29.308
Y-29.85Z-29.087
Y-30.071Z-28.84
Y-30.262Z-28.569
Y-30.441Z-28.238
Y-30.595Z-27.825
Y-30.657Z-27.565
Y-30.696Z-27.301
Y-30.71Z-26.769
Z-20.098
X-6.052Y-30.715Z-19.598
X-6.176Y-30.725Z-19.098
X-6.324Y-30.737Z-18.598
X-6.448Y-30.748Z-18.098
X-6.5Y-30.752Z-17.598
Z18.689
Y-30.738Z19.146
Y-30.657Z19.597
Y-30.509Z20.031
Y-30.297Z20.436
Y-30.024Z20.803
Y-29.7Z21.12
Y-29.331Z21.384
Y-28.968Z21.569
Y-28.583Z21.701
Y-28.324Z21.757
Y-28.061Z21.79
Y-27.531Z21.786
Y-25.731Z21.741
Y-23.931Z21.735
Y-22.131Z21.768
Y-21.227Z21.798
Y-20.775Z21.773
Y-20.331Z21.677
Y-20.044Z21.574
Y-19.769Z21.442
Y-19.5Z21.274
Y-19.269Z21.094
Y-19.047Z20.881
Y-18.849Z20.647
Y-18.676Z20.392
Y-18.531Z20.121
Y-18.491Z20.031
Y-18.344Z19.599
Y-18.264Z19.146
Y-18.248Z18.231
Z-26.769
Y-18.251Z-27.159
Y-18.294Z-27.547
Y-18.388Z-27.926
Y-18.531Z-28.29
Y-18.683Z-28.569
Y-18.832Z-28.789
Y-19.Z-28.994
Y-19.187Z-29.184
Y-19.389Z-29.356
Y-19.598Z-29.503
Y-19.818Z-29.632
Y-20.07Z-29.749
Y-20.331Z-29.843
Y-20.774Z-29.942
Y-21.227Z-29.974
Y-22.131Z-29.992
Y-23.931Z-30.009
Y-25.731Z-30.004
Y-27.531Z-29.979
Y-28.Z-29.966
Y-28.464Z-29.898
Y-28.911Z-29.757
Y-29.331Z-29.547
Y-29.619Z-29.349
Y-29.881Z-29.119
Y-30.116Z-28.857
Y-30.317Z-28.569
Y-30.485Z-28.256
Y-30.64Z-27.834
Y-30.702Z-27.572
Y-30.739Z-27.306
Y-30.752Z-26.769
Z-17.598
X-6.552Y-30.756Z-17.098
X-6.676Y-30.767Z-16.598
X-6.824Y-30.779Z-16.098
X-6.948Y-30.789Z-15.598
X-7.Y-30.794Z-15.098
Z18.231
Y-30.786Z19.143
Y-30.72Z19.595
Y-30.585Z20.031
Y-30.367Z20.469
Y-30.08Z20.864
Y-29.732Z21.205
Y-29.331Z21.484
Y-28.877Z21.698
Y-28.392Z21.831
Y-27.963Z21.878
Y-27.531Z21.869
Y-26.249Z21.831
Y-25.731Z21.824
Y-23.931Z21.817
Y-22.751Z21.831
Y-21.369Z21.872
Y-20.987Z21.876
Y-20.608Z21.831
Y-20.331Z21.766
Y-20.048Z21.669
Y-19.776Z21.544
Y-19.519Z21.391
Y-19.278Z21.213
Y-19.057Z21.012
Y-18.857Z20.789
Y-18.681Z20.546
Y-18.531Z20.287
Y-18.415Z20.031
Y-18.282Z19.606
Y-18.214Z19.143
Y-18.206Z18.231
Z-26.769
Y-18.21Z-27.188
Y-18.259Z-27.604
Y-18.367Z-28.009
Y-18.531Z-28.396
Y-18.628Z-28.569
Y-18.78Z-28.797
Y-18.953Z-29.01
Y-19.145Z-29.206
Y-19.355Z-29.383
Y-19.573Z-29.536
Y-19.805Z-29.668
Y-20.063Z-29.785
Y-20.331Z-29.877
Y-20.775Z-29.97
Y-21.227Z-29.997
Y-22.131Z-30.015
Y-23.931Z-30.032
Y-25.731Z-30.027
Y-27.531Z-30.002
Y-27.998Z-29.99
Y-28.461Z-29.929
Y-28.91Z-29.796
Y-29.331Z-29.594
Y-29.636Z-29.39
Y-29.913Z-29.15
Y-30.161Z-28.874
Y-30.372Z-28.569
Y-30.553Z-28.217
Y-30.685Z-27.844
Y-30.746Z-27.58
Y-30.782Z-27.311
Y-30.794Z-26.769
Z-15.098
X-7.052Y-30.798Z-14.598
X-7.176Y-30.808Z-14.098
X-7.324Y-30.821Z-13.598
X-7.448Y-30.831Z-13.098
X-7.5Y-30.835Z-12.598
Z18.231
Y-30.831Z19.141
Y-30.772Z19.593
Y-30.643Z20.031
Y-30.542Z20.266
Y-30.421Z20.492
Y-30.278Z20.709
Y-30.121Z20.907
Y-29.946Z21.093
Y-29.754Z21.264
Y-29.549Z21.417
Y-29.331Z21.551
Y-28.991Z21.714
Y-28.633Z21.831
Y-28.362Z21.888
Y-28.086Z21.919
Y-27.531Z21.915
Y-25.731Z21.869
Y-23.931Z21.863
Y-22.131Z21.895
Y-21.247Z21.922
Y-20.803Z21.91
Y-20.367Z21.831
Y-20.331Z21.822
Y-20.052Z21.731
Y-19.783Z21.612
Y-19.528Z21.467
Y-19.288Z21.297
Y-19.066Z21.105
Y-18.865Z20.891
Y-18.686Z20.658
Y-18.531Z20.408
Y-18.357Z20.031
Y-18.228Z19.593
Y-18.169Z19.141
Y-18.165Z18.231
Z-26.769
Y-18.168Z-27.215
Y-18.223Z-27.659
Y-18.345Z-28.089
Y-18.531Z-28.496
Y-18.573Z-28.569
Y-18.728Z-28.805
Y-18.906Z-29.026
Y-19.104Z-29.228
Y-19.32Z-29.41
Y-19.549Z-29.568
Y-19.791Z-29.704
Y-20.056Z-29.821
Y-20.331Z-29.911
Y-20.776Z-29.997
Y-21.228Z-30.02
Y-22.131Z-30.038
Y-23.931Z-30.055
Y-25.731Z-30.05
Y-27.531Z-30.024
Y-27.996Z-30.014
Y-28.459Z-29.96
Y-28.908Z-29.834
Y-29.331Z-29.639
Y-29.656Z-29.428
Y-29.95Z-29.176
Y-30.209Z-28.888
Y-30.427Z-28.569
Y-30.602Z-28.221
Y-30.73Z-27.854
Y-30.79Z-27.587
Y-30.825Z-27.315
Y-30.835Z-26.769
Z-12.598
X-7.552Y-30.84Z-12.098
X-7.676Y-30.85Z-11.598
X-7.824Y-30.862Z-11.099
X-7.948Y-30.873Z-10.599
X-8.Y-30.877Z-10.099
Z-10.098
Z18.231
Y-30.874Z19.14
Y-30.819Z19.593
Y-30.694Z20.031
Y-30.591Z20.276
Y-30.467Z20.51
Y-30.318Z20.736
Y-30.156Z20.939
Y-29.973Z21.132
Y-29.774Z21.307
Y-29.559Z21.463
Y-29.331Z21.599
Y-29.055Z21.73
Y-28.767Z21.831
Y-28.464Z21.904
Y-28.154Z21.944
Y-27.531Z21.939
Y-25.731Z21.893
Y-23.931Z21.887
Y-22.131Z21.92
Y-21.229Z21.949
Y-20.777Z21.938
Y-20.331Z21.859
Y-20.233Z21.831
Y-19.972Z21.741
Y-19.72Z21.626
Y-19.481Z21.489
Y-19.255Z21.329
Y-19.046Z21.15
Y-18.854Z20.952
Y-18.682Z20.736
Y-18.531Z20.506
Y-18.408Z20.274
Y-18.306Z20.031
Y-18.181Z19.593
Y-18.126Z19.14
Y-18.123Z18.231
Z-26.769
Y-18.132Z-27.32
Y-18.166Z-27.594
Y-18.225Z-27.863
Y-18.349Z-28.226
Y-18.518Z-28.569
Y-18.69Z-28.831
Y-18.871Z-29.055
Y-19.074Z-29.261
Y-19.296Z-29.445
Y-19.532Z-29.605
Y-19.782Z-29.742
Y-20.052Z-29.857
Y-20.331Z-29.944
Y-20.777Z-30.023
Y-21.229Z-30.043
Y-22.131Z-30.061
Y-23.931Z-30.078
Y-25.731Z-30.073
Y-27.995Z-30.037
Y-28.456Z-29.99
Y-28.906Z-29.872
Y-29.331Z-29.684
Y-29.674Z-29.468
Y-29.984Z-29.206
Y-30.255Z-28.904
Y-30.482Z-28.569
Y-30.651Z-28.226
Y-30.775Z-27.863
Y-30.834Z-27.594
Y-30.868Z-27.32
Y-30.877Z-26.769
Z-10.099
X-8.052Y-30.881Z-9.599
X-8.176Y-30.891Z-9.098
X-8.324Y-30.903Z-8.598
X-8.448Y-30.912Z-8.098
X-8.5Y-30.916Z-7.599
Y-30.917Z19.139
Y-30.866Z19.592
Y-30.745Z20.031
Y-30.64Z20.285
Y-30.512Z20.528
Y-30.358Z20.762
Y-30.191Z20.972
Y-30.001Z21.17
Y-29.793Z21.349
Y-29.569Z21.508
Y-29.331Z21.646
Y-28.889Z21.831
Y-28.557Z21.919
Y-28.217Z21.967
Y-27.874Z21.976
Y-27.531Z21.962
Y-25.731Z21.916
Y-23.931Z21.91
Y-22.131Z21.943
Y-21.23Z21.972
Y-20.778Z21.967
Y-20.331Z21.894
Y-20.111Z21.831
Y-19.871Z21.741
Y-19.641Z21.631
Y-19.415Z21.498
Y-19.212Z21.353
Y-19.018Z21.188
Y-18.839Z21.006
Y-18.676Z20.809
Y-18.531Z20.599
Y-18.378Z20.323
Y-18.255Z20.031
Y-18.134Z19.592
Y-18.083Z19.139
Y-18.084Z-27.235
Y-18.139Z-27.697
Y-18.267Z-28.146
Y-18.464Z-28.569
Y-18.531Z-28.681
Y-18.694Z-28.914
Y-18.878Z-29.13
Y-19.081Z-29.327
Y-19.303Z-29.503
Y-19.539Z-29.656
Y-19.788Z-29.786
Y-20.055Z-29.895
Y-20.331Z-29.976
Y-20.777Z-30.049
Y-21.229Z-30.066
Y-22.131Z-30.084
Y-23.931Z-30.101
Y-25.731Z-30.096
Y-27.994Z-30.06
Y-28.454Z-30.02
Y-28.904Z-29.908
Y-29.331Z-29.728
Y-29.692Z-29.506
Y-30.018Z-29.235
Y-30.301Z-28.921
Y-30.536Z-28.569
Y-30.733Z-28.146
Y-30.861Z-27.697
Y-30.916Z-27.235
Z-7.599
X-8.552Y-30.921Z-7.099
X-8.676Y-30.931Z-6.599
X-8.824Y-30.944Z-6.099
X-8.948Y-30.955Z-5.599
X-9.Y-30.959Z-5.099
Z19.139
Y-30.912Z19.591
Y-30.796Z20.031
Y-30.689Z20.294
Y-30.558Z20.545
Y-30.399Z20.789
Y-30.226Z21.004
Y-30.029Z21.208
Y-29.812Z21.392
Y-29.579Z21.553
Y-29.331Z21.692
Y-29.004Z21.831
Y-28.645Z21.934
Y-28.276Z21.99
Y-27.904Z22.
Y-27.531Z21.985
Y-25.731Z21.939
Y-23.931Z21.933
Y-22.131Z21.966
Y-21.23Z21.995
Y-20.778
Y-20.331Z21.929
Y-19.996Z21.831
Y-19.565Z21.638
Y-19.17Z21.378
Y-18.823Z21.059
Y-18.531Z20.689
Y-18.347Z20.37
Y-18.204Z20.031
Y-18.088Z19.591
Y-18.041Z19.139
Y-18.04Z-26.769
Y-18.041Z-27.234
Y-18.093Z-27.696
Y-18.217Z-28.145
Y-18.41Z-28.569
Y-18.531Z-28.767
Y-18.697Z-28.992
Y-18.883Z-29.201
Y-19.088Z-29.39
Y-19.311Z-29.56
Y-19.546Z-29.706
Y-19.794Z-29.83
Y-20.058Z-29.932
Y-20.331Z-30.008
Y-20.778Z-30.074
Y-21.23Z-30.088
Y-22.131Z-30.107
Y-23.931Z-30.124
Y-25.731Z-30.119
Y-27.992Z-30.083
Y-28.452Z-30.049
Y-28.903Z-29.944
Y-29.331Z-29.771
Y-29.711Z-29.545
Y-30.052Z-29.265
Y-30.347Z-28.937
Y-30.59Z-28.569
Y-30.783Z-28.145
Y-30.907Z-27.696
Y-30.959Z-27.234
Z-5.099
X-9.052Y-30.963Z-4.599
X-9.176Y-30.974Z-4.099
X-9.324Y-30.986Z-3.599
X-9.448Y-30.997Z-3.099
X-9.5Y-31.001Z-2.599
Z19.138
Y-30.958Z19.591
Y-30.846Z20.031
Y-30.738Z20.303
Y-30.604Z20.563
Y-30.439Z20.816
Y-30.261Z21.037
Y-30.056Z21.246
Y-29.831Z21.434
Y-29.589Z21.598
Y-29.331Z21.737
Y-29.113Z21.831
Y-28.729Z21.949
Y-28.333Z22.014
Y-27.932Z22.025
Y-27.531Z22.008
Y-25.731Z21.962
Y-23.931Z21.956
Y-22.131Z21.989
Y-21.231Z22.019
Y-20.779Z22.022
Y-20.331Z21.963
Y-19.887Z21.831
Y-19.487Z21.642
Y-19.13Z21.404
Y-18.807Z21.111
Y-18.531Z20.774
Y-18.316Z20.416
Y-18.154Z20.031
Y-18.042Z19.591
Y-17.999Z19.138
Y-17.998Z-26.769
Y-17.999Z-27.233
Y-18.047Z-27.695
Y-18.162Z-28.129
Y-18.357Z-28.569
Y-18.531Z-28.85
Y-18.7Z-29.068
Y-18.888Z-29.269
Y-19.095Z-29.452
Y-19.317Z-29.614
Y-19.552Z-29.754
Y-19.8Z-29.872
Y-20.062Z-29.968
Y-20.331Z-30.039
Y-20.779Z-30.099
Y-22.131Z-30.13
Y-23.931Z-30.147
Y-25.731Z-30.142
Y-27.991Z-30.105
Y-28.45Z-30.077
Y-28.901Z-29.979
Y-29.331Z-29.813
Y-29.729Z-29.583
Y-30.086Z-29.294
Y-30.393Z-28.953
Y-30.643Z-28.569
Y-30.833Z-28.144
Y-30.953Z-27.695
Y-31.001Z-27.233
Z-2.599
X-9.552Y-31.006Z-2.099
X-9.676Y-31.016Z-1.599
X-9.824Y-31.029Z-1.099
X-9.948Y-31.039Z-.599
X-10.Y-31.043Z-.099
Z19.137
Y-31.004Z19.59
Y-30.896Z20.031
Y-30.787Z20.312
Y-30.65Z20.581
Y-30.48Z20.842
Y-30.297Z21.069
Y-30.084Z21.283
Y-29.851Z21.475
Y-29.599Z21.642
Y-29.331Z21.782
Y-29.218Z21.831
Y-28.81Z21.965
Y-28.387Z22.038
Y-27.959Z22.049
Y-27.531Z22.031
Y-25.731Z21.985
Y-23.931Z21.979
Y-22.131Z22.012
Y-21.231Z22.042
Y-20.78Z22.049
Y-20.331Z21.996
Y-20.053Z21.927
Y-19.782Z21.831
Y-19.42Z21.653
Y-19.089Z21.43
Y-18.791Z21.163
Y-18.531Z20.857
Y-18.285Z20.461
Y-18.104Z20.031
Y-17.996Z19.59
Y-17.957Z19.137
Z-27.232
Y-18.001Z-27.694
Y-18.114Z-28.132
Y-18.303Z-28.569
Y-18.531Z-28.93
Y-18.703Z-29.141
Y-18.893Z-29.335
Y-19.101Z-29.511
Y-19.323Z-29.667
Y-19.559Z-29.801
Y-19.805Z-29.913
Y-20.065Z-30.003
Y-20.331Z-30.069
Y-20.779Z-30.123
Y-22.131Z-30.153
Y-23.931Z-30.17
Y-25.731Z-30.165
Y-27.531Z-30.138
Y-28.448Z-30.104
Y-28.899Z-30.014
Y-29.331Z-29.855
Y-29.747Z-29.621
Y-30.12Z-29.323
Y-30.439Z-28.969
Y-30.697Z-28.569
Y-30.883Z-28.143
Y-30.999Z-27.694
Y-31.043Z-27.232
Z-.099
X-10.052Y-31.048Z.401
X-10.176Y-31.058Z.901
X-10.324Y-31.07Z1.401
X-10.448Y-31.081Z1.901
X-10.5Y-31.085Z2.401
Z19.137
Y-31.05Z19.589
Y-30.946Z20.031
Y-30.836Z20.322
Y-30.695Z20.599
Y-30.521Z20.868
Y-30.332Z21.101
Y-30.112Z21.321
Y-29.87Z21.516
Y-29.609Z21.685
Y-29.318Z21.831
Y-28.889Z21.98
Y-28.44Z22.061
Y-27.985Z22.073
Y-27.531Z22.054
Y-25.731Z22.008
Y-23.931Z22.002
Y-22.131Z22.035
Y-21.231Z22.066
Y-20.78Z22.076
Y-20.331Z22.029
Y-20.001Z21.949
Y-19.682Z21.831
Y-19.366Z21.671
Y-19.072Z21.473
Y-18.784Z21.223
Y-18.531Z20.937
Y-18.384Z20.73
Y-18.253Z20.505
Y-18.143Z20.273
Y-18.054Z20.031
Y-17.95Z19.589
Y-17.915Z19.137
Z-26.769
Z-27.231
Y-17.955Z-27.692
Y-18.066Z-28.137
Y-18.25Z-28.569
Y-18.381Z-28.794
Y-18.531Z-29.007
Y-18.705Z-29.211
Y-18.898Z-29.399
Y-19.112Z-29.573
Y-19.329Z-29.718
Y-19.565Z-29.847
Y-19.811Z-29.954
Y-20.068Z-30.038
Y-20.331Z-30.099
Y-20.78Z-30.146
Y-22.131Z-30.176
Y-23.931Z-30.193
Y-25.731Z-30.188
Y-27.531Z-30.161
Y-28.446Z-30.131
Y-28.898Z-30.047
Y-29.331Z-29.895
Y-29.765Z-29.658
Y-30.154Z-29.352
Y-30.485Z-28.985
Y-30.75Z-28.569
Y-30.932Z-28.142
Y-31.045Z-27.692
Y-31.085Z-27.231
Z2.401
X-10.552Y-31.09Z2.901
X-10.676Y-31.1Z3.401
X-10.824Y-31.112Z3.901
X-10.948Y-31.123Z4.401
X-11.Y-31.127Z4.901
Z19.136
Y-31.096Z19.589
Y-30.995Z20.031
Y-30.889Z20.32
Y-30.753Z20.596
Y-30.579Z20.87
Y-30.398Z21.099
Y-30.182Z21.32
Y-29.945Z21.517
Y-29.688Z21.688
Y-29.415Z21.831
Y-29.331Z21.868
Y-28.9Z22.013
Y-28.445Z22.09
Y-27.988Z22.097
Y-27.531Z22.077
Y-25.731Z22.031
Y-23.931Z22.025
Y-22.131Z22.058
Y-20.78Z22.102
Y-20.331Z22.061
Y-19.95Z21.971
Y-19.585Z21.831
Y-19.291Z21.675
Y-19.011Z21.483
Y-18.758Z21.263
Y-18.531Z21.015
Y-18.363Z20.786
Y-18.221Z20.548
Y-18.101Z20.295
Y-18.005Z20.031
Y-17.904Z19.589
Y-17.873Z19.136
Z-27.231
Y-17.91Z-27.691
Y-18.019Z-28.143
Y-18.197Z-28.569
Y-18.351Z-28.834
Y-18.531Z-29.081
Y-18.708Z-29.279
Y-18.902Z-29.461
Y-19.091Z-29.61
Y-19.334Z-29.768
Y-19.57Z-29.891
Y-19.817Z-29.993
Y-20.071Z-30.072
Y-20.331Z-30.128
Y-20.78Z-30.169
Y-22.131Z-30.199
Y-23.931Z-30.216
Y-25.731Z-30.211
Y-27.531Z-30.184
Y-28.445Z-30.157
Y-28.897Z-30.08
Y-29.331Z-29.935
Y-29.563Z-29.825
Y-29.784Z-29.695
Y-29.993Z-29.547
Y-30.188Z-29.381
Y-30.368Z-29.199
Y-30.531Z-29.002
Y-30.676Z-28.791
Y-30.803Z-28.569
Y-30.981Z-28.141
Y-31.09Z-27.691
Y-31.127Z-27.231
Z4.901
X-11.052Y-31.131Z5.401
X-11.176Y-31.141Z5.901
X-11.324Y-31.153Z6.401
X-11.448Y-31.163Z6.901
X-11.5Y-31.167Z7.401
Y-31.166Z19.298
Y-31.131Z19.653
Y-31.044Z20.031
Y-30.942Z20.317
Y-30.811Z20.592
Y-30.652Z20.851
Y-30.467Z21.092
Y-30.258Z21.313
Y-30.027Z21.511
Y-29.777Z21.685
Y-29.51Z21.831
Y-29.331Z21.911
Y-28.903Z22.047
Y-28.443Z22.118
Y-27.987Z22.12
Y-27.531Z22.1
Y-25.731Z22.054
Y-23.931Z22.048
Y-22.131Z22.081
Y-20.781Z22.127
Y-20.331Z22.093
Y-19.901Z21.993
Y-19.49Z21.831
Y-19.223Z21.684
Y-18.972Z21.51
Y-18.741Z21.311
Y-18.531Z21.09
Y-18.347Z20.849
Y-18.189Z20.59
Y-18.058Z20.317
Y-17.956Z20.031
Y-17.859Z19.588
Y-17.831Z19.136
Z-27.23
Y-17.865Z-27.69
Y-17.973Z-28.15
Y-18.144Z-28.569
Y-18.32Z-28.872
Y-18.531Z-29.153
Y-18.71Z-29.345
Y-18.906Z-29.521
Y-19.116Z-29.678
Y-19.339Z-29.816
Y-19.576Z-29.935
Y-19.822Z-30.031
Y-20.074Z-30.105
Y-20.331Z-30.157
Y-20.78Z-30.192
Y-22.131Z-30.222
Y-23.931Z-30.239
Y-25.731Z-30.234
Y-27.531Z-30.207
Y-28.443Z-30.182
Y-28.895Z-30.113
Y-29.331Z-29.974
Y-29.572Z-29.864
Y-29.802Z-29.732
Y-30.019Z-29.58
Y-30.222Z-29.409
Y-30.408Z-29.222
Y-30.577Z-29.018
Y-30.726Z-28.8
Y-30.856Z-28.569
Y-31.026Z-28.153
Y-31.131Z-27.716
Y-31.169Z-27.243
Y-31.167Z7.401
X-11.552Y-31.171Z7.901
X-11.676Y-31.182Z8.401
X-11.824Y-31.195Z8.901
X-11.948Y-31.206Z9.401
X-12.Y-31.21Z9.901
Z19.061
Y-31.198Z19.477
Y-31.131Z19.888
Y-31.093Z20.031
Y-30.995Z20.315
Y-30.868Z20.587
Y-30.714Z20.845
Y-30.535Z21.085
Y-30.331Z21.307
Y-30.106Z21.506
Y-29.862Z21.682
Y-29.602Z21.831
Y-29.331Z21.952
Y-28.894Z22.084
Y-28.442Z22.146
Y-27.986Z22.143
Y-27.531Z22.123
Y-25.731Z22.077
Y-23.931Z22.071
Y-22.131Z22.104
Y-20.781Z22.151
Y-20.331Z22.124
Y-19.853Z22.016
Y-19.398Z21.831
Y-19.159Z21.695
Y-18.933Z21.537
Y-18.724Z21.359
Y-18.531Z21.162
Y-18.329Z20.907
Y-18.156Z20.632
Y-18.015Z20.338
Y-17.907Z20.031
Y-17.814Z19.588
Y-17.79Z19.135
Z-27.229
Y-17.82Z-27.689
Y-17.927Z-28.158
Y-18.092Z-28.569
Y-18.289Z-28.91
Y-18.531Z-29.223
Y-18.712Z-29.409
Y-18.909Z-29.579
Y-19.12Z-29.731
Y-19.344Z-29.863
Y-19.581Z-29.977
Y-19.827Z-30.069
Y-20.076Z-30.138
Y-20.331Z-30.184
Y-20.781Z-30.215
Y-22.131Z-30.245
Y-23.931Z-30.262
Y-25.731Z-30.257
Y-27.531Z-30.23
Y-28.442Z-30.207
Y-28.894Z-30.144
Y-29.331Z-30.013
Y-29.582Z-29.902
Y-29.821Z-29.768
Y-30.046Z-29.613
Y-30.256Z-29.438
Y-30.449Z-29.245
Y-30.623Z-29.034
Y-30.776Z-28.808
Y-30.908Z-28.569
Y-31.037Z-28.265
Y-31.131Z-27.948
Y-31.185Z-27.656
Y-31.209Z-27.361
Y-31.21Z-26.769
Z9.901
X-12.052Y-31.215Z10.401
X-12.176Y-31.225Z10.901
X-12.324Y-31.237Z11.401
X-12.448Y-31.248Z11.901
X-12.5Y-31.252Z12.401
Z19.135
Y-31.231Z19.587
Y-31.142Z20.031
Y-31.131Z20.069
Y-31.035Z20.345
Y-30.911Z20.609
Y-30.762Z20.86
Y-30.589Z21.095
Y-30.393Z21.312
Y-30.177Z21.508
Y-29.942Z21.682
Y-29.691Z21.831
Y-29.331Z21.993
Y-28.893Z22.117
Y-28.44Z22.173
Y-25.731Z22.1
Y-23.931Z22.094
Y-22.131Z22.127
Y-20.781Z22.175
Y-20.331Z22.154
Y-20.066Z22.109
Y-19.805Z22.039
Y-19.552Z21.947
Y-19.309Z21.831
Y-18.895Z21.565
Y-18.531Z21.233
Y-18.311Z20.965
Y-18.123Z20.672
Y-17.971Z20.36
Y-17.858Z20.031
Y-17.769Z19.587
Y-17.748Z19.135
Z-27.229
Y-17.775Z-27.688
Y-17.881Z-28.168
Y-18.039Z-28.569
Y-18.258Z-28.948
Y-18.531Z-29.29
Y-18.714Z-29.471
Y-18.913Z-29.636
Y-19.125Z-29.782
Y-19.348Z-29.909
Y-19.585Z-30.018
Y-19.831Z-30.105
Y-20.079Z-30.169
Y-20.331Z-30.212
Y-21.231Z-30.249
Y-22.131Z-30.268
Y-23.931Z-30.285
Y-25.731Z-30.28
Y-27.531Z-30.253
Y-28.44Z-30.231
Y-28.893Z-30.175
Y-29.331Z-30.05
Y-29.591Z-29.94
Y-29.839Z-29.805
Y-30.09Z-29.634
Y-30.291Z-29.467
Y-30.49Z-29.267
Y-30.669Z-29.05
Y-30.826Z-28.816
Y-30.961Z-28.569
Y-31.131Z-28.126
Y-31.209Z-27.793
Y-31.248Z-27.453
Y-31.252Z-26.769
Z12.401
X-12.552Y-31.256Z12.901
X-12.676Y-31.267Z13.401
X-12.824Y-31.279Z13.901
X-12.948Y-31.289Z14.401
X-13.Y-31.294Z14.9
Z19.134
Y-31.275Z19.587
Y-31.191Z20.031
Y-31.131Z20.224
Y-31.032Z20.473
Y-30.91Z20.712
Y-30.767Z20.939
Y-30.604Z21.152
Y-30.422Z21.35
Y-30.223Z21.529
Y-30.008Z21.69
Y-29.779Z21.831
Y-29.331Z22.033
Y-28.891Z22.151
Y-28.439Z22.2
Y-27.531Z22.169
Y-25.731Z22.123
Y-23.931Z22.117
Y-22.131Z22.15
Y-20.781Z22.199
Y-20.331Z22.184
Y-20.042Z22.137
Y-19.759Z22.063
Y-19.484Z21.96
Y-19.221Z21.831
Y-18.857Z21.592
Y-18.531Z21.302
Y-18.292Z21.021
Y-18.09Z20.712
Y-17.928Z20.381
Y-17.809Z20.031
Y-17.725Z19.587
Y-17.706Z19.134
Z-27.228
Y-17.73Z-27.687
Y-17.824Z-28.138
Y-17.987Z-28.569
Y-18.227Z-28.985
Y-18.531Z-29.356
Y-18.738Z-29.55
Y-18.962Z-29.724
Y-19.353Z-29.954
Y-19.59Z-30.058
Y-19.835Z-30.14
Y-20.081Z-30.2
Y-20.331Z-30.239
Y-22.131Z-30.291
Y-23.931Z-30.308
Y-25.731Z-30.303
Y-27.531Z-30.276
Y-28.439Z-30.255
Y-28.892Z-30.205
Y-29.331Z-30.087
Y-29.6Z-29.977
Y-29.857Z-29.84
Y-30.113Z-29.67
Y-30.325Z-29.495
Y-30.53Z-29.29
Y-30.715Z-29.066
Y-30.876Z-28.825
Y-31.013Z-28.569
Y-31.131Z-28.278
Y-31.233Z-27.91
Y-31.286Z-27.531
Y-31.294Z-26.769
Z14.9
X-13.052Y-31.298Z15.4
X-13.176Y-31.308Z15.9
X-13.324Y-31.321Z16.4
X-13.448Y-31.331Z16.9
X-13.5Y-31.335Z17.4
Z19.134
Y-31.32Z19.586
Y-31.239Z20.031
Y-31.131Z20.361
Y-30.913Z20.804
Y-30.623Z21.204
Y-30.27Z21.549
Y-29.865Z21.831
Y-29.604Z21.965
Y-29.331Z22.072
Y-28.89Z22.183
Y-28.438Z22.226
Y-27.531Z22.193
Y-25.731Z22.146
Y-23.931Z22.14
Y-22.131Z22.173
Y-20.781Z22.222
Y-20.331Z22.213
Y-20.019Z22.166
Y-19.713Z22.086
Y-19.417Z21.974
Y-19.135Z21.831
Y-18.818Z21.62
Y-18.531Z21.369
Y-18.273Z21.076
Y-18.057Z20.752
Y-17.885Z20.401
Y-17.761Z20.031
Y-17.68Z19.586
Y-17.665Z19.134
Z-27.228
Y-17.686Z-27.686
Y-17.776Z-28.137
Y-17.936Z-28.569
Y-18.069Z-28.824
Y-18.195Z-29.021
Y-18.354Z-29.228
Y-18.531Z-29.42
Y-18.728Z-29.599
Y-18.941Z-29.76
Y-19.357Z-29.998
Y-19.594Z-30.097
Y-19.838Z-30.175
Y-20.331Z-30.265
Y-22.131Z-30.314
Y-23.931Z-30.331
Y-25.731Z-30.326
Y-27.531Z-30.299
Y-28.438Z-30.278
Y-28.89Z-30.235
Y-29.331Z-30.123
Y-29.61Z-30.013
Y-29.876Z-29.876
Y-30.136Z-29.706
Y-30.359Z-29.524
Y-30.571Z-29.313
Y-30.761Z-29.082
Y-30.926Z-28.833
Y-31.064Z-28.569
Y-31.131Z-28.412
Y-31.256Z-28.014
Y-31.323Z-27.602
Y-31.335Z-26.769
Z17.4
X-13.552Y-31.34Z17.901
X-13.676Y-31.35Z18.401
X-13.824Y-31.362Z18.901
X-13.888Y-31.368Z19.133
X-13.978Y-31.362Z19.586
X-14.Y-31.311Z19.896
Y-31.287Z20.031
Y-31.131Z20.487
Y-30.918Z20.888
Y-30.645Z21.251
Y-30.319Z21.568
Y-29.949Z21.831
Y-29.648Z21.989
Y-29.331Z22.11
Y-28.889Z22.215
Y-28.436Z22.251
Y-27.531Z22.216
Y-25.731Z22.169
Y-23.931Z22.163
Y-22.131Z22.196
Y-20.782Z22.246
Y-20.331Z22.242
Y-19.996Z22.195
Y-19.668Z22.11
Y-19.352Z21.988
Y-19.051Z21.831
Y-18.78Z21.648
Y-18.531Z21.435
Y-18.255Z21.131
Y-18.023Z20.791
Y-17.841Z20.422
Y-17.713Z20.031
Y-17.636Z19.586
Y-17.623Z19.133
Z-27.227
Y-17.641Z-27.685
Y-17.728Z-28.136
Y-17.884Z-28.569
Y-18.027Z-28.845
Y-18.164Z-29.057
Y-18.337Z-29.279
Y-18.531Z-29.483
Y-18.919Z-29.795
Y-19.135Z-29.927
Y-19.36Z-30.041
Y-19.597Z-30.135
Y-19.841Z-30.208
Y-20.331Z-30.29
Y-22.131Z-30.337
Y-23.931Z-30.354
Y-25.731Z-30.349
Y-27.531Z-30.322
Y-28.437Z-30.3
Y-28.889Z-30.264
Y-29.331Z-30.159
Y-29.619Z-30.05
Y-29.894Z-29.911
Y-30.159Z-29.741
Y-30.394Z-29.552
Y-30.612Z-29.336
Y-30.806Z-29.098
Y-30.975Z-28.842
Y-31.131Z-28.535
Y-31.279Z-28.111
Y-31.361Z-27.667
Y-31.377Z-27.218
Z19.133
Y-31.364Z19.586
Y-31.311Z19.896
X-14.004Y-31.289Z20.023
X-14.04Y-31.198Z20.305
X-14.105Y-31.093Z20.583
X-14.221Y-30.902Z20.948
X-14.344Y-30.659Z21.285
X-14.446Y-30.366Z21.582
X-14.498Y-30.031Z21.831
X-14.5Y-29.95Z21.875
Y-29.692Z22.013
Y-29.331Z22.148
Y-28.888Z22.247
Y-28.435Z22.276
Y-27.531Z22.239
Y-25.731Z22.192
Y-23.931Z22.186
Y-22.131Z22.219
Y-20.782Z22.269
Y-20.331
Y-19.973Z22.223
Y-19.623Z22.134
Y-19.287Z22.003
Y-18.969Z21.831
Y-18.742Z21.675
Y-18.531Z21.499
Y-18.236Z21.184
Y-17.989Z20.829
Y-17.798Z20.442
Y-17.665Z20.031
Y-17.592Z19.585
Y-17.581Z19.133
Z-27.227
Y-17.597Z-27.684
Y-17.68Z-28.136
Y-17.832Z-28.569
Y-17.984Z-28.865
Y-18.132Z-29.092
Y-18.32Z-29.328
Y-18.531Z-29.544
Y-18.897Z-29.83
Y-19.125Z-29.967
Y-19.364Z-30.082
Y-19.601Z-30.172
Y-19.844Z-30.241
Y-20.331Z-30.315
Y-22.131Z-30.36
Y-22.726Z-30.369
Y-23.931Z-30.377
Y-26.147Z-30.369
Y-27.531Z-30.345
Y-28.436Z-30.323
Y-28.888Z-30.292
Y-29.331Z-30.194
Y-29.619Z-30.09
Y-29.894Z-29.957
Y-30.16Z-29.792
Y-30.395Z-29.609
Y-30.616Z-29.399
Y-30.813Z-29.167
Y-30.986Z-28.915
Y-31.131Z-28.648
Y-31.168Z-28.569
Y-31.32Z-28.136
Y-31.403Z-27.684
Y-31.419Z-27.227
Z19.133
Y-31.408Z19.585
Y-31.335Z20.031
Y-31.248Z20.322
Y-31.131Z20.603
Y-30.925Z20.966
Y-30.669Z21.296
Y-30.369Z21.586
Y-30.031Z21.831
Y-29.95Z21.875
X-14.516Y-29.716Z22.001
X-14.595Y-29.325Z22.157
X-14.72Y-28.886Z22.26
X-14.853Y-28.435Z22.293
X-14.966Y-27.935Z22.277
X-15.Y-27.538Z22.262
Y-27.531
Y-25.731Z22.215
Y-23.931Z22.209
Y-22.131Z22.242
Y-20.331Z22.297
Y-19.951Z22.252
Y-19.579Z22.158
Y-19.229Z22.02
Y-18.888Z21.831
Y-18.531Z21.561
Y-18.217Z21.236
Y-17.955Z20.867
Y-17.754Z20.462
Y-17.617Z20.031
Y-17.548Z19.585
Y-17.54Z19.133
Z-26.769
Y-17.553Z-27.683
Y-17.633Z-28.135
Y-17.781Z-28.569
Y-17.942Z-28.886
Y-18.099Z-29.127
Y-18.302Z-29.377
Y-18.531Z-29.603
Y-18.874Z-29.864
Y-19.115Z-30.005
Y-19.368Z-30.123
Y-19.84Z-30.272
Y-20.331Z-30.339
Y-22.131Z-30.383
Y-23.931Z-30.4
Y-25.731Z-30.395
Y-27.492Z-30.369
Y-28.435Z-30.346
Y-28.887Z-30.32
Y-29.331Z-30.228
Y-29.614Z-30.13
Y-29.886Z-30.005
Y-30.151Z-29.848
Y-30.384Z-29.675
Y-30.605Z-29.474
Y-30.805Z-29.252
Y-30.981Z-29.011
Y-31.131Z-28.753
Y-31.219Z-28.569
Y-31.366Z-28.139
Y-31.447Z-27.683
Y-31.46Z-26.769
Z19.133
Y-31.452Z19.585
Y-31.383Z20.031
Y-31.278Z20.379
Y-31.131Z20.711
Y-30.922Z21.056
Y-30.668Z21.368
Y-30.404Z21.617
Y-30.112Z21.831
Y-29.735Z22.037
Y-29.331Z22.186
Y-28.887Z22.277
Y-28.434Z22.3
Y-27.538Z22.262
Y-27.532
X-15.053Y-27.032Z22.251
X-15.178Y-26.532Z22.244
X-15.326Y-26.032Z22.238
X-15.406Y-25.731Z22.234
X-15.491Y-25.231Z22.236
X-15.5Y-25.038
Y-23.931Z22.232
Y-22.131Z22.265
Y-20.331Z22.324
Y-19.928Z22.28
Y-19.535Z22.182
Y-19.159Z22.032
Y-18.808Z21.831
Y-18.531Z21.622
Y-18.197Z21.288
Y-17.921Z20.905
Y-17.71Z20.482
Y-17.57Z20.031
Y-17.505Z19.584
Y-17.498Z19.133
Z17.052
Y-17.362Z16.874
Y-17.126Z16.431
Y-16.974Z15.998
Y-16.889Z15.546
Y-16.844Z14.631
Z-23.169
Y-16.862Z-24.969
Y-16.947Z-25.436
Y-17.112Z-25.893
Y-17.367Z-26.304
Y-17.498Z-26.473
Z-26.769
Y-17.51Z-27.682
Y-17.585Z-28.134
Y-17.73Z-28.569
Y-17.899Z-28.906
Y-18.067Z-29.162
Y-18.285Z-29.425
Y-18.531Z-29.661
Y-18.93Z-29.947
Y-19.371Z-30.163
Y-19.843Z-30.303
Y-20.331Z-30.363
Y-22.131Z-30.406
Y-23.931Z-30.423
Y-25.731Z-30.418
Y-27.531Z-30.391
Y-28.436Z-30.369
Y-28.887Z-30.347
Y-29.331Z-30.261
Y-29.61Z-30.17
Y-29.879Z-30.052
Y-30.143Z-29.902
Y-30.375Z-29.738
Y-30.596Z-29.546
Y-30.797Z-29.333
Y-30.976Z-29.101
Y-31.131Z-28.853
Y-31.27Z-28.569
Y-31.413Z-28.143
Y-31.49Z-27.682
Y-31.502Z-26.769
Z-26.473
Y-31.633Z-26.304
Y-31.888Z-25.893
Y-32.051Z-25.441
Y-32.138Z-24.969
Y-32.156Z-23.169
Z14.631
Y-32.111Z15.546
Y-32.026Z15.998
Y-31.874Z16.431
Y-31.657Z16.849
Y-31.534Z17.
Y-31.502Z17.057
Z19.133
Y-31.495Z19.584
Y-31.43Z20.031
Y-31.309Z20.433
Y-31.131Z20.814
Y-30.93Z21.127
Y-30.701Z21.401
Y-30.459Z21.631
Y-30.192Z21.831
Y-29.777Z22.061
Y-29.331Z22.222
Y-28.886Z22.307
Y-28.434Z22.323
Y-27.531Z22.285
Y-25.731Z22.238
Y-25.038Z22.236
X-15.552Y-24.538Z22.237
X-15.676Y-24.038Z22.24
X-15.707Y-23.931Z22.241
X-15.854Y-23.431Z22.258
X-15.967Y-22.931Z22.272
X-16.Y-22.538Z22.281
Y-22.131Z22.288
Y-20.331Z22.35
Y-19.906Z22.309
Y-19.492Z22.207
Y-19.097Z22.047
Y-18.73Z21.831
Y-18.531Z21.682
Y-18.178Z21.339
Y-17.887Z20.942
Y-17.667Z20.502
Y-17.523Z20.031
Y-17.461Z19.581
Y-17.456Z19.127
Z18.341
Y-17.322Z18.231
Y-16.982Z17.881
Y-16.731Z17.462
Y-16.524Z16.958
Y-16.381Z16.431
Y-16.303Z15.986
Y-16.261Z15.535
Y-16.241Z14.631
Z-23.169
Y-16.254Z-24.969
Y-16.305Z-25.421
Y-16.397Z-25.866
Y-16.537Z-26.3
Y-16.731Z-26.711
Y-16.763Z-26.769
Y-17.076Z-27.189
Y-17.257Z-27.368
Y-17.457Z-27.52
Y-17.48Z-27.818
Y-17.523Z-28.068
Y-17.587Z-28.312
Y-17.679Z-28.569
Y-17.856Z-28.925
Y-18.034Z-29.196
Y-18.267Z-29.472
Y-18.531Z-29.718
Y-18.877Z-29.962
Y-19.255Z-30.155
Y-19.657Z-30.291
Y-20.074Z-30.369
Y-20.331Z-30.386
Y-22.131Z-30.429
Y-23.931Z-30.446
Y-25.731Z-30.441
Y-27.531Z-30.414
Y-28.925Z-30.369
Y-29.331Z-30.294
Y-29.607Z-30.209
Y-29.873Z-30.097
Y-30.135Z-29.955
Y-30.366Z-29.798
Y-30.588Z-29.615
Y-30.791Z-29.41
Y-30.972Z-29.187
Y-31.131Z-28.947
Y-31.321Z-28.569
Y-31.41Z-28.322
Y-31.477Z-28.068
Y-31.521Z-27.81
Y-31.543Z-27.519
Y-31.727Z-27.381
Y-31.924Z-27.189
Y-32.237Z-26.769
Y-32.445Z-26.346
Y-32.594Z-25.898
Y-32.693Z-25.437
Y-32.746Z-24.969
Y-32.759Z-23.169
Z14.631
Y-32.739Z15.535
Y-32.697Z15.986
Y-32.619Z16.431
Y-32.468Z16.984
Y-32.359Z17.277
Y-32.218Z17.556
Y-31.985Z17.923
Y-31.677Z18.231
Y-31.544Z18.338
Z19.128
Y-31.539Z19.581
Y-31.477Z20.031
Y-31.34Z20.485
Y-31.131Z20.911
Y-30.944Z21.189
Y-30.735Z21.435
Y-30.513Z21.645
Y-30.27Z21.831
Y-30.05Z21.969
Y-29.82Z22.086
Y-29.579Z22.183
Y-29.331Z22.258
Y-28.885Z22.337
Y-28.433Z22.347
Y-27.531Z22.308
Y-25.731Z22.261
Y-23.931Z22.255
Y-22.538Z22.281
X-16.035Y-22.131Z22.29
X-16.15Y-21.631Z22.313
X-16.297Y-21.132Z22.337
X-16.429Y-20.632Z22.361
X-16.481Y-20.331Z22.375
X-16.5Y-20.041Z22.35
Y-19.885Z22.337
Y-19.449Z22.231
Y-19.036Z22.062
Y-18.652Z21.831
Y-18.531Z21.74
Y-18.337Z21.573
Y-18.159Z21.389
Y-17.997Z21.191
Y-17.853Z20.979
Y-17.728Z20.755
Y-17.623Z20.522
Y-17.545Z20.3
Y-17.476Z20.031
Y-17.42Z19.61
Y-17.415Z19.257
Y-17.403Z19.208
Y-17.365Z19.188
Y-17.021Z18.935
Y-16.731Z18.62
Y-16.472Z18.231
Y-16.267Z17.78
Y-16.128Z17.355
Y-16.019Z16.896
Y-15.944Z16.431
Y-15.876Z15.533
Y-15.87Z14.631
Z-23.169
Y-15.88Z-24.969
Y-15.918Z-25.427
Y-15.985Z-25.882
Y-16.086Z-26.331
Y-16.23Z-26.769
Y-16.446Z-27.228
Y-16.731Z-27.649
Y-16.955Z-27.886
Y-17.206Z-28.094
Y-17.375Z-28.201
Y-17.532Z-28.29
Y-17.629Z-28.569
Y-17.819Z-28.955
Y-18.027Z-29.263
Y-18.264Z-29.534
Y-18.531Z-29.773
Y-18.795Z-29.959
Y-19.166Z-30.156
Y-19.515Z-30.285
Y-19.876Z-30.369
Y-20.331Z-30.409
Y-22.131Z-30.452
Y-23.931Z-30.469
Y-25.731Z-30.464
Y-27.531Z-30.437
Y-28.727Z-30.408
Y-29.124Z-30.369
Y-29.331Z-30.326
Y-29.604Z-30.247
Y-29.868Z-30.141
Y-30.127Z-30.006
Y-30.358Z-29.856
Y-30.562Z-29.696
Y-30.784Z-29.484
Y-30.969Z-29.269
Y-31.131Z-29.037
Y-31.262Z-28.808
Y-31.371Z-28.569
Y-31.468Z-28.288
Y-31.724Z-28.142
Y-31.946Z-27.976
Y-32.147Z-27.785
Y-32.342Z-27.557
Y-32.508Z-27.307
Y-32.652Z-27.044
Y-32.77Z-26.769
Y-32.931Z-26.266
Y-33.058Z-25.622
Y-33.12Z-24.969
Y-33.13Z-23.169
Z14.631
Y-33.124Z15.533
Y-33.056Z16.431
Y-32.931Z17.127
Y-32.767Z17.693
Y-32.528Z18.231
Y-32.231Z18.666
Y-31.859Z19.038
Y-31.691Z19.154
Y-31.585Z19.214
Y-31.581Z19.588
Y-31.524Z20.031
Y-31.459Z20.287
Y-31.371Z20.535
Y-31.262Z20.775
Y-31.131Z21.004
Y-30.959Z21.249
Y-30.768Z21.468
Y-30.566Z21.66
Y-30.348Z21.831
Y-30.111Z21.983
Y-29.861Z22.111
Y-29.601Z22.215
Y-29.331Z22.293
Y-28.885Z22.365
Y-28.432Z22.37
Y-27.531Z22.331
Y-25.731Z22.284
Y-23.931Z22.278
Y-22.131Z22.311
Y-20.331Z22.376
Y-20.041Z22.35
X-16.507Y-19.871Z22.334
X-16.583Y-19.419Z22.226
X-16.709Y-18.988Z22.055
X-16.847Y-18.585Z21.82
X-16.862Y-18.539Z21.788
X-16.928Y-18.332Z21.622
X-16.976Y-18.141Z21.437
X-16.999Y-17.969Z21.234
X-17.Y-17.932Z21.181
Y-17.818Z21.015
Y-17.688Z20.784
Y-17.579Z20.541
Y-17.498Z20.308
Y-17.429Z20.031
Y-17.408Z19.91
Y-17.234Z19.817
Y-17.033Z19.695
Y-16.731Z19.444
Y-16.499Z19.173
Y-16.298Z18.878
Y-16.119Z18.533
Y-16.Z18.231
Y-15.866Z17.792
Y-15.768Z17.343
Y-15.662Z16.431
Y-15.629Z15.532
Y-15.634Z14.631
Z-23.169
Y-15.643Z-24.969
Y-15.712Z-25.876
Y-15.781Z-26.325
Y-15.884Z-26.769
Y-16.022Z-27.189
Y-16.206Z-27.592
Y-16.443Z-27.967
Y-16.731Z-28.303
Y-17.054Z-28.569
Y-17.282Z-28.709
Y-17.524Z-28.822
Y-17.678Z-28.877
Y-17.771Z-29.033
Y-17.892Z-29.208
Y-18.188Z-29.55
Y-18.531Z-29.844
Y-18.762Z-29.997
Y-19.093Z-30.17
Y-19.396Z-30.286
Y-19.711Z-30.369
Y-20.02Z-30.416
Y-20.331Z-30.432
Y-22.131Z-30.475
Y-23.931Z-30.492
Y-25.731Z-30.487
Y-27.531Z-30.46
Y-28.852Z-30.426
Y-29.289Z-30.369
Y-29.596Z-30.289
Y-29.852Z-30.193
Y-30.104Z-30.073
Y-30.335Z-29.936
Y-30.56Z-29.774
Y-30.768Z-29.593
Y-30.959Z-29.393
Y-31.131Z-29.176
Y-31.276Z-28.957
Y-31.316Z-28.886
Y-31.495Z-28.814
Y-31.946Z-28.569
Y-32.233Z-28.338
Y-32.481Z-28.066
Y-32.733Z-27.701
Y-32.931Z-27.301
Y-33.116Z-26.769
Y-33.219Z-26.325
Y-33.288Z-25.876
Y-33.357Z-24.969
Y-33.366Z-23.169
Z14.631
Y-33.371Z15.532
Y-33.338Z16.431
Y-33.232Z17.343
Y-33.133Z17.794
Y-33.Z18.231
Y-32.931Z18.411
Y-32.812Z18.682
Y-32.665Z18.938
Y-32.306Z19.406
Y-31.936Z19.716
Y-31.757Z19.822
Y-31.592Z19.909
Y-31.571Z20.031
Y-31.501Z20.312
Y-31.403Z20.584
Y-31.28Z20.845
Y-31.131Z21.093
Y-30.973Z21.308
Y-30.802Z21.502
Y-30.424Z21.831
Y-30.172Z21.997
Y-29.903Z22.136
Y-29.622Z22.246
Y-29.331Z22.328
Y-28.884Z22.394
Y-28.432Z22.393
Y-27.531Z22.354
Y-25.731Z22.307
Y-23.931Z22.301
Y-22.131Z22.334
Y-20.331Z22.401
Y-19.863Z22.365
Y-19.407Z22.256
Y-18.975Z22.077
Y-18.576Z21.831
Y-18.531Z21.798
Y-18.327Z21.627
Y-18.139Z21.439
Y-17.969Z21.234
Y-17.932Z21.181
X-17.002Y-17.876Z21.1
X-17.033Y-17.725Z20.857
X-17.072Y-17.633Z20.68
X-17.125Y-17.545Z20.483
X-17.197Y-17.411Z20.358
X-17.291Y-17.185Z20.213
X-17.38Y-16.804Z19.987
X-17.399Y-16.736Z19.955
X-17.485Y-16.367Z19.689
X-17.5Y-16.209Z19.48
Y-16.099Z19.318
Y-15.961Z19.06
Y-15.85Z18.79
Y-15.678Z18.231
Y-15.591Z17.786
Y-15.534Z17.336
Y-15.485Z16.431
Y-15.502Z14.631
Z-23.169
Y-15.509Z-24.969
Y-15.545Z-25.872
Y-15.586Z-26.322
Y-15.653Z-26.769
Y-15.788Z-27.313
Y-15.994Z-27.834
Y-16.214Z-28.22
Y-16.489Z-28.569
Y-16.731Z-28.801
Y-16.947Z-28.966
Y-17.179Z-29.107
Y-17.431Z-29.222
Y-17.684Z-29.305
Y-17.746Z-29.321
Y-17.895Z-29.473
Y-18.093Z-29.657
Y-18.531Z-29.971
Y-19.003Z-30.209
Y-19.505Z-30.369
Y-19.916Z-30.436
Y-20.331Z-30.455
Y-22.131Z-30.498
Y-23.931Z-30.515
Y-25.731Z-30.51
Y-27.531Z-30.483
Y-28.883Z-30.449
Y-29.331Z-30.402
Y-29.495Z-30.369
Y-29.954Z-30.226
Y-30.386Z-30.02
Y-30.779Z-29.759
Y-31.131Z-29.444
Y-31.245Z-29.323
Y-31.479Z-29.255
Y-31.868Z-29.081
Y-32.209Z-28.85
Y-32.51Z-28.569
Y-32.74Z-28.287
Y-32.931Z-27.978
Y-33.073Z-27.69
Y-33.186Z-27.39
Y-33.347Z-26.769
Y-33.414Z-26.322
Y-33.455Z-25.872
Y-33.491Z-24.969
Y-33.498Z-23.169
Z14.631
Y-33.515Z16.431
Y-33.466Z17.336
Y-33.409Z17.786
Y-33.322Z18.231
Y-33.161Z18.761
Y-32.931Z19.265
Y-32.662Z19.674
Y-32.328Z20.031
Y-31.977Z20.282
Y-31.57Z20.47
Y-31.496Z20.494
Y-31.345Z20.825
Y-31.131Z21.179
Y-30.835Z21.535
Y-30.499Z21.831
Y-30.226Z22.014
Y-29.944Z22.161
Y-29.643Z22.278
Y-29.331Z22.362
Y-28.883Z22.421
Y-28.432Z22.416
Y-27.531Z22.377
Y-25.731Z22.33
Y-23.931Z22.324
Y-22.131Z22.357
Y-20.331Z22.431
Y-19.853Z22.406
Y-19.384Z22.302
Y-18.94Z22.122
Y-18.531Z21.872
Y-18.478Z21.831
Y-18.241Z21.628
Y-18.027Z21.4
Y-17.828Z21.133
Y-17.679Z20.883
Y-17.591Z20.699
Y-17.509Z20.496
Y-17.268Z20.407
Y-16.989Z20.262
Y-16.731Z20.08
Y-16.672Z20.031
Y-16.357Z19.698
Y-16.209Z19.48
X-17.495Y-16.142Z19.396
X-17.552Y-15.923Z19.076
X-17.676Y-15.703Z18.663
X-17.82Y-15.525Z18.22
X-17.933Y-15.424Z17.783
X-17.991Y-15.38Z17.335
X-18.Y-15.387Z17.245
Y-15.394Z16.431
Y-15.46Z14.631
Z-23.169
Y-15.464Z-24.969
Y-15.46Z-25.869
Y-15.47Z-26.32
Y-15.503Z-26.769
Y-15.577Z-27.244
Y-15.699Z-27.709
Y-15.871Z-28.132
Y-16.127Z-28.569
Y-16.399Z-28.901
Y-16.731Z-29.198
Y-17.166Z-29.461
Y-17.644Z-29.635
Y-17.773Z-29.665
Y-17.885Z-29.735
Y-18.089Z-29.876
Y-18.531Z-30.122
Y-18.877Z-30.262
Y-19.235Z-30.369
Y-19.78Z-30.457
Y-20.331Z-30.478
Y-22.131Z-30.521
Y-23.931Z-30.538
Y-25.731Z-30.533
Y-27.531Z-30.506
Y-28.432Z-30.484
Y-29.331Z-30.445
Y-29.763Z-30.369
Y-30.128Z-30.26
Y-30.48Z-30.115
Y-30.845Z-29.917
Y-31.131Z-29.721
Y-31.245Z-29.661
Y-31.369Z-29.631
Y-31.612Z-29.555
Y-31.885Z-29.436
Y-32.143Z-29.286
Y-32.542Z-28.962
Y-32.873Z-28.569
Y-32.931Z-28.483
Y-33.152Z-28.084
Y-33.317Z-27.66
Y-33.429Z-27.219
Y-33.497Z-26.769
Y-33.53Z-26.32
Y-33.54Z-25.869
Y-33.536Z-24.969
Y-33.54Z-23.169
Z14.631
Y-33.606Z16.431
Y-33.614Z17.333
Y-33.591Z17.783
Y-33.541Z18.231
Y-33.458Z18.674
Y-33.332Z19.107
Y-33.158Z19.524
Y-32.931Z19.913
Y-32.848Z20.031
Y-32.681Z20.236
Y-32.492Z20.422
Y-32.062Z20.728
Y-31.832Z20.842
Y-31.548Z20.943
Y-31.361Z20.988
Y-31.253Z21.145
Y-31.131Z21.312
Y-30.886Z21.586
Y-30.603Z21.831
Y-30.312Z22.027
Y-30.Z22.189
Y-29.672Z22.313
Y-29.331Z22.398
Y-28.883Z22.449
Y-28.431Z22.439
Y-27.531Z22.4
Y-25.731Z22.353
Y-23.931Z22.347
Y-22.131Z22.38
Y-21.23Z22.412
Y-20.78Z22.434
Y-20.331Z22.481
Y-19.854Z22.456
Y-19.388Z22.355
Y-18.942Z22.179
Y-18.531Z21.933
Y-18.396Z21.831
Y-18.016Z21.485
Y-17.702Z21.079
Y-17.652Z20.999
Y-17.46Z20.946
Y-17.209Z20.86
Y-16.963Z20.742
Y-16.731Z20.598
Y-16.421Z20.341
Y-16.152Z20.031
Y-15.871Z19.581
Y-15.692Z19.175
Y-15.551Z18.709
Y-15.459Z18.231
Y-15.409Z17.783
Y-15.386Z17.333
Y-15.387Z17.245
X-18.052Z16.742
X-18.124Y-15.389Z16.431
X-18.268Y-15.409Z15.932
X-18.382Y-15.43Z15.532
X-18.482Y-15.447Z15.032
X-18.5Y-15.456Z14.744
Y-15.46Z14.631
Z-23.169
Y-15.463Z-24.969
Y-15.413Z-26.769
Y-15.447Z-27.236
Y-15.529Z-27.697
Y-15.668Z-28.146
Y-15.871Z-28.569
Y-16.037Z-28.829
Y-16.23Z-29.07
Y-16.467Z-29.305
Y-16.731Z-29.509
Y-17.159Z-29.747
Y-17.623Z-29.904
Y-17.862Z-29.96
Y-18.081Z-30.071
Y-18.531Z-30.259
Y-18.904Z-30.369
Y-19.257Z-30.439
Y-19.614Z-30.477
Y-20.331Z-30.501
Y-22.131Z-30.544
Y-23.931Z-30.561
Y-25.731Z-30.556
Y-27.531Z-30.529
Y-29.331Z-30.479
Y-29.715Z-30.443
Y-30.094Z-30.369
Y-30.626Z-30.2
Y-31.131Z-29.963
Y-31.507Z-29.869
Y-31.853Z-29.741
Y-32.187Z-29.562
Y-32.493Z-29.339
Y-32.726Z-29.119
Y-32.931Z-28.873
Y-33.129Z-28.569
Y-33.332Z-28.146
Y-33.471Z-27.697
Y-33.553Z-27.236
Y-33.587Z-26.769
Y-33.537Z-24.969
Y-33.54Z-23.169
Z14.631
Y-33.569Z15.532
Y-33.625Z16.431
Y-33.69Z17.33
Y-33.702Z17.781
Y-33.689Z18.231
Y-33.64Z18.698
Y-33.547Z19.159
Y-33.414Z19.584
Y-33.201Z20.031
Y-32.931Z20.437
Y-32.754Z20.64
Y-32.557Z20.822
Y-32.349Z20.978
Y-32.111Z21.121
Y-31.634Z21.314
Y-31.358Z21.375
Y-31.287Z21.385
Y-31.131Z21.545
Y-30.803Z21.831
Y-30.467Z22.054
Y-30.106Z22.232
Y-29.725Z22.364
Y-29.331Z22.446
Y-28.882Z22.479
Y-27.531Z22.423
Y-25.731Z22.376
Y-23.931Z22.37
Y-22.131Z22.403
Y-20.331Z22.482
Y-19.84Z22.468
Y-19.356Z22.385
Y-18.932Z22.248
Y-18.531Z22.053
Y-18.197Z21.831
Y-17.878Z21.554
Y-17.724Z21.388
Y-17.508Z21.35
Y-17.106Z21.224
Y-16.731Z21.031
Y-16.443Z20.822
Y-16.186Z20.576
Y-15.977Z20.315
Y-15.799Z20.031
Y-15.595Z19.607
Y-15.453Z19.159
Y-15.36Z18.698
Y-15.311Z18.231
Y-15.298Z17.781
Y-15.31Z17.33
Y-15.375Z16.431
Y-15.431Z15.532
Y-15.456Z14.744
X-18.503Y-15.46Z14.631
X-18.576Z14.131
X-18.709Z13.631
X-18.856Z13.131
X-18.968Z12.631
X-19.Z12.245
Z-23.169
Y-15.463Z-24.969
Y-15.443Z-25.87
Y-15.367Z-26.769
Y-15.361Z-27.23
Y-15.407Z-27.689
Y-15.513Z-28.139
Y-15.682Z-28.569
Y-15.88Z-28.919
Y-16.125Z-29.238
Y-16.41Z-29.517
Y-16.731Z-29.754
Y-17.154Z-29.972
Y-17.608Z-30.116
Y-17.841Z-30.16
Y-18.521Z-30.369
Y-18.976Z-30.456
Y-19.427Z-30.494
Y-20.331Z-30.524
Y-22.131Z-30.567
Y-23.931Z-30.584
Y-25.731Z-30.579
Y-27.531Z-30.552
Y-29.331Z-30.502
Y-29.908Z-30.47
Y-30.477Z-30.369
Y-31.131Z-30.165
Y-31.425Z-30.108
Y-31.712Z-30.024
Y-31.999Z-29.904
Y-32.271Z-29.752
Y-32.624Z-29.488
Y-32.931Z-29.172
Y-33.144Z-28.883
Y-33.318Z-28.569
Y-33.483Z-28.15
Y-33.593Z-27.689
Y-33.639Z-27.23
Y-33.633Z-26.769
Y-33.557Z-25.87
Y-33.537Z-24.969
Y-33.54Z-23.169
Z14.631
Y-33.569Z15.532
Y-33.625Z16.431
Y-33.705Z17.331
Y-33.753Z17.78
Y-33.778Z18.231
Y-33.769Z18.691
Y-33.718Z19.148
Y-33.618Z19.598
Y-33.463Z20.031
Y-33.23Z20.47
Y-32.931Z20.867
Y-32.733Z21.064
Y-32.516Z21.238
Y-32.108Z21.48
Y-31.627Z21.652
Y-31.373Z21.701
Y-31.24Z21.717
Y-31.085Z21.831
Y-30.69Z22.086
Y-30.264Z22.283
Y-29.805Z22.423
Y-29.331Z22.498
Y-28.881Z22.507
Y-27.531Z22.446
Y-25.731Z22.399
Y-23.931Z22.393
Y-22.131Z22.426
Y-20.331Z22.496
Y-19.87Z22.509
Y-19.412Z22.466
Y-18.951Z22.357
Y-18.531Z22.198
Y-18.214Z22.03
Y-17.915Z21.831
Y-17.786Z21.729
Y-17.626Z21.701
Y-17.315Z21.637
Y-17.016Z21.535
Y-16.731Z21.396
Y-16.371Z21.152
Y-16.055Z20.852
Y-15.764Z20.462
Y-15.537Z20.031
Y-15.382Z19.598
Y-15.282Z19.148
Y-15.231Z18.691
Y-15.222Z18.231
Y-15.247Z17.78
Y-15.295Z17.331
Y-15.375Z16.431
Y-15.431Z15.532
Y-15.46Z14.631
Z12.245
X-19.052Z11.745
X-19.176Z11.245
X-19.324Z10.745
X-19.448Z10.245
X-19.5Z9.745
Z-23.169
Y-15.463Z-24.969
Y-15.443Z-25.871
Y-15.41Z-26.322
Y-15.347Z-26.769
Y-15.302Z-27.253
Y-15.324Z-27.738
Y-15.403Z-28.161
Y-15.541Z-28.569
Y-15.755Z-28.982
Y-16.031Z-29.356
Y-16.358Z-29.676
Y-16.731Z-29.939
Y-17.053Z-30.103
Y-17.393Z-30.225
Y-18.531Z-30.453
Y-18.98Z-30.499
Y-20.331Z-30.547
Y-22.131Z-30.59
Y-23.931Z-30.607
Y-25.731Z-30.602
Y-27.531Z-30.575
Y-29.331Z-30.525
Y-30.12Z-30.492
Y-30.512Z-30.446
Y-31.657Z-30.21
Y-31.912Z-30.118
Y-32.157Z-30.002
Y-32.57Z-29.734
Y-32.931Z-29.398
Y-33.23Z-29.006
Y-33.459Z-28.569
Y-33.597Z-28.161
Y-33.676Z-27.738
Y-33.698Z-27.253
Y-33.653Z-26.769
Y-33.59Z-26.322
Y-33.557Z-25.871
Y-33.537Z-24.969
Y-33.54Z-23.169
Z14.631
Y-33.569Z15.532
Y-33.625Z16.431
Y-33.706Z17.333
Y-33.821Z18.231
Y-33.851Z18.685
Y-33.839Z19.14
Y-33.777Z19.591
Y-33.661Z20.031
Y-33.542Z20.332
Y-33.364Z20.67
Y-33.165Z20.96
Y-32.931Z21.225
Y-32.72Z21.413
Y-32.49Z21.578
Y-32.244Z21.718
Y-31.985Z21.831
Y-31.563Z21.951
Y-31.345Z21.984
Y-31.235Z21.994
Y-31.179Z22.004
Y-31.131Z22.034
Y-30.71Z22.248
Y-30.264Z22.405
Y-29.802Z22.504
Y-29.331Z22.544
Y-27.531Z22.469
Y-25.731Z22.422
Y-23.931Z22.416
Y-22.131Z22.449
Y-20.331Z22.52
Y-19.876Z22.543
Y-19.421Z22.531
Y-18.97Z22.463
Y-18.531Z22.34
Y-18.157Z22.188
Y-17.802Z21.997
Y-17.402Z21.944
Y-17.014Z21.831
Y-16.731Z21.706
Y-16.502Z21.574
Y-16.288Z21.42
Y-16.089Z21.245
Y-15.909Z21.052
Y-15.593Z20.598
Y-15.453Z20.321
Y-15.338Z20.031
Y-15.223Z19.591
Y-15.161Z19.14
Y-15.149Z18.685
Y-15.179Z18.231
Y-15.294Z17.333
Y-15.375Z16.431
Y-15.431Z15.532
Y-15.46Z14.631
Z9.745
X-19.552Z9.245
X-19.676Z8.745
X-19.824Z8.245
X-19.948Z7.745
X-20.Z7.245
Z7.244
Z-23.169
Y-15.463Z-24.969
Y-15.442Z-25.872
Y-15.41Z-26.323
Y-15.385Z-26.544
Y-15.33Z-26.769
Y-15.255Z-27.227
Y-15.248Z-27.692
Y-15.309Z-28.138
Y-15.437Z-28.569
Y-15.657Z-29.025
Y-15.954Z-29.436
Y-16.315Z-29.787
Y-16.731Z-30.071
Y-17.109Z-30.248
Y-17.509Z-30.369
Y-18.019Z-30.445
Y-18.531Z-30.502
Y-20.331Z-30.57
Y-22.131Z-30.613
Y-23.931Z-30.63
Y-25.731Z-30.625
Y-27.531Z-30.598
Y-29.331Z-30.548
Y-30.233Z-30.513
Y-30.683Z-30.484
Y-31.131Z-30.427
Y-31.491Z-30.369
Y-31.892Z-30.247
Y-32.271Z-30.069
Y-32.576Z-29.872
Y-32.931Z-29.562
Y-33.126Z-29.339
Y-33.298Z-29.097
Y-33.448Z-28.832
Y-33.563Z-28.569
Y-33.691Z-28.138
Y-33.752Z-27.692
Y-33.745Z-27.227
Y-33.67Z-26.769
Y-33.616Z-26.549
Y-33.59Z-26.323
Y-33.558Z-25.872
Y-33.537Z-24.969
Y-33.54Z-23.169
Z14.631
Y-33.569Z15.532
Y-33.625Z16.431
Y-33.706Z17.334
Y-33.83Z18.231
Y-33.899Z18.679
Y-33.923Z19.132
Y-33.896Z19.585
Y-33.814Z20.031
Y-33.671Z20.458
Y-33.47Z20.86
Y-33.225Z21.211
Y-32.931Z21.523
Y-32.519Z21.831
Y-32.196Z22.
Y-31.851Z22.125
Y-31.494Z22.201
Y-31.312Z22.222
Y-31.221Z22.227
Y-31.131Z22.245
Y-30.715Z22.402
Y-30.251Z22.517
Y-29.793Z22.575
Y-29.331Z22.578
Y-27.531Z22.492
Y-25.731Z22.445
Y-23.931Z22.439
Y-22.131Z22.472
Y-20.331Z22.543
Y-19.428Z22.583
Y-18.976Z22.552
Y-18.531Z22.469
Y-18.084Z22.334
Y-17.866Z22.244
Y-17.749Z22.226
Y-17.632Z22.217
Y-17.167Z22.13
Y-16.731Z21.967
Y-16.48Z21.831
Y-16.254Z21.677
Y-16.044Z21.5
Y-15.852Z21.303
Y-15.681Z21.089
Y-15.525Z20.851
Y-15.392Z20.6
Y-15.275Z20.32
Y-15.186Z20.031
Y-15.104Z19.585
Y-15.077Z19.132
Y-15.101Z18.679
Y-15.17Z18.231
Y-15.294Z17.334
Y-15.375Z16.431
Y-15.431Z15.532
Y-15.46Z14.631
Z7.245
X-20.052Z6.744
X-20.176Z6.244
X-20.324Z5.744
X-20.448Z5.244
X-20.5Z4.744
Z-23.169
Y-15.463Z-24.969
Y-15.442Z-25.875
Y-15.409Z-26.329
Y-15.397Z-26.443
Y-15.292Z-26.769
Y-15.202Z-27.218
Y-15.183Z-27.676
Y-15.236Z-28.129
Y-15.358Z-28.569
Y-15.461Z-28.816
Y-15.586Z-29.052
Y-15.734Z-29.279
Y-15.898Z-29.486
Y-16.083Z-29.68
Y-16.284Z-29.856
Y-16.501Z-30.013
Y-16.731Z-30.15
Y-16.989Z-30.272
Y-17.257Z-30.369
Y-17.569Z-30.447
Y-17.889Z-30.49
Y-18.531Z-30.524
Y-20.331Z-30.593
Y-22.131Z-30.635
Y-23.931Z-30.653
Y-25.731Z-30.648
Y-27.531Z-30.621
Y-29.331Z-30.57
Y-31.131Z-30.488
Y-31.44Z-30.445
Y-31.743Z-30.369
Y-32.069Z-30.247
Y-32.379Z-30.088
Y-32.668Z-29.894
Y-32.931Z-29.666
Y-33.154Z-29.424
Y-33.349Z-29.158
Y-33.515Z-28.864
Y-33.642Z-28.569
Y-33.764Z-28.129
Y-33.816Z-27.676
Y-33.798Z-27.218
Y-33.708Z-26.769
Y-33.603Z-26.451
Y-33.591Z-26.329
Y-33.558Z-25.875
Y-33.537Z-24.969
Y-33.54Z-23.169
Z14.631
Y-33.569Z15.532
Y-33.625Z16.431
Y-33.706Z17.334
Y-33.83Z18.231
Y-33.921Z18.676
Y-33.981Z19.126
Y-33.987Z19.58
Y-33.933Z20.031
Y-33.795Z20.531
Y-33.574Z21.
Y-33.286Z21.412
Y-32.931Z21.768
Y-32.854Z21.831
Y-32.466Z22.085
Y-32.041Z22.27
Y-31.592Z22.382
Y-31.131Z22.425
Y-30.691Z22.54
Y-30.241Z22.61
Y-29.786Z22.629
Y-29.331Z22.601
Y-27.531Z22.515
Y-25.731Z22.468
Y-23.931Z22.462
Y-22.131Z22.495
Y-20.331Z22.567
Y-19.432Z22.616
Y-18.98Z22.621
Y-18.531Z22.579
