%
O0100
(SONCHU POSTPROCESSOR A.I.C TAICHUNG)
G40G49G90G80
G17G00G54X0.Y0.
/G05.1 Q1
(TOOL: D12_SC30)
M03S2200
G43Z0.H1
M8
G00X-55.428Y-39.912
Z-28.979
G01X-56.428F1000. 
X-57.428
X-57.584Y-39.751Z-28.924
X-57.736Y-39.592Z-28.852
X-57.882Y-39.438Z-28.763
X-58.023Y-39.288Z-28.658
X-58.157Y-39.143Z-28.537
X-58.283Y-39.005Z-28.402
X-58.402Y-38.874Z-28.253
X-58.511Y-38.752Z-28.09
X-58.61Y-38.638Z-27.916
X-58.699Y-38.533Z-27.73
X-58.778Y-38.438Z-27.535
X-58.845Y-38.354Z-27.331
X-58.9Y-38.281Z-27.119
X-58.944Y-38.219Z-26.9
X-58.975Y-38.169Z-26.677
X-58.994Y-38.132Z-26.45
X-59.Y-38.106Z-26.22
Y-37.922Z-23.981
Y-37.832Z-22.612
Y-37.744Z-20.751
Y-37.665Z-18.389
Y-37.605Z-14.53
Y-37.591Z-7.166
Y-37.602Z2.668
Y-37.622Z5.6
Y-37.659Z8.022
Y-37.725Z10.416
Y-37.805Z12.305
Y-37.941Z14.632
Y-38.106Z16.932
Y-38.499Z16.713
Z-25.874
Y-38.106Z-26.22
X-56.Y-43.273Z-25.663
G00X50.
Y7.481Z-29.385
X-53.553
G01X-54.553F1000.
X-54.88Y7.454Z-29.291
X-55.201Y7.423Z-29.179
X-55.515Y7.387Z-29.05
X-55.821Y7.347Z-28.903
X-56.118Y7.301Z-28.74
X-56.404Y7.252Z-28.562
X-56.68Y7.198Z-28.367
X-56.943Y7.139Z-28.158
X-57.194Y7.077Z-27.935
X-57.431Y7.012Z-27.699
X-57.654Y6.942Z-27.449
X-57.862Y6.87Z-27.188
X-58.054Y6.794Z-26.917
X-58.23Y6.716Z-26.635
X-58.389Y6.635Z-26.343
X-58.53Y6.551Z-26.044
X-58.654Y6.466Z-25.737
X-58.759Y6.379Z-25.424
X-58.845Y6.29Z-25.106
X-58.913Y6.201Z-24.784
X-58.961Y6.11Z-24.458
X-58.99Y6.019Z-24.13
X-59.Y5.928Z-23.801
Y5.794Z-23.32
Y5.737Z-23.096
Y5.699Z-22.927
Y5.576Z-22.319
Y5.516Z-21.96
Y5.461Z-21.566
Y5.428Z-21.275
Y-2.831Z-1.336
Y-6.375Z12.904
Y-4.209Z-1.61
Z-23.2
Y-4.134Z-23.45
Y-4.042Z-23.802
Y5.928Z-23.801
Y5.904Z-23.621
Y5.889Z-23.447
Y5.86Z-23.098
Y5.849Z-22.926
Z-22.756
Y5.851Z-22.585
Y5.855Z-22.414
Y5.861Z-22.242
Y5.902Z-21.874
Y5.944Z-21.505
Y5.952Z-21.45
Y5.956Z-21.422
Y5.96Z-21.394
Y5.964Z-21.365
Y5.967Z-21.336
Y5.971Z-21.306
Y5.974Z-21.275
Y5.977Z-21.244
Y5.98Z-21.211
Y5.983Z-21.177
Y5.986Z-21.143
Y5.991Z-21.072
Y5.996Z-21.
Y6.005Z-20.86
Y6.014Z-20.721
Y6.033Z-20.441
Y6.069Z-20.181
Y6.105Z-19.921
Y6.142Z-19.661
Y6.18Z-19.402
Y6.219Z-19.142
Y6.258Z-18.883
Y6.335Z-18.365
Y6.487Z-17.654
Y6.834Z-16.243
Y6.904Z-15.958
Y6.973Z-15.674
Y7.042Z-15.388
Y7.111Z-15.103
Y7.178Z-14.817
Y7.244Z-14.531
Y7.309Z-14.246
Y7.372Z-13.961
Y7.433Z-13.676
Y7.491Z-13.393
Y7.546Z-13.11
Y7.598Z-12.829
Y7.647Z-12.548
Y7.696Z-12.268
Y7.742Z-11.988
Y7.784Z-11.711
Y7.821Z-11.436
Y7.852Z-11.162
Y7.877Z-10.89
Y7.896Z-10.622
Y7.907Z-10.354
Y7.912Z-10.088
Y7.909Z-9.822
Y7.899Z-9.557
Y7.882Z-9.308
Y7.855Z-9.059
Y7.82Z-8.816
Y7.779Z-8.587
Y7.734Z-8.362
Y7.644Z-7.913
Y7.556Z-7.6
Z-7.599
Y-2.412Z16.467
Y-2.658Z17.007
Y-2.871Z17.451
Y-2.985Z17.681
Y-3.151Z17.811
Y-3.311Z17.944
Y-3.643Z18.245
Y-3.832Z18.436
Y-4.135Z18.774
Y-4.261Z18.928
Y-4.444Z19.171
Y-4.628Z19.438
Y-4.913Z19.913
Y-5.12Z20.324
Y-5.158Z20.405
Y-5.356Z20.898
Y-5.514Z21.39
Y-5.612Z21.79
Y-5.632Z21.882
Y-5.714Z22.375
Y-5.76Z22.867
Y-5.771Z23.359
Y-5.747Z23.852
Y-5.689Z24.344
Y-5.612Z24.754
Y-5.594Z24.836
Y-5.462Z25.329
Y-5.291Z25.821
Y-5.107Z26.313
Y-4.882Z26.806
Y-4.628Z27.264
Y-4.447Z27.548
Y-4.276Z27.79
Y-4.135Z27.976
Y-3.879Z28.283
Y-3.643Z28.538
Y-3.403Z28.775
Y-3.151Z29.002
Y-2.82Z29.267
Y-2.658Z29.387
Y-2.415Z29.552
Y-2.166Z29.707
Y-2.074Z29.76
Y-1.674Z29.972
Y-1.181Z30.19
Y-1.017Z30.252
Y-.689Z30.364
Y-.197Z30.503
Y.296Z30.814
Y.788Z31.087
Y1.115Z31.237
Y1.28Z31.306
Y3.642Z32.219
Y4.953Z32.752
Y6.564Z33.447
Y8.666Z34.406
Y9.158Z34.595
Y11.62Z35.483
Y12.112Z35.641
Y12.216Z35.668
Y12.604Z35.76
Y13.097Z35.837
Y13.589Z35.883
Y14.081Z35.895
Y14.574Z35.868
Y15.066Z35.81
Y15.558Z35.714
Y15.743Z35.668
Y16.051Z35.579
Y16.543Z35.422
Y17.035Z35.245
Y17.197Z35.175
Y17.528Z35.022
Y18.02Z34.752
Y18.131Z34.683
Y18.512Z34.425
Y18.82Z34.191
Y19.005Z34.037
Y19.366Z33.698
Y19.497Z33.564
Y19.812Z33.206
Y19.989Z32.983
Y20.182Z32.714
Y20.493Z32.221
Y20.747Z31.729
Y20.955Z31.237
Y21.12Z30.744
Y21.247Z30.252
Y21.336Z29.76
Y21.39Z29.267
Y21.409Z28.775
Y21.393Z28.283
Y21.342Z27.79
Y21.333Z27.72
Y21.466Z27.331
Y21.655Z26.806
Y21.744Z26.569
Y21.959Z26.046
Y32.298Z1.086
Y34.235Z-3.471
Y35.461Z-6.204
Y36.597Z-8.556
Y37.283Z-9.901
Y38.175Z-11.597
Y38.206Z-11.662
Y38.5Z-11.843
Y38.498Z-11.597
Z-9.627
Y38.5Z-9.381
Y38.452Z-9.321
Y38.071Z-8.889
Y37.976Z-8.766
Y36.086Z-4.212
Y32.621Z4.158
Y32.521Z4.404
Y32.502Z4.651
Z19.63
Y32.495Z19.744
Y32.476Z19.855
Y30.914Z26.678
Y30.885Z26.792
Y30.852Z26.904
Y30.816Z27.016
Y30.776Z27.126
Y30.708Z27.288
Y30.633Z27.448
Y30.55Z27.603
Y30.46Z27.754
Y30.395Z27.852
Y30.328Z27.947
Y30.257Z28.041
Y30.183Z28.132
Y30.101Z28.226
Y30.026Z28.306
Y29.943Z28.389
Y29.858Z28.47
Y29.77Z28.547
Y29.679Z28.622
Y29.587Z28.693
Y29.491Z28.762
Y29.344Z28.858
Y29.193Z28.947
Y29.089Z29.003
Y28.984Z29.054
Y28.877Z29.102
Y28.768Z29.147
Y28.658Z29.188
Y28.547Z29.225
Y28.435Z29.259
Y28.321Z29.289
Y28.207Z29.315
Y28.092Z29.337
Y27.976Z29.355
Y27.86Z29.37
Y27.743Z29.38
Y27.626Z29.387
Y27.509Z29.39
Y27.391Z29.389
Y27.274Z29.384
Y27.157Z29.375
Y26.983Z29.354
Y26.809Z29.325
Y26.694Z29.301
Y26.58Z29.273
Y26.468Z29.241
Y26.291Z29.182
Y26.136Z29.123
Y26.028Z29.077
Y25.922Z29.027
Y25.818Z28.973
Y25.665Z28.886
Y25.517Z28.792
Y25.367Z28.685
Y25.235Z28.582
Y25.097Z28.461
Y24.975Z28.344
Y24.894Z28.26
Y24.778Z28.127
Y24.668Z27.99
Y24.599Z27.895
Y24.533Z27.798
Y24.47Z27.699
Y24.411Z27.598
Y24.328Z27.443
Y24.253Z27.284
Y24.208Z27.176
Y24.166Z27.066
Y24.128Z26.955
Y24.093Z26.843
Y24.067Z26.748
Y24.035Z26.616
Y24.012Z26.501
Y23.993Z26.385
Y23.977Z26.269
Y23.962Z26.089
Y23.954Z25.918
Y23.956Z25.737
Y23.962Z25.62
Y23.972Z25.503
Y23.985Z25.387
Y24.003Z25.271
Y24.024Z25.155
Y24.05Z25.041
Y24.079Z24.927
Y24.129Z24.76
Y24.188Z24.593
Y24.255Z24.432
Y24.33Z24.271
Y24.388Z24.162
Y24.443Z24.065
Y24.504Z23.965
Y24.585Z23.844
Y24.636Z23.772
Y24.707Z23.678
Y24.786Z23.582
Y24.858Z23.499
Y24.938Z23.413
Y25.02Z23.33
Y25.15Z23.21
Y25.284Z23.097
Y25.425Z22.991
Y25.57Z22.892
Y25.67Z22.83
Y25.796Z22.758
Y25.94Z22.665
Y30.875Z18.834
Y31.021Z18.74
Y31.179Z18.673
Y31.348Z18.633
Y31.52Z18.623
Y31.692Z18.642
Y31.858Z18.69
Y32.013Z18.766
Y32.153Z18.868
Y32.273Z18.992
Y32.371Z19.134
Y32.443Z19.291
Y32.487Z19.458
Y32.502Z19.63
Z30.744
Y32.503Z30.991
Y22.943Z31.002
Y22.605Z31.005
Y22.576Z31.021
Y22.197Z31.676
Y21.915Z32.123
Y21.405Z32.825
Y20.594Z33.786
Y19.92Z34.488
Y19.425Z34.937
Y18.61Z35.577
Y17.738Z36.184
Y16.543Z36.972
Y16.42Z37.
Y11.496Z36.998
Y9.052Z35.913
Y5.896Z34.437
Y5.219Z34.145
Y4.727Z33.937
Y4.235Z33.733
Y3.742Z33.533
Y3.004Z33.246
Y.293Z32.262
Y-2.904Z31.004
Y-3.151Z31.002
Y-31.733Z30.997
Y-32.504Z30.99
Y-32.502Z30.744
Z28.283
Y-34.688Z27.204
Y-35.579Z26.723
Y-36.137Z26.391
Y-36.906Z25.877
Y-37.592Z25.359
Y-38.498Z24.529
Y-38.499Z22.375
Y-38.139Z22.128
Y-38.037Z22.375
Y-37.799Z22.867
Y-37.614Z23.194
Y-37.51Z23.359
Y-37.164Z23.852
Y-37.122Z23.906
Y-36.745Z24.344
Y-36.283Z24.836
Y-36.137Z24.979
Y-35.729Z25.329
Y-35.645Z25.398
Y-35.152Z25.744
Y-35.033Z25.821
Y-34.66Z26.036
Y-34.168Z26.275
Y-34.079Z26.313
Y-33.675Z26.475
Y-33.183Z26.629
Y-32.691Z26.748
Y-32.356Z26.806
Y-32.198Z26.829
Y-31.706Z26.874
Y-31.214Z26.885
Y-30.721Z26.861
Y-30.176Z26.797
Y-29.737Z26.887
Y-29.244Z26.954
Y-28.752Z26.985
Y-28.26Z26.982
Y-27.767Z26.944
Y-27.275Z26.871
Y-26.966Z26.806
Y-26.783Z26.761
Y-26.29Z26.631
Y-25.798Z26.621
Y-24.813Z26.611
Y-23.829Z26.612
Y-22.69Z26.631
Y-22.598Z26.661
Y-22.352Z26.736
Y-22.081Z26.806
Y-21.859Z26.856
Y-21.367Z26.938
Y-20.875Z26.986
Y-20.382Z26.998
Y-19.89Z26.976
Y-19.398Z26.919
Y-18.905Z26.826
Y-18.81Z26.804
Y-18.413Z26.848
Y-17.921Z26.882
Y-17.428Z26.88
Y-16.936Z26.844
Y-16.644Z26.806
Y-16.444Z26.773
Y-15.951Z26.665
Y-15.459Z26.519
Y-14.967Z26.333
Y-14.922Z26.313
Y-14.474Z26.102
Y-14.225Z25.966
Y-13.982Z25.821
Y-13.732Z25.657
Y-13.49Z25.483
Y-13.291Z25.329
Y-12.711Z24.836
Y-12.505Z24.647
Y-12.207Z24.344
Y-12.013Z24.124
Y-11.793Z23.852
Y-11.52Z23.47
Y-11.448Z23.359
Y-11.299Z23.116
Y-11.161Z22.867
Y-11.028Z22.601
Y-10.924Z22.375
Y-10.733Z21.882
Y-10.583Z21.39
Y-10.536Z21.2
Y-10.471Z20.898
Y-10.395Z20.405
Y-10.355Z19.913
Y-10.35Z19.421
Y-10.38Z18.928
Y-10.444Z18.436
Y-10.536Z17.985
Y-10.545Z17.944
Y-10.684Z17.451
Y-10.862Z16.959
Y-11.028Z16.584
Y-11.085Z16.467
Y-11.348Z15.974
Y-11.378Z15.482
Y-11.4Z14.99
Y-11.409Z14.497
Z-24.397
Y-11.226Z-24.89
Y-11.07Z-25.382
Y-11.028Z-25.545
Y-10.953Z-25.874
Y-10.873Z-26.367
Y-10.829Z-26.859
Y-10.819Z-27.351
Y-10.843Z-27.844
Y-10.903Z-28.336
Y-10.999Z-28.828
Y-11.028Z-28.946
Y-11.132Z-29.321
Y-11.306Z-29.813
Y-11.522Z-30.305
Y-11.649Z-30.554
Y-11.786Z-30.798
Y-12.013Z-31.159
Y-12.105Z-31.29
Y-12.486Z-31.782
Y-12.997Z-32.352
Y-13.42Z-32.767
Y-13.49Z-32.829
Y-14.032Z-33.259
Y-14.474Z-33.552
Y-14.828Z-33.752
Y-14.967Z-33.825
Y-15.459Z-34.048
Y-15.951Z-34.229
Y-16.444Z-34.367
Y-16.936Z-34.471
Y-17.551Z-34.554
Y-17.674Z-34.611
Y-17.921Z-34.717
Y-18.413Z-34.894
Y-18.905Z-35.029
Y-19.398Z-35.129
Y-19.89Z-35.194
Y-20.382Z-35.221
Y-20.875Z-35.213
Y-21.367Z-35.175
Y-21.859Z-35.098
Y-22.352Z-34.983
Y-22.844Z-34.833
Y-23.152Z-34.714
Y-23.829Z-34.721
Y-25.306
Y-25.86Z-34.718
Y-26.29Z-34.875
Y-26.783Z-35.017
Y-27.275Z-35.121
Y-27.767Z-35.186
Y-28.26Z-35.221
Y-28.752Z-35.217
Y-29.244Z-35.179
Y-29.737Z-35.106
Y-30.229Z-34.998
Y-30.721Z-34.848
Y-31.025Z-34.736
Y-31.214Z-34.659
Y-31.46Z-34.55
Y-31.706Z-34.521
Y-32.198Z-34.444
Y-32.691Z-34.333
Y-32.995Z-34.244
Y-33.183Z-34.182
Y-33.675Z-33.99
Y-34.168Z-33.756
Y-34.66Z-33.467
Y-34.968Z-33.259
Y-35.152Z-33.121
Y-35.579Z-32.767
Y-35.645Z-32.705
Y-36.072Z-32.275
Y-36.514Z-31.782
Y-36.629Z-31.644
Y-36.895Z-31.29
Y-37.122Z-30.952
Y-37.214Z-30.798
Y-37.479Z-30.305
Y-37.614Z-30.009
Y-37.695Z-29.813
Y-37.868Z-29.321
Y-38.003Z-28.828
Y-38.099Z-28.336
Y-38.106Z-28.271
Y-38.499Z-28.09
Y-38.491Z-31.29
Y-38.341Z-31.782
Y-36.543Z-33.313
Y-35.187Z-34.281
Y-33.782Z-35.159
Y-33.496Z-35.323
Y-32.883Z-35.524
Y-30.726Z-36.166
Y-28.642Z-36.21
Y-26.974Z-36.213
Y-25.306Z-36.194
Y-23.829
Y-22.157Z-36.204
Y-20.912Z-36.199
Y-19.688Z-36.163
Y-18.9Z-36.104
Y-18.15Z-35.999
Y-17.793Z-35.925
Y-17.116Z-35.734
Y-16.151Z-35.383
Y-15.207Z-35.003
Y-13.987Z-34.446
Y-13.711Z-34.274
Y-12.697Z-33.508
Y-11.481Z-32.509
Y-11.041Z-32.084
Y-10.697Z-31.652
Y-10.228Z-31.019
Y-10.166Z-31.004
Y-10.043Z-31.002
Y32.501Z-31.001
Y32.502Z-24.89
Y32.505Z-24.674
Y32.513Z-24.657
Y33.833Z-23.8
Y34.935Z-23.018
Y36.696Z-21.692
Y38.452Z-20.299
Y38.5Z-20.212
Y38.498Z-19.966
Z-17.997
Y38.235Z-17.751
Y38.129Z-17.997
Y37.883Z-18.489
Y37.713Z-18.778
Y37.583Z-18.982
Y37.225Z-19.474
Y36.794Z-19.966
Y36.729Z-20.032
Y36.236Z-20.486
Y35.744Z-20.859
Y35.606Z-20.951
Y35.252Z-21.17
Y35.006Z-21.305
Y34.856Z-21.443
Y34.759Z-21.543
Y34.34Z-21.936
Y34.267Z-21.997
Y33.775Z-22.378
Y33.282Z-22.69
Y32.852Z-22.92
Y32.79Z-22.951
Y32.298Z-23.164
Y31.805Z-23.335
Y31.528Z-23.413
Y31.313Z-23.466
Y30.821Z-23.559
Y30.328Z-23.616
Y29.836Z-23.639
Y28.359Z-24.255
Y27.355Z-24.665
Y27.104Z-24.89
Y26.882Z-25.081
Y26.488Z-25.382
Y26.39Z-25.451
Y26.147Z-25.61
Y25.897Z-25.759
Y25.685Z-25.874
Y25.405Z-26.013
Y24.913Z-26.221
Y24.486Z-26.367
Y24.42Z-26.387
Y23.928Z-26.513
Y23.436Z-26.602
Y22.943Z-26.656
Y22.451Z-26.674
Y22.205Z-26.671
Y22.082Z-26.665
Y21.959Z-26.702
Y21.466Z-26.831
Y21.33Z-26.859
Y20.974Z-26.922
Y20.482Z-26.978
Y19.989Z-26.998
Y19.497Z-26.984
Y19.005Z-26.935
Y18.512Z-26.85
Y18.02Z-26.728
Y17.528Z-26.568
Y17.035Z-26.365
Y16.543Z-26.133
Y16.051Z-25.874
Y15.801Z-25.722
Y15.558Z-25.561
Y15.312Z-25.382
Y15.066Z-25.186
Y14.734Z-24.89
Y14.574Z-24.733
Y14.263Z-24.397
Y14.081Z-24.179
Y13.873Z-23.905
Y13.589Z-23.478
Y13.549Z-23.413
Y13.28Z-22.92
Y13.097Z-22.518
Y13.059Z-22.428
Y12.882Z-21.936
Y12.745Z-21.443
Y12.645Z-20.951
Y12.604Z-20.662
Y12.582Z-20.459
Y12.553Z-19.966
Y12.552Z-19.659
Y7.556Z-7.599
X-58.993Y7.419Z-7.286
X-58.973Y7.27Z-6.98
X-58.938Y7.109Z-6.681
X-58.891Y6.937Z-6.39
X-58.829Y6.754Z-6.108
X-58.755Y6.561Z-5.836
X-58.668Y6.358Z-5.576
X-58.568Y6.147Z-5.327
X-58.455Y5.928Z-5.09
X-58.331Y5.701Z-4.867
X-58.195Y5.467Z-4.659
X-58.048Y5.228Z-4.465
X-57.891Y4.983Z-4.286
X-57.723Y4.734Z-4.123
X-57.546Y4.482Z-3.977
X-57.359Y4.227Z-3.848
X-57.164Y3.969Z-3.737
X-56.962Y3.711Z-3.643
X-56.752Y3.453Z-3.567
X-56.536Y3.195Z-3.509
X-56.314Y2.938Z-3.47
X-56.087Y2.684Z-3.45
X-55.855Y2.433Z-3.448
G00X50.
X-47.342Y36.948
Z-21.444
G01X-48.F600.
Y36.094Z-19.635
Y34.286Z-20.489
G02X-48.Y-17.84I0.J-58.842
X-48.Y-31.177I0.J-6.669
G01Y-33.174Z-33.414
Y-33.271Z-35.411
G00X50.
Y36.927Z-21.399
X-47.342
G01X-48.
Y36.073Z-19.59
Y34.264Z-20.444
G02X-48.Y-17.843I0.J-58.821
X-48.Y-31.174I0.J-6.667
G01Y-33.172Z-33.364
Y-33.268Z-35.362
G00X50.
X-49.25Y-32.654
Z27.98
G01X-50.F600.
Y-32.806Z25.986
Y-30.812Z25.833
Y-30.151Z25.782
Y-29.488Z25.737
Y-28.825Z25.698
Y-28.162Z25.664
Y-27.498Z25.636
Y-26.833Z25.613
Y-26.168Z25.596
Y-25.503Z25.585
Y-24.838Z25.579
Y-24.172
Y-23.506Z25.585
Y-22.841Z25.596
Y-22.175Z25.613
Y-21.51Z25.636
Y-20.845Z25.664
Y-20.18Z25.698
Y-19.515Z25.737
Y-18.851Z25.782
Y-18.188Z25.833
Y-17.601Z25.883
Y-16.939Z25.944
Y-16.278Z26.011
Y-15.618Z26.083
Y-14.958Z26.161
Y-14.298Z26.245
Y-13.639Z26.334
Y-12.981Z26.429
Y-12.324Z26.53
Y-11.668Z26.635
Y-11.013Z26.747
Y-10.359Z26.864
Y-9.706Z26.987
Y-9.053Z27.115
Y-8.402Z27.249
Y-7.751Z27.388
Y-7.102Z27.533
Y-6.963Z27.564
Y-6.824Z27.596
Y-6.177Z27.749
Y-5.531Z27.907
Y-4.886Z28.071
Y-4.243Z28.24
Y-3.602Z28.414
Y-2.962Z28.594
Y-2.324Z28.779
Y-1.687Z28.97
Y-1.052Z29.166
Y-.418Z29.368
Y.213Z29.574
Y.843Z29.787
Y1.471Z30.004
Y2.097Z30.227
Y2.721Z30.455
Y3.344Z30.688
Y3.964Z30.927
Y4.583Z31.171
Y5.2Z31.42
Y5.814Z31.675
Y6.427Z31.934
Y7.037Z32.199
Y7.646Z32.47
Y8.252Z32.745
Y8.855Z33.026
Y9.456Z33.311
Y10.055Z33.602
Y10.651Z33.898
Y11.245Z34.199
Y13.029Z35.103
Y12.125Z36.887
G00X50.
Y-32.659Z27.91
X-49.25
G01X-50.
Y-32.812Z25.916
Y-30.818Z25.763
Y-30.156Z25.713
Y-29.493Z25.667
Y-28.829Z25.628
Y-28.165Z25.594
Y-27.5Z25.566
Y-26.835Z25.543
Y-26.17Z25.526
Y-25.504Z25.515
Y-24.838Z25.509
Y-24.172
Y-23.506Z25.515
Y-22.839Z25.526
Y-22.173Z25.543
Y-21.507Z25.566
Y-20.841Z25.594
Y-20.176Z25.628
Y-19.511Z25.667
Y-18.846Z25.712
Y-18.182Z25.763
Y-17.595Z25.813
Y-16.932Z25.874
Y-16.271Z25.941
Y-15.61Z26.014
Y-14.949Z26.092
Y-14.289Z26.176
Y-13.63Z26.265
Y-12.971Z26.36
Y-12.313Z26.46
Y-11.656Z26.566
Y-11.001Z26.678
Y-10.346Z26.795
Y-9.693Z26.918
Y-9.04Z27.046
Y-8.388Z27.18
Y-7.737Z27.319
Y-7.087Z27.464
Y-6.947Z27.496
Y-6.808Z27.528
Y-6.16Z27.681
Y-5.514Z27.839
Y-4.868Z28.003
Y-4.225Z28.172
Y-3.583Z28.347
Y-2.943Z28.527
Y-2.304Z28.712
Y-1.667Z28.903
Y-1.031Z29.099
Y-.397Z29.301
Y.236Z29.508
Y.866Z29.72
Y1.495Z29.938
Y2.121Z30.161
Y2.746Z30.389
Y3.369Z30.623
Y3.99Z30.861
Y4.609Z31.106
Y5.226Z31.355
Y5.841Z31.61
Y6.455Z31.87
Y7.066Z32.135
Y7.674Z32.406
Y8.281Z32.682
Y8.885Z32.962
Y9.487Z33.248
Y10.086Z33.539
Y10.683Z33.835
Y11.277Z34.136
Y13.061Z35.04
Y12.157Z36.824
G00X50.
X-58.5Y-14.
Z49.7
G01X-65.F600.
Z49.1
G03X-65.Y-2.I0.J12.
G01Y0.Z37.1
Y32.5
G02X-65.Y38.6I0.J0.
G01Z-31.
G02X-65.Y32.5I0.J-6.1
G01Y-32.5Z-37.1
G02X-65.Y-38.6I0.J0.
G01Z31.
G02X-65.Y-32.5I0.J6.1
G01Y0.Z37.1
Y2.
G03X-65.Y14.I0.J0.
G01Z49.7
G00X50.
Y-14.Z49.6
X-58.5
G01X-65.
Z49.
G03X-65.Y-2.I0.J12.
G01Y0.Z37.
Y32.5
G02X-65.Y38.5I0.J0.
G01Z-31.
G02X-65.Y32.5I0.J-6.
G01Y-32.5Z-37.
G02X-65.Y-38.5I0.J0.
G01Z31.
G02X-65.Y-32.5I0.J6.
G01Y0.Z37.
Y2.
G03X-65.Y14.I0.J0.
G01Z49.6
G00X50.
/G05.1 Q0
M09
G00Z0.
X0.Y0.
M05
M30
%
